(G-CODE GENERATED BY FLATCAM v2024.4 - www.flatcam.org - Version Date: 2024/04/15)

(Name: DRILL_3_2MM.drl_cnc)
(Type: G-code from Geometry)
(Units: MM)

(Created on Monday, 03 November 2025 at 21:11)

(This preprocessor is the default preprocessor used by FlatCAM.)
(It is made to work with MACH3 compatible motion controllers.)


(TOOLS DIAMETER: )
(Tool: 1 -> Dia: 3.2)

(FEEDRATE Z: )
(Tool: 1 -> Feedrate: 300)

(FEEDRATE RAPIDS: )
(Tool: 1 -> Feedrate Rapids: 1500)

(Z_CUT: )
(Tool: 1 -> Z_Cut: -2.0)

(Tools Offset: )
(Tool: 1 -> Offset Z: 0.0)

(Z_MOVE: )
(Tool: 1 -> Z_Move: 2)

(Z Toolchange: 15.0 mm)
(X,Y Toolchange: 0.0000, 0.0000 mm)
(Z Start: None mm)
(Z End: 55.0 mm)
(X,Y End: None mm)
(Steps per circle: 64)
(Preprocessor Excellon: Default_no_M6)

(X range:    3.4250 ...   39.6250  mm)
(Y range:    2.9250 ...   62.1250  mm)

(Spindle Speed: 0 RPM)
G21
G90
G94

G01 F300.00

M5
G00 Z15.0000
T1
G00 X0.0000 Y0.0000                
(MSG, Change to Tool Dia = 3.2000 ||| Total drills for tool T1 = 4)
M0
G00 Z15.0000
		
G01 F300.00
M03
G00 X5.0250 Y60.5250
G01 Z-2.0000
G01 Z0
G00 Z2.0000
G00 X38.0250 Y4.5250
G01 Z-2.0000
G01 Z0
G00 Z2.0000
G00 X38.0250 Y60.5250
G01 Z-2.0000
G01 Z0
G00 Z2.0000
G00 X5.0250 Y4.5250
G01 Z-2.0000
G01 Z0
G00 Z2.0000
M05
G00 Z55.00


