(G-CODE GENERATED BY FLATCAM v2024.4 - www.flatcam.org - Version Date: 2024/04/15)

(Name: DRILL_1MM.drl_cnc)
(Type: G-code from Geometry)
(Units: MM)

(Created on Monday, 03 November 2025 at 21:10)

(This preprocessor is the default preprocessor used by FlatCAM.)
(It is made to work with MACH3 compatible motion controllers.)


(TOOLS DIAMETER: )
(Tool: 1 -> Dia: 1.0)

(FEEDRATE Z: )
(Tool: 1 -> Feedrate: 300)

(FEEDRATE RAPIDS: )
(Tool: 1 -> Feedrate Rapids: 1500)

(Z_CUT: )
(Tool: 1 -> Z_Cut: -2.0)

(Tools Offset: )
(Tool: 1 -> Offset Z: 0.0)

(Z_MOVE: )
(Tool: 1 -> Z_Move: 2.0)

(Z Toolchange: 55.0 mm)
(X,Y Toolchange: 0.0000, 0.0000 mm)
(Z Start: None mm)
(Z End: 0.5 mm)
(X,Y End: None mm)
(Steps per circle: 64)
(Preprocessor Excellon: Default_no_M6)

(X range:   10.7570 ...   32.0250  mm)
(Y range:    5.7910 ...   60.0250  mm)

(Spindle Speed: 0 RPM)
G21
G90
G94

G01 F300.00

M5
G00 Z55.0000
T1
G00 X0.0000 Y0.0000                
(MSG, Change to Tool Dia = 1.0000 ||| Total drills for tool T1 = 17)
M0
G00 Z55.0000
		
G01 F300.00
M03
G00 X11.2570 Y59.4620
G01 Z-2.0000
G01 Z0
G00 Z2.0000
G00 X31.5250 Y59.5250
G01 Z-2.0000
G01 Z0
G00 Z2.0000
G00 X29.0250 Y59.5250
G01 Z-2.0000
G01 Z0
G00 Z2.0000
G00 X26.3200 Y25.4290
G01 Z-2.0000
G01 Z0
G00 Z2.0000
G00 X26.1630 Y6.2910
G01 Z-2.0000
G01 Z0
G00 Z2.0000
G00 X23.7800 Y25.4290
G01 Z-2.0000
G01 Z0
G00 Z2.0000
G00 X23.6230 Y6.2910
G01 Z-2.0000
G01 Z0
G00 Z2.0000
G00 X21.2570 Y59.4620
G01 Z-2.0000
G01 Z0
G00 Z2.0000
G00 X21.2400 Y25.4290
G01 Z-2.0000
G01 Z0
G00 Z2.0000
G00 X21.0830 Y6.2910
G01 Z-2.0000
G01 Z0
G00 Z2.0000
G00 X18.7570 Y59.4620
G01 Z-2.0000
G01 Z0
G00 Z2.0000
G00 X18.7000 Y25.4290
G01 Z-2.0000
G01 Z0
G00 Z2.0000
G00 X18.5430 Y6.2910
G01 Z-2.0000
G01 Z0
G00 Z2.0000
G00 X16.2570 Y59.4620
G01 Z-2.0000
G01 Z0
G00 Z2.0000
G00 X16.1600 Y25.4290
G01 Z-2.0000
G01 Z0
G00 Z2.0000
G00 X16.0030 Y6.2910
G01 Z-2.0000
G01 Z0
G00 Z2.0000
G00 X13.7570 Y59.4620
G01 Z-2.0000
G01 Z0
G00 Z2.0000
M05
G00 Z0.50


