(G-CODE GENERATED BY FLATCAM v2024.4 - www.flatcam.org - Version Date: 2024/04/15)

(Name: FRONT_CU.gbr_iso_combined_cnc)
(Type: G-code from Geometry)
(Units: MM)

(Created on Wednesday, 12 November 2025 at 10:22)

(This preprocessor is the default preprocessor used by FlatCAM.)
(It is made to work with MACH3 compatible motion controllers.)

(TOOL DIAMETER: 0.1176 mm)
(Feedrate_XY: 280.0 mm/min)
(Feedrate_Z: 240.0 mm/min)
(Feedrate rapids 1500.0 mm/min)

(Z_Cut: -0.0499 mm)
(Z_Move: 4.0 mm)
(Z Start: None mm)
(Z End: 55.0 mm)
(X,Y End: None mm)
(Steps per circle: 64)
(Preprocessor Geometry: Default_no_M6)

(X range:   10.0921 ...   32.6897  mm)
(Y range:    5.1264 ...   60.6897  mm)

(Spindle Speed: 10000.0 RPM)
G21
G90
G94

G01 F280.00

M5
G00 Z15.0000
G00 X0.0000 Y0.0000
T1
(MSG, Change to Tool Dia = 0.1176)
M0
G00 Z15.0000
		
M03 S10000
G01 F280.00
G00 X20.6764 Y5.3135
G01 F240.00
G01 Z-0.0499
G01 F280.00
G01 X20.7756 Y5.2779
G01 X20.8736 Y5.2533
G01 X20.8792 Y5.2521
G01 X20.9792 Y5.2374
G01 X21.0801 Y5.2324
G01 X21.0858 Y5.2324
G01 X21.1839 Y5.2372
G01 X21.1896 Y5.2377
G01 X21.2895 Y5.2526
G01 X21.3903 Y5.2779
G01 X21.4881 Y5.3129
G01 X21.5795 Y5.3560
G01 X21.5846 Y5.3587
G01 X21.6688 Y5.4092
G01 X21.6735 Y5.4124
G01 X21.7546 Y5.4726
G01 X21.8295 Y5.5404
G01 X21.8336 Y5.5445
G01 X21.9014 Y5.6194
G01 X21.9633 Y5.7029
G01 X22.0167 Y5.7920
G01 X22.0600 Y5.8833
G01 X22.0622 Y5.8886
G01 X22.0962 Y5.9837
G01 X22.1208 Y6.0817
G01 X22.1219 Y6.0874
G01 X22.1365 Y6.1859
G01 X22.1418 Y6.2911
G01 X22.1369 Y6.3920
G01 X22.1363 Y6.3977
G01 X22.1219 Y6.4948
G01 X22.1208 Y6.5005
G01 X22.0962 Y6.5984
G01 X22.0612 Y6.6963
G01 X22.0167 Y6.7902
G01 X21.9641 Y6.8781
G01 X21.9014 Y6.9628
G01 X21.8336 Y7.0377
G01 X21.8295 Y7.0418
G01 X21.7535 Y7.1105
G01 X21.6712 Y7.1714
G01 X21.5833 Y7.2242
G01 X21.4895 Y7.2687
G01 X21.4419 Y7.2859
G01 X21.4419 Y11.4343
G01 X24.0349 Y14.0273
G01 X24.0575 Y14.0523
G01 X24.0785 Y14.0806
G01 X24.0966 Y14.1108
G01 X24.1105 Y14.1400
G01 X24.1127 Y14.1454
G01 X24.1243 Y14.1786
G01 X24.1321 Y14.2100
G01 X24.1374 Y14.2463
G01 X24.1390 Y14.2800
G01 X24.1390 Y24.4347
G01 X24.1866 Y24.4519
G01 X24.2804 Y24.4964
G01 X24.3683 Y24.5492
G01 X24.4506 Y24.6101
G01 X24.5266 Y24.6788
G01 X24.5307 Y24.6829
G01 X24.5985 Y24.7578
G01 X24.6596 Y24.8401
G01 X24.7124 Y24.9279
G01 X24.7151 Y24.9330
G01 X24.7582 Y25.0243
G01 X24.7933 Y25.1222
G01 X24.8185 Y25.2229
G01 X24.8334 Y25.3229
G01 X24.8340 Y25.3286
G01 X24.8388 Y25.4295
G01 X24.8337 Y25.5333
G01 X24.8190 Y25.6332
G01 X24.8179 Y25.6389
G01 X24.7933 Y25.7369
G01 X24.7582 Y25.8347
G01 X24.7151 Y25.9260
G01 X24.7124 Y25.9311
G01 X24.6596 Y26.0189
G01 X24.5985 Y26.1012
G01 X24.5307 Y26.1761
G01 X24.5266 Y26.1802
G01 X24.4506 Y26.2489
G01 X24.3683 Y26.3099
G01 X24.2804 Y26.3626
G01 X24.1866 Y26.4071
G01 X24.1390 Y26.4243
G01 X24.1390 Y46.1314
G01 X29.2788 Y51.2712
G01 X29.3025 Y51.2973
G01 X29.3218 Y51.3232
G01 X29.3250 Y51.3280
G01 X29.3416 Y51.3558
G01 X29.3555 Y51.3850
G01 X29.3676 Y51.4181
G01 X29.3693 Y51.4236
G01 X29.3776 Y51.4578
G01 X29.3822 Y51.4898
G01 X29.3840 Y51.5250
G01 X29.3840 Y58.5302
G01 X29.4315 Y58.5474
G01 X29.5254 Y58.5919
G01 X29.6133 Y58.6447
G01 X29.6956 Y58.7056
G01 X29.7716 Y58.7743
G01 X29.7757 Y58.7784
G01 X29.8435 Y58.8533
G01 X29.9046 Y58.9356
G01 X29.9574 Y59.0234
G01 X29.9601 Y59.0285
G01 X30.0032 Y59.1198
G01 X30.0382 Y59.2177
G01 X30.0635 Y59.3185
G01 X30.0784 Y59.4184
G01 X30.0789 Y59.4241
G01 X30.0838 Y59.5265
G01 X30.0787 Y59.6288
G01 X30.0635 Y59.7316
G01 X30.0382 Y59.8324
G01 X30.0043 Y59.9275
G01 X30.0020 Y59.9328
G01 X29.9601 Y60.0215
G01 X29.9574 Y60.0266
G01 X29.9054 Y60.1133
G01 X29.8435 Y60.1967
G01 X29.7737 Y60.2737
G01 X29.6967 Y60.3435
G01 X29.6133 Y60.4054
G01 X29.5266 Y60.4574
G01 X29.5215 Y60.4601
G01 X29.4302 Y60.5032
G01 X29.3351 Y60.5373
G01 X29.3296 Y60.5390
G01 X29.2344 Y60.5628
G01 X29.2287 Y60.5640
G01 X29.1317 Y60.5784
G01 X29.1259 Y60.5789
G01 X29.0250 Y60.5838
G01 X28.9241 Y60.5789
G01 X28.9184 Y60.5784
G01 X28.8185 Y60.5635
G01 X28.7204 Y60.5390
G01 X28.7149 Y60.5373
G01 X28.6198 Y60.5032
G01 X28.5259 Y60.4588
G01 X28.4368 Y60.4054
G01 X28.3556 Y60.3453
G01 X28.3511 Y60.3416
G01 X28.2763 Y60.2737
G01 X28.2065 Y60.1967
G01 X28.1447 Y60.1133
G01 X28.0912 Y60.0241
G01 X28.0468 Y59.9302
G01 X28.0118 Y59.8324
G01 X27.9866 Y59.7316
G01 X27.9712 Y59.6274
G01 X27.9662 Y59.5250
G01 X27.9711 Y59.4241
G01 X27.9717 Y59.4184
G01 X27.9861 Y59.3213
G01 X27.9872 Y59.3156
G01 X28.0118 Y59.2177
G01 X28.0468 Y59.1198
G01 X28.0912 Y59.0259
G01 X28.1439 Y58.9380
G01 X28.2065 Y58.8533
G01 X28.2743 Y58.7784
G01 X28.2784 Y58.7743
G01 X28.3544 Y58.7056
G01 X28.4368 Y58.6447
G01 X28.5246 Y58.5919
G01 X28.6185 Y58.5474
G01 X28.6661 Y58.5302
G01 X28.6661 Y51.6737
G01 X23.5262 Y46.5339
G01 X23.5045 Y46.5099
G01 X23.5008 Y46.5055
G01 X23.4816 Y46.4795
G01 X23.4635 Y46.4493
G01 X23.4484 Y46.4174
G01 X23.4375 Y46.3870
G01 X23.4358 Y46.3815
G01 X23.4275 Y46.3472
G01 X23.4228 Y46.3152
G01 X23.4211 Y46.2800
G01 X23.4211 Y26.4243
G01 X23.3735 Y26.4071
G01 X23.2797 Y26.3626
G01 X23.1918 Y26.3099
G01 X23.1095 Y26.2489
G01 X23.0334 Y26.1802
G01 X23.0294 Y26.1761
G01 X22.9616 Y26.1012
G01 X22.9005 Y26.0189
G01 X22.8477 Y25.9311
G01 X22.8450 Y25.9260
G01 X22.8018 Y25.8347
G01 X22.7668 Y25.7369
G01 X22.7416 Y25.6361
G01 X22.7267 Y25.5362
G01 X22.7261 Y25.5304
G01 X22.7212 Y25.4295
G01 X22.7263 Y25.3257
G01 X22.7411 Y25.2258
G01 X22.7422 Y25.2201
G01 X22.7668 Y25.1222
G01 X22.8018 Y25.0243
G01 X22.8450 Y24.9330
G01 X22.8477 Y24.9279
G01 X22.9005 Y24.8401
G01 X22.9616 Y24.7578
G01 X23.0294 Y24.6829
G01 X23.0334 Y24.6788
G01 X23.1095 Y24.6101
G01 X23.1918 Y24.5492
G01 X23.2797 Y24.4964
G01 X23.3735 Y24.4519
G01 X23.4211 Y24.4347
G01 X23.4211 Y14.4287
G01 X20.8291 Y11.8368
G01 X20.8055 Y11.8107
G01 X20.7862 Y11.7847
G01 X20.7830 Y11.7799
G01 X20.7664 Y11.7522
G01 X20.7525 Y11.7230
G01 X20.7503 Y11.7176
G01 X20.7395 Y11.6871
G01 X20.7309 Y11.6530
G01 X20.7261 Y11.6210
G01 X20.7255 Y11.6153
G01 X20.7240 Y11.5830
G01 X20.7240 Y7.2859
G01 X20.6764 Y7.2687
G01 X20.5826 Y7.2242
G01 X20.4947 Y7.1714
G01 X20.4124 Y7.1105
G01 X20.3364 Y7.0418
G01 X20.3323 Y7.0377
G01 X20.2645 Y6.9628
G01 X20.2034 Y6.8805
G01 X20.1506 Y6.7927
G01 X20.1479 Y6.7876
G01 X20.1047 Y6.6963
G01 X20.0697 Y6.5984
G01 X20.0445 Y6.4977
G01 X20.0296 Y6.3977
G01 X20.0290 Y6.3920
G01 X20.0242 Y6.2911
G01 X20.0292 Y6.1873
G01 X20.0440 Y6.0874
G01 X20.0451 Y6.0817
G01 X20.0697 Y5.9837
G01 X20.1037 Y5.8886
G01 X20.1059 Y5.8833
G01 X20.1492 Y5.7920
G01 X20.2026 Y5.7029
G01 X20.2645 Y5.6194
G01 X20.3323 Y5.5445
G01 X20.3364 Y5.5404
G01 X20.4113 Y5.4726
G01 X20.4924 Y5.4124
G01 X20.4972 Y5.4092
G01 X20.5838 Y5.3573
G01 X20.6764 Y5.3135
G00 Z4.0000
G00 X23.2164 Y5.3135
G01 F240.00
G01 Z-0.0499
G01 F280.00
G01 X23.3156 Y5.2779
G01 X23.4164 Y5.2526
G01 X23.5192 Y5.2374
G01 X23.6201 Y5.2324
G01 X23.6258 Y5.2324
G01 X23.7267 Y5.2374
G01 X23.8267 Y5.2521
G01 X23.8323 Y5.2533
G01 X23.9275 Y5.2771
G01 X23.9330 Y5.2788
G01 X24.0281 Y5.3129
G01 X24.1221 Y5.3573
G01 X24.2112 Y5.4107
G01 X24.2924 Y5.4709
G01 X24.2968 Y5.4745
G01 X24.3695 Y5.5404
G01 X24.3736 Y5.5445
G01 X24.4414 Y5.6194
G01 X24.5016 Y5.7005
G01 X24.5049 Y5.7053
G01 X24.5567 Y5.7920
G01 X24.6012 Y5.8859
G01 X24.6362 Y5.9837
G01 X24.6617 Y6.0859
G01 X24.6767 Y6.1873
G01 X24.6818 Y6.2911
G01 X24.6767 Y6.3949
G01 X24.6619 Y6.4948
G01 X24.6608 Y6.5005
G01 X24.6369 Y6.5957
G01 X24.6353 Y6.6012
G01 X24.6012 Y6.6963
G01 X24.5560 Y6.7915
G01 X24.5033 Y6.8793
G01 X24.4414 Y6.9628
G01 X24.3716 Y7.0398
G01 X24.2958 Y7.1086
G01 X24.2112 Y7.1714
G01 X24.1233 Y7.2242
G01 X24.0295 Y7.2687
G01 X23.9819 Y7.2859
G01 X23.9819 Y9.9743
G01 X26.5749 Y12.5673
G01 X26.5975 Y12.5923
G01 X26.6185 Y12.6206
G01 X26.6366 Y12.6508
G01 X26.6505 Y12.6800
G01 X26.6527 Y12.6854
G01 X26.6643 Y12.7186
G01 X26.6721 Y12.7500
G01 X26.6773 Y12.7849
G01 X26.6790 Y12.8200
G01 X26.6790 Y24.4347
G01 X26.7266 Y24.4519
G01 X26.8204 Y24.4964
G01 X26.9083 Y24.5492
G01 X26.9906 Y24.6101
G01 X27.0666 Y24.6788
G01 X27.0707 Y24.6829
G01 X27.1385 Y24.7578
G01 X27.1996 Y24.8401
G01 X27.2524 Y24.9279
G01 X27.2551 Y24.9330
G01 X27.2982 Y25.0243
G01 X27.3333 Y25.1222
G01 X27.3585 Y25.2229
G01 X27.3734 Y25.3229
G01 X27.3740 Y25.3286
G01 X27.3788 Y25.4295
G01 X27.3737 Y25.5333
G01 X27.3590 Y25.6332
G01 X27.3579 Y25.6389
G01 X27.3333 Y25.7369
G01 X27.2982 Y25.8347
G01 X27.2551 Y25.9260
G01 X27.2524 Y25.9311
G01 X27.1996 Y26.0189
G01 X27.1385 Y26.1012
G01 X27.0707 Y26.1761
G01 X27.0666 Y26.1802
G01 X26.9906 Y26.2489
G01 X26.9083 Y26.3099
G01 X26.8204 Y26.3626
G01 X26.7266 Y26.4071
G01 X26.6790 Y26.4243
G01 X26.6790 Y44.6714
G01 X31.7788 Y49.7712
G01 X31.8025 Y49.7973
G01 X31.8218 Y49.8232
G01 X31.8250 Y49.8280
G01 X31.8416 Y49.8558
G01 X31.8555 Y49.8850
G01 X31.8681 Y49.9194
G01 X31.8764 Y49.9522
G01 X31.8776 Y49.9578
G01 X31.8822 Y49.9898
G01 X31.8840 Y50.0250
G01 X31.8840 Y58.5302
G01 X31.9315 Y58.5474
G01 X32.0254 Y58.5919
G01 X32.1133 Y58.6447
G01 X32.1956 Y58.7056
G01 X32.2716 Y58.7743
G01 X32.2757 Y58.7784
G01 X32.3435 Y58.8533
G01 X32.4046 Y58.9356
G01 X32.4574 Y59.0234
G01 X32.4601 Y59.0285
G01 X32.5032 Y59.1198
G01 X32.5382 Y59.2177
G01 X32.5635 Y59.3185
G01 X32.5784 Y59.4184
G01 X32.5789 Y59.4241
G01 X32.5838 Y59.5265
G01 X32.5787 Y59.6288
G01 X32.5635 Y59.7316
G01 X32.5382 Y59.8324
G01 X32.5043 Y59.9275
G01 X32.5020 Y59.9328
G01 X32.4601 Y60.0215
G01 X32.4574 Y60.0266
G01 X32.4054 Y60.1133
G01 X32.3435 Y60.1967
G01 X32.2737 Y60.2737
G01 X32.1967 Y60.3435
G01 X32.1133 Y60.4054
G01 X32.0266 Y60.4574
G01 X32.0215 Y60.4601
G01 X31.9302 Y60.5032
G01 X31.8351 Y60.5373
G01 X31.8296 Y60.5390
G01 X31.7344 Y60.5628
G01 X31.7287 Y60.5640
G01 X31.6317 Y60.5784
G01 X31.6259 Y60.5789
G01 X31.5250 Y60.5838
G01 X31.4241 Y60.5789
G01 X31.4184 Y60.5784
G01 X31.3185 Y60.5635
G01 X31.2204 Y60.5390
G01 X31.2149 Y60.5373
G01 X31.1198 Y60.5032
G01 X31.0259 Y60.4588
G01 X30.9368 Y60.4054
G01 X30.8556 Y60.3453
G01 X30.8511 Y60.3416
G01 X30.7763 Y60.2737
G01 X30.7065 Y60.1967
G01 X30.6447 Y60.1133
G01 X30.5912 Y60.0241
G01 X30.5468 Y59.9302
G01 X30.5118 Y59.8324
G01 X30.4866 Y59.7316
G01 X30.4717 Y59.6317
G01 X30.4711 Y59.6259
G01 X30.4662 Y59.5250
G01 X30.4713 Y59.4212
G01 X30.4866 Y59.3185
G01 X30.5110 Y59.2204
G01 X30.5127 Y59.2149
G01 X30.5458 Y59.1225
G01 X30.5480 Y59.1172
G01 X30.5912 Y59.0259
G01 X30.6439 Y58.9380
G01 X30.7065 Y58.8533
G01 X30.7743 Y58.7784
G01 X30.7784 Y58.7743
G01 X30.8544 Y58.7056
G01 X30.9368 Y58.6447
G01 X31.0246 Y58.5919
G01 X31.1185 Y58.5474
G01 X31.1661 Y58.5302
G01 X31.1661 Y50.1737
G01 X26.0662 Y45.0739
G01 X26.0445 Y45.0499
G01 X26.0408 Y45.0455
G01 X26.0216 Y45.0195
G01 X26.0035 Y44.9893
G01 X25.9884 Y44.9574
G01 X25.9775 Y44.9270
G01 X25.9758 Y44.9215
G01 X25.9675 Y44.8872
G01 X25.9628 Y44.8552
G01 X25.9611 Y44.8200
G01 X25.9611 Y26.4243
G01 X25.9135 Y26.4071
G01 X25.8197 Y26.3626
G01 X25.7318 Y26.3099
G01 X25.6495 Y26.2489
G01 X25.5734 Y26.1802
G01 X25.5694 Y26.1761
G01 X25.5016 Y26.1012
G01 X25.4405 Y26.0189
G01 X25.3877 Y25.9311
G01 X25.3850 Y25.9260
G01 X25.3418 Y25.8347
G01 X25.3068 Y25.7369
G01 X25.2816 Y25.6361
G01 X25.2667 Y25.5362
G01 X25.2661 Y25.5304
G01 X25.2612 Y25.4295
G01 X25.2663 Y25.3257
G01 X25.2811 Y25.2258
G01 X25.2822 Y25.2201
G01 X25.3068 Y25.1222
G01 X25.3418 Y25.0243
G01 X25.3850 Y24.9330
G01 X25.3877 Y24.9279
G01 X25.4405 Y24.8401
G01 X25.5016 Y24.7578
G01 X25.5694 Y24.6829
G01 X25.5734 Y24.6788
G01 X25.6495 Y24.6101
G01 X25.7318 Y24.5492
G01 X25.8197 Y24.4964
G01 X25.9135 Y24.4519
G01 X25.9611 Y24.4347
G01 X25.9611 Y12.9687
G01 X23.3691 Y10.3768
G01 X23.3455 Y10.3507
G01 X23.3245 Y10.3224
G01 X23.3064 Y10.2922
G01 X23.2925 Y10.2630
G01 X23.2903 Y10.2576
G01 X23.2795 Y10.2271
G01 X23.2709 Y10.1930
G01 X23.2657 Y10.1581
G01 X23.2640 Y10.1230
G01 X23.2640 Y7.2859
G01 X23.2164 Y7.2687
G01 X23.1226 Y7.2242
G01 X23.0347 Y7.1714
G01 X22.9524 Y7.1105
G01 X22.8764 Y7.0418
G01 X22.8723 Y7.0377
G01 X22.8045 Y6.9628
G01 X22.7434 Y6.8805
G01 X22.6906 Y6.7927
G01 X22.6879 Y6.7876
G01 X22.6447 Y6.6963
G01 X22.6097 Y6.5984
G01 X22.5851 Y6.5005
G01 X22.5840 Y6.4948
G01 X22.5692 Y6.3949
G01 X22.5642 Y6.2925
G01 X22.5690 Y6.1902
G01 X22.5696 Y6.1844
G01 X22.5845 Y6.0845
G01 X22.6097 Y5.9837
G01 X22.6437 Y5.8886
G01 X22.6459 Y5.8833
G01 X22.6892 Y5.7920
G01 X22.7426 Y5.7029
G01 X22.8045 Y5.6194
G01 X22.8723 Y5.5445
G01 X22.8764 Y5.5404
G01 X22.9513 Y5.4726
G01 X23.0324 Y5.4124
G01 X23.0372 Y5.4092
G01 X23.1238 Y5.3573
G01 X23.2164 Y5.3135
G00 Z4.0000
G00 X25.7135 Y5.2167
G01 F240.00
G01 Z-0.0499
G01 F280.00
G01 X25.7248 Y5.2122
G01 X25.8249 Y5.1766
G01 X25.9357 Y5.1488
G01 X26.0488 Y5.1321
G01 X26.1630 Y5.1264
G01 X26.2771 Y5.1321
G01 X26.3902 Y5.1488
G01 X26.5010 Y5.1766
G01 X26.6086 Y5.2151
G01 X26.7120 Y5.2640
G01 X26.8100 Y5.3227
G01 X26.9018 Y5.3908
G01 X26.9865 Y5.4676
G01 X27.0632 Y5.5522
G01 X27.1313 Y5.6441
G01 X27.1901 Y5.7421
G01 X27.2389 Y5.8454
G01 X27.2774 Y5.9530
G01 X27.3052 Y6.0639
G01 X27.3220 Y6.1769
G01 X27.3276 Y6.2911
G01 X27.3220 Y6.4052
G01 X27.3052 Y6.5183
G01 X27.2774 Y6.6292
G01 X27.2389 Y6.7368
G01 X27.1901 Y6.8401
G01 X27.1313 Y6.9381
G01 X27.0632 Y7.0299
G01 X26.9865 Y7.1146
G01 X26.9018 Y7.1914
G01 X26.8100 Y7.2595
G01 X26.7120 Y7.3182
G01 X26.6086 Y7.3671
G01 X26.5010 Y7.4056
G01 X26.3902 Y7.4334
G01 X26.2771 Y7.4501
G01 X26.1630 Y7.4557
G01 X26.0488 Y7.4501
G01 X25.9357 Y7.4334
G01 X25.8249 Y7.4056
G01 X25.7173 Y7.3671
G01 X25.6139 Y7.3182
G01 X25.5159 Y7.2595
G01 X25.4241 Y7.1914
G01 X25.3394 Y7.1146
G01 X25.2627 Y7.0299
G01 X25.1946 Y6.9381
G01 X25.1358 Y6.8401
G01 X25.0870 Y6.7368
G01 X25.0485 Y6.6292
G01 X25.0207 Y6.5183
G01 X25.0039 Y6.4052
G01 X24.9983 Y6.2911
G01 X25.0039 Y6.1769
G01 X25.0207 Y6.0639
G01 X25.0485 Y5.9530
G01 X25.0870 Y5.8454
G01 X25.1358 Y5.7421
G01 X25.1946 Y5.6441
G01 X25.2627 Y5.5522
G01 X25.3394 Y5.4676
G01 X25.4241 Y5.3908
G01 X25.5159 Y5.3227
G01 X25.6139 Y5.2640
G01 X25.7135 Y5.2167
G00 Z4.0000
G00 X25.7564 Y5.3135
G01 F240.00
G01 Z-0.0499
G01 F280.00
G01 X25.8556 Y5.2779
G01 X25.9564 Y5.2526
G01 X26.0592 Y5.2374
G01 X26.1630 Y5.2323
G01 X26.2667 Y5.2374
G01 X26.3695 Y5.2526
G01 X26.4703 Y5.2779
G01 X26.5681 Y5.3129
G01 X26.6621 Y5.3573
G01 X26.7512 Y5.4107
G01 X26.8346 Y5.4726
G01 X26.9116 Y5.5424
G01 X26.9814 Y5.6194
G01 X27.0433 Y5.7029
G01 X27.0967 Y5.7920
G01 X27.1412 Y5.8859
G01 X27.1762 Y5.9837
G01 X27.2014 Y6.0845
G01 X27.2167 Y6.1873
G01 X27.2218 Y6.2911
G01 X27.2167 Y6.3949
G01 X27.2014 Y6.4977
G01 X27.1762 Y6.5984
G01 X27.1412 Y6.6963
G01 X27.0967 Y6.7902
G01 X27.0433 Y6.8793
G01 X26.9814 Y6.9628
G01 X26.9116 Y7.0398
G01 X26.8346 Y7.1096
G01 X26.7512 Y7.1714
G01 X26.6621 Y7.2249
G01 X26.5681 Y7.2693
G01 X26.4703 Y7.3043
G01 X26.3695 Y7.3295
G01 X26.2667 Y7.3448
G01 X26.1630 Y7.3499
G01 X26.0592 Y7.3448
G01 X25.9564 Y7.3295
G01 X25.8556 Y7.3043
G01 X25.7578 Y7.2693
G01 X25.6638 Y7.2249
G01 X25.5747 Y7.1714
G01 X25.4913 Y7.1096
G01 X25.4143 Y7.0398
G01 X25.3445 Y6.9628
G01 X25.2826 Y6.8793
G01 X25.2292 Y6.7902
G01 X25.1847 Y6.6963
G01 X25.1497 Y6.5984
G01 X25.1245 Y6.4977
G01 X25.1092 Y6.3949
G01 X25.1042 Y6.2911
G01 X25.1092 Y6.1873
G01 X25.1245 Y6.0845
G01 X25.1497 Y5.9837
G01 X25.1847 Y5.8859
G01 X25.2292 Y5.7920
G01 X25.2826 Y5.7029
G01 X25.3445 Y5.6194
G01 X25.4143 Y5.5424
G01 X25.4913 Y5.4726
G01 X25.5747 Y5.4107
G01 X25.6638 Y5.3573
G01 X25.7564 Y5.3135
G00 Z4.0000
G00 X23.1584 Y10.1310
G01 F240.00
G01 Z-0.0499
G01 F280.00
G01 X23.1582 Y7.3583
G01 X23.0739 Y7.3182
G01 X22.9759 Y7.2595
G01 X22.8841 Y7.1914
G01 X22.8053 Y7.1202
G01 X22.7939 Y7.1088
G01 X22.7280 Y7.0360
G01 X22.7177 Y7.0236
G01 X22.6546 Y6.9381
G01 X22.5998 Y6.8471
G01 X22.5922 Y6.8329
G01 X22.5502 Y6.7442
G01 X22.5441 Y6.7292
G01 X22.5085 Y6.6292
G01 X22.4807 Y6.5183
G01 X22.4639 Y6.4052
G01 X22.4585 Y6.2992
G01 X22.4585 Y6.2830
G01 X22.4633 Y6.1850
G01 X22.4644 Y6.1729
G01 X22.4807 Y6.0639
G01 X22.5085 Y5.9530
G01 X22.5470 Y5.8454
G01 X22.5958 Y5.7421
G01 X22.6546 Y5.6441
G01 X22.7227 Y5.5522
G01 X22.7994 Y5.4676
G01 X22.8841 Y5.3908
G01 X22.9759 Y5.3227
G01 X23.0739 Y5.2640
G01 X23.1773 Y5.2151
G01 X23.2849 Y5.1766
G01 X23.3957 Y5.1488
G01 X23.5088 Y5.1321
G01 X23.6230 Y5.1264
G01 X23.7290 Y5.1315
G01 X23.7411 Y5.1325
G01 X23.8502 Y5.1488
G01 X23.9610 Y5.1766
G01 X24.0686 Y5.2151
G01 X24.1647 Y5.2603
G01 X24.1790 Y5.2680
G01 X24.2632 Y5.3184
G01 X24.2766 Y5.3274
G01 X24.3618 Y5.3908
G01 X24.4465 Y5.4676
G01 X24.5232 Y5.5522
G01 X24.5913 Y5.6441
G01 X24.6501 Y5.7421
G01 X24.6957 Y5.8380
G01 X24.7018 Y5.8529
G01 X24.7349 Y5.9453
G01 X24.7396 Y5.9608
G01 X24.7652 Y6.0639
G01 X24.7810 Y6.1689
G01 X24.7823 Y6.1810
G01 X24.7876 Y6.2911
G01 X24.7826 Y6.3972
G01 X24.7810 Y6.4133
G01 X24.7652 Y6.5183
G01 X24.7374 Y6.6292
G01 X24.7018 Y6.7292
G01 X24.6957 Y6.7442
G01 X24.6537 Y6.8329
G01 X24.6461 Y6.8471
G01 X24.5913 Y6.9381
G01 X24.5282 Y7.0236
G01 X24.5180 Y7.0360
G01 X24.4520 Y7.1088
G01 X24.4406 Y7.1202
G01 X24.3618 Y7.1914
G01 X24.2700 Y7.2595
G01 X24.1720 Y7.3182
G01 X24.0877 Y7.3583
G01 X24.0877 Y9.9304
G01 X26.6515 Y12.4943
G01 X26.6793 Y12.5252
G01 X26.7065 Y12.5618
G01 X26.7300 Y12.6009
G01 X26.7462 Y12.6348
G01 X26.7524 Y12.6497
G01 X26.7636 Y12.6813
G01 X26.7670 Y12.6929
G01 X26.7759 Y12.7294
G01 X26.7816 Y12.7665
G01 X26.7829 Y12.7785
G01 X26.7848 Y12.8200
G01 X26.7848 Y24.3623
G01 X26.8690 Y24.4024
G01 X26.9603 Y24.4568
G01 X26.9737 Y24.4658
G01 X27.0589 Y24.5292
G01 X27.1377 Y24.6004
G01 X27.1491 Y24.6118
G01 X27.2203 Y24.6907
G01 X27.2884 Y24.7825
G01 X27.3472 Y24.8805
G01 X27.3928 Y24.9764
G01 X27.3989 Y24.9914
G01 X27.4345 Y25.0914
G01 X27.4623 Y25.2023
G01 X27.4781 Y25.3073
G01 X27.4797 Y25.3234
G01 X27.4847 Y25.4295
G01 X27.4791 Y25.5437
G01 X27.4637 Y25.6488
G01 X27.4605 Y25.6646
G01 X27.4345 Y25.7676
G01 X27.3989 Y25.8677
G01 X27.3928 Y25.8826
G01 X27.3472 Y25.9785
G01 X27.2884 Y26.0766
G01 X27.2203 Y26.1684
G01 X27.1491 Y26.2472
G01 X27.1377 Y26.2586
G01 X27.0589 Y26.3298
G01 X26.9737 Y26.3932
G01 X26.9603 Y26.4022
G01 X26.8690 Y26.4566
G01 X26.7848 Y26.4967
G01 X26.7848 Y44.6275
G01 X31.8537 Y49.6964
G01 X31.8843 Y49.7302
G01 X31.9068 Y49.7602
G01 X31.9158 Y49.7736
G01 X31.9349 Y49.8059
G01 X31.9511 Y49.8398
G01 X31.9573 Y49.8547
G01 X31.9698 Y49.8901
G01 X31.9791 Y49.9265
G01 X31.9823 Y49.9423
G01 X31.9876 Y49.9795
G01 X31.9898 Y50.0250
G01 X31.9898 Y58.4578
G01 X32.0740 Y58.4979
G01 X32.1652 Y58.5523
G01 X32.1787 Y58.5613
G01 X32.2639 Y58.6247
G01 X32.3485 Y58.7015
G01 X32.4200 Y58.7801
G01 X32.4303 Y58.7925
G01 X32.4934 Y58.8780
G01 X32.5521 Y58.9760
G01 X32.5977 Y59.0719
G01 X32.6039 Y59.0869
G01 X32.6395 Y59.1869
G01 X32.6673 Y59.2978
G01 X32.6831 Y59.4028
G01 X32.6846 Y59.4189
G01 X32.6895 Y59.5169
G01 X32.6896 Y59.5291
G01 X32.6840 Y59.6392
G01 X32.6673 Y59.7522
G01 X32.6395 Y59.8631
G01 X32.6039 Y59.9632
G01 X32.5977 Y59.9781
G01 X32.5558 Y60.0668
G01 X32.5482 Y60.0811
G01 X32.4934 Y60.1721
G01 X32.4253 Y60.2639
G01 X32.3485 Y60.3485
G01 X32.2639 Y60.4253
G01 X32.1721 Y60.4934
G01 X32.0811 Y60.5482
G01 X32.0668 Y60.5558
G01 X31.9781 Y60.5977
G01 X31.9632 Y60.6039
G01 X31.8631 Y60.6395
G01 X31.7601 Y60.6655
G01 X31.7482 Y60.6680
G01 X31.6392 Y60.6840
G01 X31.5250 Y60.6897
G01 X31.4109 Y60.6840
G01 X31.3058 Y60.6687
G01 X31.2899 Y60.6655
G01 X31.1869 Y60.6395
G01 X31.0869 Y60.6039
G01 X31.0719 Y60.5977
G01 X30.9832 Y60.5558
G01 X30.9690 Y60.5482
G01 X30.8780 Y60.4934
G01 X30.7925 Y60.4303
G01 X30.7801 Y60.4200
G01 X30.7015 Y60.3485
G01 X30.6247 Y60.2639
G01 X30.5566 Y60.1721
G01 X30.4979 Y60.0740
G01 X30.4490 Y59.9707
G01 X30.4105 Y59.8631
G01 X30.3828 Y59.7522
G01 X30.3670 Y59.6472
G01 X30.3656 Y59.6351
G01 X30.3604 Y59.5250
G01 X30.3654 Y59.4189
G01 X30.3670 Y59.4028
G01 X30.3828 Y59.2978
G01 X30.4105 Y59.1869
G01 X30.4461 Y59.0869
G01 X30.4523 Y59.0719
G01 X30.4943 Y58.9832
G01 X30.5019 Y58.9690
G01 X30.5566 Y58.8780
G01 X30.6198 Y58.7925
G01 X30.6300 Y58.7801
G01 X30.6959 Y58.7073
G01 X30.7073 Y58.6959
G01 X30.7862 Y58.6247
G01 X30.8780 Y58.5566
G01 X30.9760 Y58.4979
G01 X31.0602 Y58.4578
G01 X31.0602 Y50.2175
G01 X25.9914 Y45.1487
G01 X25.9660 Y45.1210
G01 X25.9558 Y45.1085
G01 X25.9336 Y45.0783
G01 X25.9101 Y45.0391
G01 X25.8906 Y44.9979
G01 X25.8778 Y44.9626
G01 X25.8731 Y44.9472
G01 X25.8660 Y44.9186
G01 X25.8634 Y44.9067
G01 X25.8575 Y44.8656
G01 X25.8553 Y44.8200
G01 X25.8553 Y26.4967
G01 X25.7710 Y26.4566
G01 X25.6798 Y26.4022
G01 X25.6664 Y26.3932
G01 X25.5812 Y26.3298
G01 X25.5024 Y26.2586
G01 X25.4909 Y26.2472
G01 X25.4198 Y26.1684
G01 X25.3517 Y26.0766
G01 X25.2929 Y25.9785
G01 X25.2473 Y25.8826
G01 X25.2411 Y25.8677
G01 X25.2056 Y25.7676
G01 X25.1778 Y25.6567
G01 X25.1620 Y25.5517
G01 X25.1604 Y25.5356
G01 X25.1554 Y25.4295
G01 X25.1610 Y25.3154
G01 X25.1764 Y25.2103
G01 X25.1796 Y25.1944
G01 X25.2056 Y25.0914
G01 X25.2411 Y24.9914
G01 X25.2473 Y24.9764
G01 X25.2929 Y24.8805
G01 X25.3517 Y24.7825
G01 X25.4198 Y24.6907
G01 X25.4909 Y24.6118
G01 X25.5024 Y24.6004
G01 X25.5812 Y24.5292
G01 X25.6664 Y24.4658
G01 X25.6798 Y24.4568
G01 X25.7710 Y24.4024
G01 X25.8553 Y24.3623
G01 X25.8553 Y13.0126
G01 X23.2915 Y10.4487
G01 X23.2637 Y10.4178
G01 X23.2365 Y10.3812
G01 X23.2130 Y10.3421
G01 X23.1935 Y10.3008
G01 X23.1782 Y10.2579
G01 X23.1671 Y10.2136
G01 X23.1604 Y10.1685
G01 X23.1584 Y10.1310
G00 Z4.0000
G00 X20.6184 Y11.5910
G01 F240.00
G01 Z-0.0499
G01 F280.00
G01 X20.6182 Y7.3583
G01 X20.5339 Y7.3182
G01 X20.4359 Y7.2595
G01 X20.3441 Y7.1914
G01 X20.2653 Y7.1202
G01 X20.2539 Y7.1088
G01 X20.1880 Y7.0360
G01 X20.1777 Y7.0236
G01 X20.1146 Y6.9381
G01 X20.0598 Y6.8471
G01 X20.0522 Y6.8329
G01 X20.0102 Y6.7442
G01 X20.0041 Y6.7292
G01 X19.9685 Y6.6292
G01 X19.9407 Y6.5183
G01 X19.9239 Y6.4052
G01 X19.9185 Y6.2992
G01 X19.9185 Y6.2830
G01 X19.9239 Y6.1769
G01 X19.9407 Y6.0639
G01 X19.9685 Y5.9530
G01 X20.0070 Y5.8454
G01 X20.0558 Y5.7421
G01 X20.1146 Y5.6441
G01 X20.1827 Y5.5522
G01 X20.2594 Y5.4676
G01 X20.3441 Y5.3908
G01 X20.4359 Y5.3227
G01 X20.5339 Y5.2640
G01 X20.6373 Y5.2151
G01 X20.7449 Y5.1766
G01 X20.8557 Y5.1488
G01 X20.9688 Y5.1321
G01 X21.0830 Y5.1264
G01 X21.1971 Y5.1321
G01 X21.3102 Y5.1488
G01 X21.4132 Y5.1744
G01 X21.4287 Y5.1791
G01 X21.5211 Y5.2122
G01 X21.5360 Y5.2184
G01 X21.6320 Y5.2640
G01 X21.7300 Y5.3227
G01 X21.8218 Y5.3908
G01 X21.9065 Y5.4676
G01 X21.9832 Y5.5522
G01 X22.0513 Y5.6441
G01 X22.1101 Y5.7421
G01 X22.1557 Y5.8380
G01 X22.1618 Y5.8529
G01 X22.1949 Y5.9453
G01 X22.1996 Y5.9608
G01 X22.2252 Y6.0639
G01 X22.2410 Y6.1689
G01 X22.2426 Y6.1850
G01 X22.2476 Y6.2911
G01 X22.2426 Y6.3972
G01 X22.2410 Y6.4133
G01 X22.2252 Y6.5183
G01 X22.1974 Y6.6292
G01 X22.1618 Y6.7292
G01 X22.1557 Y6.7442
G01 X22.1137 Y6.8329
G01 X22.1061 Y6.8471
G01 X22.0513 Y6.9381
G01 X21.9882 Y7.0236
G01 X21.9780 Y7.0360
G01 X21.9120 Y7.1088
G01 X21.9006 Y7.1202
G01 X21.8218 Y7.1914
G01 X21.7300 Y7.2595
G01 X21.6320 Y7.3182
G01 X21.5477 Y7.3583
G01 X21.5477 Y11.3904
G01 X24.1115 Y13.9543
G01 X24.1393 Y13.9852
G01 X24.1665 Y14.0218
G01 X24.1900 Y14.0609
G01 X24.2062 Y14.0948
G01 X24.2124 Y14.1097
G01 X24.2236 Y14.1413
G01 X24.2270 Y14.1529
G01 X24.2359 Y14.1894
G01 X24.2416 Y14.2265
G01 X24.2429 Y14.2385
G01 X24.2448 Y14.2800
G01 X24.2448 Y24.3623
G01 X24.3290 Y24.4024
G01 X24.4203 Y24.4568
G01 X24.4337 Y24.4658
G01 X24.5189 Y24.5292
G01 X24.5977 Y24.6004
G01 X24.6091 Y24.6118
G01 X24.6803 Y24.6907
G01 X24.7484 Y24.7825
G01 X24.8072 Y24.8805
G01 X24.8528 Y24.9764
G01 X24.8589 Y24.9914
G01 X24.8945 Y25.0914
G01 X24.9223 Y25.2023
G01 X24.9381 Y25.3073
G01 X24.9397 Y25.3234
G01 X24.9447 Y25.4295
G01 X24.9391 Y25.5437
G01 X24.9237 Y25.6488
G01 X24.9205 Y25.6646
G01 X24.8945 Y25.7676
G01 X24.8589 Y25.8677
G01 X24.8528 Y25.8826
G01 X24.8072 Y25.9785
G01 X24.7484 Y26.0766
G01 X24.6803 Y26.1684
G01 X24.6091 Y26.2472
G01 X24.5977 Y26.2586
G01 X24.5189 Y26.3298
G01 X24.4337 Y26.3932
G01 X24.4203 Y26.4022
G01 X24.3290 Y26.4566
G01 X24.2448 Y26.4967
G01 X24.2448 Y46.0875
G01 X29.3537 Y51.1964
G01 X29.3843 Y51.2302
G01 X29.4068 Y51.2602
G01 X29.4158 Y51.2736
G01 X29.4349 Y51.3059
G01 X29.4511 Y51.3398
G01 X29.4559 Y51.3509
G01 X29.4686 Y51.3862
G01 X29.4719 Y51.3979
G01 X29.4791 Y51.4265
G01 X29.4823 Y51.4423
G01 X29.4876 Y51.4795
G01 X29.4898 Y51.5250
G01 X29.4898 Y58.4578
G01 X29.5740 Y58.4979
G01 X29.6652 Y58.5523
G01 X29.6787 Y58.5613
G01 X29.7639 Y58.6247
G01 X29.8485 Y58.7015
G01 X29.9200 Y58.7801
G01 X29.9303 Y58.7925
G01 X29.9934 Y58.8780
G01 X30.0521 Y58.9760
G01 X30.0977 Y59.0719
G01 X30.1039 Y59.0869
G01 X30.1395 Y59.1869
G01 X30.1673 Y59.2978
G01 X30.1831 Y59.4028
G01 X30.1846 Y59.4189
G01 X30.1895 Y59.5169
G01 X30.1896 Y59.5291
G01 X30.1840 Y59.6392
G01 X30.1673 Y59.7522
G01 X30.1395 Y59.8631
G01 X30.1039 Y59.9632
G01 X30.0977 Y59.9781
G01 X30.0558 Y60.0668
G01 X30.0482 Y60.0811
G01 X29.9934 Y60.1721
G01 X29.9253 Y60.2639
G01 X29.8485 Y60.3485
G01 X29.7639 Y60.4253
G01 X29.6721 Y60.4934
G01 X29.5811 Y60.5482
G01 X29.5668 Y60.5558
G01 X29.4781 Y60.5977
G01 X29.4632 Y60.6039
G01 X29.3631 Y60.6395
G01 X29.2601 Y60.6655
G01 X29.2482 Y60.6680
G01 X29.1392 Y60.6840
G01 X29.0250 Y60.6897
G01 X28.9109 Y60.6840
G01 X28.8058 Y60.6687
G01 X28.7899 Y60.6655
G01 X28.6869 Y60.6395
G01 X28.5869 Y60.6039
G01 X28.5719 Y60.5977
G01 X28.4832 Y60.5558
G01 X28.4690 Y60.5482
G01 X28.3780 Y60.4934
G01 X28.2925 Y60.4303
G01 X28.2801 Y60.4200
G01 X28.2015 Y60.3485
G01 X28.1247 Y60.2639
G01 X28.0566 Y60.1721
G01 X27.9979 Y60.0740
G01 X27.9490 Y59.9707
G01 X27.9105 Y59.8631
G01 X27.8828 Y59.7522
G01 X27.8670 Y59.6472
G01 X27.8656 Y59.6351
G01 X27.8604 Y59.5250
G01 X27.8654 Y59.4189
G01 X27.8670 Y59.4028
G01 X27.8828 Y59.2978
G01 X27.9105 Y59.1869
G01 X27.9461 Y59.0869
G01 X27.9523 Y59.0719
G01 X27.9943 Y58.9832
G01 X28.0019 Y58.9690
G01 X28.0566 Y58.8780
G01 X28.1198 Y58.7925
G01 X28.1300 Y58.7801
G01 X28.1959 Y58.7073
G01 X28.2073 Y58.6959
G01 X28.2862 Y58.6247
G01 X28.3780 Y58.5566
G01 X28.4760 Y58.4979
G01 X28.5602 Y58.4578
G01 X28.5602 Y51.7175
G01 X23.4514 Y46.6087
G01 X23.4260 Y46.5810
G01 X23.4158 Y46.5685
G01 X23.3936 Y46.5383
G01 X23.3701 Y46.4991
G01 X23.3506 Y46.4579
G01 X23.3378 Y46.4226
G01 X23.3331 Y46.4072
G01 X23.3260 Y46.3786
G01 X23.3234 Y46.3667
G01 X23.3175 Y46.3256
G01 X23.3153 Y46.2800
G01 X23.3153 Y26.4967
G01 X23.2310 Y26.4566
G01 X23.1398 Y26.4022
G01 X23.1264 Y26.3932
G01 X23.0412 Y26.3298
G01 X22.9624 Y26.2586
G01 X22.9509 Y26.2472
G01 X22.8798 Y26.1684
G01 X22.8117 Y26.0766
G01 X22.7529 Y25.9785
G01 X22.7073 Y25.8826
G01 X22.7011 Y25.8677
G01 X22.6656 Y25.7676
G01 X22.6378 Y25.6567
G01 X22.6220 Y25.5517
G01 X22.6204 Y25.5356
G01 X22.6154 Y25.4295
G01 X22.6210 Y25.3154
G01 X22.6364 Y25.2103
G01 X22.6396 Y25.1944
G01 X22.6656 Y25.0914
G01 X22.7011 Y24.9914
G01 X22.7073 Y24.9764
G01 X22.7529 Y24.8805
G01 X22.8117 Y24.7825
G01 X22.8798 Y24.6907
G01 X22.9509 Y24.6118
G01 X22.9624 Y24.6004
G01 X23.0412 Y24.5292
G01 X23.1264 Y24.4658
G01 X23.1398 Y24.4568
G01 X23.2310 Y24.4024
G01 X23.3153 Y24.3623
G01 X23.3153 Y14.4726
G01 X20.7515 Y11.9087
G01 X20.7237 Y11.8778
G01 X20.6965 Y11.8412
G01 X20.6730 Y11.8021
G01 X20.6535 Y11.7608
G01 X20.6382 Y11.7179
G01 X20.6271 Y11.6736
G01 X20.6204 Y11.6285
G01 X20.6184 Y11.5910
G00 Z4.0000
G00 X20.8335 Y24.4519
G01 F240.00
G01 Z-0.0499
G01 F280.00
G01 X20.9327 Y24.4163
G01 X21.0307 Y24.3917
G01 X21.0363 Y24.3906
G01 X21.1363 Y24.3758
G01 X21.2372 Y24.3708
G01 X21.2429 Y24.3708
G01 X21.3438 Y24.3758
G01 X21.4466 Y24.3911
G01 X21.5446 Y24.4155
G01 X21.5501 Y24.4172
G01 X21.6452 Y24.4513
G01 X21.7366 Y24.4944
G01 X21.7417 Y24.4972
G01 X21.8283 Y24.5492
G01 X21.9117 Y24.6110
G01 X21.9866 Y24.6788
G01 X21.9907 Y24.6829
G01 X22.0585 Y24.7578
G01 X22.1187 Y24.8389
G01 X22.1219 Y24.8437
G01 X22.1738 Y24.9304
G01 X22.2182 Y25.0243
G01 X22.2523 Y25.1194
G01 X22.2540 Y25.1249
G01 X22.2785 Y25.2229
G01 X22.2934 Y25.3229
G01 X22.2940 Y25.3286
G01 X22.2988 Y25.4295
G01 X22.2937 Y25.5333
G01 X22.2790 Y25.6332
G01 X22.2779 Y25.6389
G01 X22.2533 Y25.7369
G01 X22.2182 Y25.8347
G01 X22.1751 Y25.9260
G01 X22.1724 Y25.9311
G01 X22.1196 Y26.0189
G01 X22.0585 Y26.1012
G01 X21.9907 Y26.1761
G01 X21.9866 Y26.1802
G01 X21.9106 Y26.2489
G01 X21.8283 Y26.3099
G01 X21.7404 Y26.3626
G01 X21.6466 Y26.4071
G01 X21.6157 Y26.4184
G01 X21.6157 Y58.4668
G01 X21.6633 Y58.4840
G01 X21.7571 Y58.5286
G01 X21.8450 Y58.5813
G01 X21.9273 Y58.6423
G01 X22.0033 Y58.7110
G01 X22.0074 Y58.7151
G01 X22.0752 Y58.7900
G01 X22.1363 Y58.8722
G01 X22.1891 Y58.9600
G01 X22.1918 Y58.9651
G01 X22.2350 Y59.0565
G01 X22.2700 Y59.1543
G01 X22.2952 Y59.2551
G01 X22.3101 Y59.3550
G01 X22.3107 Y59.3608
G01 X22.3155 Y59.4631
G01 X22.3105 Y59.5654
G01 X22.2952 Y59.6682
G01 X22.2700 Y59.7690
G01 X22.2350 Y59.8668
G01 X22.1905 Y59.9608
G01 X22.1371 Y60.0499
G01 X22.0752 Y60.1334
G01 X22.0054 Y60.2103
G01 X21.9284 Y60.2801
G01 X21.8450 Y60.3420
G01 X21.7559 Y60.3954
G01 X21.6619 Y60.4399
G01 X21.5641 Y60.4749
G01 X21.4633 Y60.5001
G01 X21.3605 Y60.5154
G01 X21.2568 Y60.5205
G01 X21.1530 Y60.5154
G01 X21.0502 Y60.5001
G01 X20.9494 Y60.4749
G01 X20.8516 Y60.4399
G01 X20.7576 Y60.3954
G01 X20.6685 Y60.3420
G01 X20.5851 Y60.2801
G01 X20.5081 Y60.2103
G01 X20.4383 Y60.1334
G01 X20.3764 Y60.0499
G01 X20.3230 Y59.9608
G01 X20.2786 Y59.8668
G01 X20.2435 Y59.7690
G01 X20.2183 Y59.6682
G01 X20.2031 Y59.5654
G01 X20.1980 Y59.4617
G01 X20.2031 Y59.3579
G01 X20.2178 Y59.2579
G01 X20.2189 Y59.2523
G01 X20.2435 Y59.1543
G01 X20.2786 Y59.0565
G01 X20.3217 Y58.9651
G01 X20.3244 Y58.9600
G01 X20.3772 Y58.8722
G01 X20.4383 Y58.7900
G01 X20.5061 Y58.7151
G01 X20.5102 Y58.7110
G01 X20.5862 Y58.6423
G01 X20.6685 Y58.5813
G01 X20.7564 Y58.5286
G01 X20.8502 Y58.4840
G01 X20.8978 Y58.4668
G01 X20.8978 Y26.4303
G01 X20.8349 Y26.4077
G01 X20.7397 Y26.3626
G01 X20.6518 Y26.3099
G01 X20.5695 Y26.2489
G01 X20.4934 Y26.1802
G01 X20.4894 Y26.1761
G01 X20.4216 Y26.1012
G01 X20.3605 Y26.0189
G01 X20.3077 Y25.9311
G01 X20.3050 Y25.9260
G01 X20.2618 Y25.8347
G01 X20.2268 Y25.7369
G01 X20.2016 Y25.6361
G01 X20.1867 Y25.5362
G01 X20.1861 Y25.5304
G01 X20.1812 Y25.4295
G01 X20.1863 Y25.3257
G01 X20.2011 Y25.2258
G01 X20.2022 Y25.2201
G01 X20.2268 Y25.1222
G01 X20.2608 Y25.0270
G01 X20.2630 Y25.0217
G01 X20.3063 Y24.9304
G01 X20.3597 Y24.8413
G01 X20.4216 Y24.7578
G01 X20.4894 Y24.6829
G01 X20.4934 Y24.6788
G01 X20.5683 Y24.6110
G01 X20.6494 Y24.5508
G01 X20.6542 Y24.5476
G01 X20.7409 Y24.4957
G01 X20.8335 Y24.4519
G00 Z4.0000
G00 X18.2935 Y24.4519
G01 F240.00
G01 Z-0.0499
G01 F280.00
G01 X18.3927 Y24.4163
G01 X18.4907 Y24.3917
G01 X18.4963 Y24.3906
G01 X18.5963 Y24.3758
G01 X18.6972 Y24.3708
G01 X18.7029 Y24.3708
G01 X18.8038 Y24.3758
G01 X18.9066 Y24.3911
G01 X19.0046 Y24.4155
G01 X19.0101 Y24.4172
G01 X19.1052 Y24.4513
G01 X19.1966 Y24.4944
G01 X19.2017 Y24.4972
G01 X19.2883 Y24.5492
G01 X19.3717 Y24.6110
G01 X19.4466 Y24.6788
G01 X19.4507 Y24.6829
G01 X19.5185 Y24.7578
G01 X19.5787 Y24.8389
G01 X19.5819 Y24.8437
G01 X19.6338 Y24.9304
G01 X19.6782 Y25.0243
G01 X19.7123 Y25.1194
G01 X19.7140 Y25.1249
G01 X19.7385 Y25.2229
G01 X19.7534 Y25.3229
G01 X19.7540 Y25.3286
G01 X19.7588 Y25.4281
G01 X19.7540 Y25.5304
G01 X19.7534 Y25.5362
G01 X19.7385 Y25.6361
G01 X19.7133 Y25.7369
G01 X19.6793 Y25.8320
G01 X19.6771 Y25.8373
G01 X19.6338 Y25.9286
G01 X19.5804 Y26.0177
G01 X19.5185 Y26.1012
G01 X19.4507 Y26.1761
G01 X19.4466 Y26.1802
G01 X19.3717 Y26.2480
G01 X19.2906 Y26.3082
G01 X19.2858 Y26.3114
G01 X19.1992 Y26.3633
G01 X19.1157 Y26.4028
G01 X19.1157 Y58.4668
G01 X19.1633 Y58.4840
G01 X19.2571 Y58.5286
G01 X19.3450 Y58.5813
G01 X19.4273 Y58.6423
G01 X19.5033 Y58.7110
G01 X19.5074 Y58.7151
G01 X19.5752 Y58.7900
G01 X19.6363 Y58.8722
G01 X19.6891 Y58.9600
G01 X19.6918 Y58.9651
G01 X19.7350 Y59.0565
G01 X19.7700 Y59.1543
G01 X19.7952 Y59.2551
G01 X19.8101 Y59.3550
G01 X19.8107 Y59.3608
G01 X19.8155 Y59.4631
G01 X19.8105 Y59.5654
G01 X19.7952 Y59.6682
G01 X19.7700 Y59.7690
G01 X19.7350 Y59.8668
G01 X19.6905 Y59.9608
G01 X19.6371 Y60.0499
G01 X19.5752 Y60.1334
G01 X19.5054 Y60.2103
G01 X19.4284 Y60.2801
G01 X19.3450 Y60.3420
G01 X19.2559 Y60.3954
G01 X19.1619 Y60.4399
G01 X19.0641 Y60.4749
G01 X18.9633 Y60.5001
G01 X18.8605 Y60.5154
G01 X18.7582 Y60.5204
G01 X18.6530 Y60.5154
G01 X18.5502 Y60.5001
G01 X18.4494 Y60.4749
G01 X18.3516 Y60.4399
G01 X18.2576 Y60.3954
G01 X18.1685 Y60.3420
G01 X18.0851 Y60.2801
G01 X18.0081 Y60.2103
G01 X17.9383 Y60.1334
G01 X17.8764 Y60.0499
G01 X17.8230 Y59.9608
G01 X17.7786 Y59.8668
G01 X17.7435 Y59.7690
G01 X17.7183 Y59.6682
G01 X17.7031 Y59.5654
G01 X17.6980 Y59.4631
G01 X17.7028 Y59.3608
G01 X17.7034 Y59.3550
G01 X17.7183 Y59.2551
G01 X17.7435 Y59.1543
G01 X17.7786 Y59.0565
G01 X17.8217 Y58.9651
G01 X17.8244 Y58.9600
G01 X17.8772 Y58.8722
G01 X17.9383 Y58.7900
G01 X18.0061 Y58.7151
G01 X18.0102 Y58.7110
G01 X18.0862 Y58.6423
G01 X18.1685 Y58.5813
G01 X18.2564 Y58.5286
G01 X18.3502 Y58.4840
G01 X18.3978 Y58.4668
G01 X18.3978 Y26.4441
G01 X18.3899 Y26.4418
G01 X18.2975 Y26.4088
G01 X18.2922 Y26.4065
G01 X18.2009 Y26.3633
G01 X18.1118 Y26.3099
G01 X18.0283 Y26.2480
G01 X17.9534 Y26.1802
G01 X17.9494 Y26.1761
G01 X17.8835 Y26.1034
G01 X17.8798 Y26.0989
G01 X17.8197 Y26.0177
G01 X17.7663 Y25.9286
G01 X17.7218 Y25.8347
G01 X17.6877 Y25.7396
G01 X17.6861 Y25.7341
G01 X17.6622 Y25.6389
G01 X17.6611 Y25.6332
G01 X17.6463 Y25.5333
G01 X17.6412 Y25.4295
G01 X17.6463 Y25.3257
G01 X17.6611 Y25.2258
G01 X17.6622 Y25.2201
G01 X17.6868 Y25.1222
G01 X17.7208 Y25.0270
G01 X17.7230 Y25.0217
G01 X17.7663 Y24.9304
G01 X17.8197 Y24.8413
G01 X17.8816 Y24.7578
G01 X17.9494 Y24.6829
G01 X17.9534 Y24.6788
G01 X18.0283 Y24.6110
G01 X18.1094 Y24.5508
G01 X18.1142 Y24.5476
G01 X18.2009 Y24.4957
G01 X18.2935 Y24.4519
G00 Z4.0000
G00 X18.2506 Y24.3551
G01 F240.00
G01 Z-0.0499
G01 F280.00
G01 X18.2619 Y24.3506
G01 X18.3620 Y24.3150
G01 X18.4649 Y24.2890
G01 X18.4808 Y24.2859
G01 X18.5859 Y24.2705
G01 X18.6920 Y24.2651
G01 X18.7081 Y24.2651
G01 X18.8142 Y24.2705
G01 X18.9273 Y24.2872
G01 X19.0303 Y24.3129
G01 X19.0458 Y24.3176
G01 X19.1457 Y24.3535
G01 X19.2418 Y24.3988
G01 X19.2561 Y24.4064
G01 X19.3471 Y24.4611
G01 X19.4389 Y24.5292
G01 X19.5177 Y24.6004
G01 X19.5291 Y24.6118
G01 X19.6003 Y24.6907
G01 X19.6638 Y24.7759
G01 X19.6727 Y24.7893
G01 X19.7272 Y24.8805
G01 X19.7760 Y24.9838
G01 X19.8120 Y25.0838
G01 X19.8167 Y25.0992
G01 X19.8423 Y25.2023
G01 X19.8581 Y25.3073
G01 X19.8597 Y25.3234
G01 X19.8646 Y25.4255
G01 X19.8645 Y25.4376
G01 X19.8597 Y25.5356
G01 X19.8581 Y25.5517
G01 X19.8423 Y25.6567
G01 X19.8145 Y25.7676
G01 X19.7789 Y25.8677
G01 X19.7728 Y25.8826
G01 X19.7272 Y25.9785
G01 X19.6727 Y26.0697
G01 X19.6638 Y26.0832
G01 X19.6053 Y26.1620
G01 X19.5950 Y26.1745
G01 X19.5236 Y26.2530
G01 X19.4450 Y26.3245
G01 X19.4325 Y26.3348
G01 X19.3537 Y26.3932
G01 X19.3437 Y26.4001
G01 X19.2526 Y26.4547
G01 X19.2455 Y26.4585
G01 X19.2215 Y26.4699
G01 X19.2215 Y58.3945
G01 X19.3058 Y58.4345
G01 X19.3970 Y58.4890
G01 X19.4104 Y58.4980
G01 X19.4956 Y58.5614
G01 X19.5803 Y58.6381
G01 X19.6518 Y58.7167
G01 X19.6620 Y58.7292
G01 X19.7251 Y58.8146
G01 X19.7839 Y58.9127
G01 X19.8295 Y59.0086
G01 X19.8356 Y59.0235
G01 X19.8712 Y59.1236
G01 X19.8990 Y59.2345
G01 X19.9148 Y59.3395
G01 X19.9164 Y59.3556
G01 X19.9212 Y59.4536
G01 X19.9213 Y59.4657
G01 X19.9158 Y59.5758
G01 X19.8990 Y59.6889
G01 X19.8712 Y59.7997
G01 X19.8327 Y59.9074
G01 X19.7839 Y60.0107
G01 X19.7251 Y60.1087
G01 X19.6570 Y60.2005
G01 X19.5803 Y60.2852
G01 X19.4956 Y60.3619
G01 X19.4038 Y60.4300
G01 X19.3058 Y60.4888
G01 X19.2024 Y60.5377
G01 X19.0948 Y60.5762
G01 X18.9840 Y60.6039
G01 X18.8709 Y60.6207
G01 X18.7608 Y60.6263
G01 X18.7487 Y60.6261
G01 X18.6426 Y60.6207
G01 X18.5295 Y60.6039
G01 X18.4187 Y60.5762
G01 X18.3111 Y60.5377
G01 X18.2077 Y60.4888
G01 X18.1097 Y60.4300
G01 X18.0179 Y60.3619
G01 X17.9332 Y60.2852
G01 X17.8565 Y60.2005
G01 X17.7884 Y60.1087
G01 X17.7296 Y60.0107
G01 X17.6808 Y59.9074
G01 X17.6423 Y59.7997
G01 X17.6145 Y59.6889
G01 X17.5977 Y59.5758
G01 X17.5922 Y59.4657
G01 X17.5923 Y59.4536
G01 X17.5971 Y59.3556
G01 X17.5987 Y59.3395
G01 X17.6145 Y59.2345
G01 X17.6423 Y59.1236
G01 X17.6808 Y59.0160
G01 X17.7260 Y58.9199
G01 X17.7336 Y58.9056
G01 X17.7884 Y58.8146
G01 X17.8565 Y58.7228
G01 X17.9277 Y58.6440
G01 X17.9391 Y58.6326
G01 X18.0179 Y58.5614
G01 X18.1031 Y58.4980
G01 X18.1165 Y58.4890
G01 X18.2077 Y58.4345
G01 X18.2920 Y58.3945
G01 X18.2920 Y26.5192
G01 X18.2619 Y26.5084
G01 X18.2506 Y26.5039
G01 X18.1583 Y26.4603
G01 X18.1475 Y26.4547
G01 X18.0530 Y26.3979
G01 X17.9644 Y26.3323
G01 X17.9551 Y26.3245
G01 X17.8824 Y26.2586
G01 X17.8709 Y26.2472
G01 X17.7998 Y26.1684
G01 X17.7340 Y26.0799
G01 X17.7274 Y26.0697
G01 X17.6769 Y25.9855
G01 X17.6693 Y25.9713
G01 X17.6241 Y25.8752
G01 X17.5856 Y25.7676
G01 X17.5578 Y25.6567
G01 X17.5420 Y25.5517
G01 X17.5404 Y25.5356
G01 X17.5356 Y25.4376
G01 X17.5355 Y25.4255
G01 X17.5410 Y25.3154
G01 X17.5564 Y25.2103
G01 X17.5596 Y25.1944
G01 X17.5856 Y25.0914
G01 X17.6211 Y24.9914
G01 X17.6273 Y24.9764
G01 X17.6729 Y24.8805
G01 X17.7317 Y24.7825
G01 X17.7998 Y24.6907
G01 X17.8709 Y24.6118
G01 X17.8824 Y24.6004
G01 X17.9612 Y24.5292
G01 X18.0464 Y24.4658
G01 X18.0598 Y24.4568
G01 X18.1510 Y24.4024
G01 X18.2506 Y24.3551
G00 Z4.0000
G00 X15.7535 Y24.4519
G01 F240.00
G01 Z-0.0499
G01 F280.00
G01 X15.8527 Y24.4163
G01 X15.9507 Y24.3917
G01 X15.9563 Y24.3906
G01 X16.0563 Y24.3758
G01 X16.1572 Y24.3708
G01 X16.1629 Y24.3708
G01 X16.2638 Y24.3758
G01 X16.3666 Y24.3911
G01 X16.4646 Y24.4155
G01 X16.4701 Y24.4172
G01 X16.5652 Y24.4513
G01 X16.6566 Y24.4944
G01 X16.6617 Y24.4972
G01 X16.7483 Y24.5492
G01 X16.8317 Y24.6110
G01 X16.9066 Y24.6788
G01 X16.9107 Y24.6829
G01 X16.9785 Y24.7578
G01 X17.0387 Y24.8389
G01 X17.0419 Y24.8437
G01 X17.0938 Y24.9304
G01 X17.1382 Y25.0243
G01 X17.1723 Y25.1194
G01 X17.1740 Y25.1249
G01 X17.1985 Y25.2229
G01 X17.2134 Y25.3229
G01 X17.2140 Y25.3286
G01 X17.2188 Y25.4281
G01 X17.2140 Y25.5304
G01 X17.2134 Y25.5362
G01 X17.1985 Y25.6361
G01 X17.1733 Y25.7369
G01 X17.1382 Y25.8347
G01 X17.0951 Y25.9260
G01 X17.0924 Y25.9311
G01 X17.0396 Y26.0189
G01 X16.9785 Y26.1012
G01 X16.9107 Y26.1761
G01 X16.9066 Y26.1802
G01 X16.8306 Y26.2489
G01 X16.7483 Y26.3099
G01 X16.6604 Y26.3626
G01 X16.5666 Y26.4071
G01 X16.5190 Y26.4243
G01 X16.5190 Y58.4371
G01 X16.5655 Y58.4489
G01 X16.6633 Y58.4840
G01 X16.7559 Y58.5279
G01 X16.8438 Y58.5805
G01 X16.9284 Y58.6432
G01 X17.0033 Y58.7110
G01 X17.0074 Y58.7151
G01 X17.0761 Y58.7911
G01 X17.1371 Y58.8734
G01 X17.1905 Y58.9625
G01 X17.2350 Y59.0565
G01 X17.2691 Y59.1516
G01 X17.2707 Y59.1571
G01 X17.2946 Y59.2523
G01 X17.2957 Y59.2579
G01 X17.3105 Y59.3579
G01 X17.3155 Y59.4631
G01 X17.3105 Y59.5654
G01 X17.2952 Y59.6682
G01 X17.2700 Y59.7690
G01 X17.2350 Y59.8668
G01 X17.1905 Y59.9608
G01 X17.1371 Y60.0499
G01 X17.0752 Y60.1334
G01 X17.0054 Y60.2103
G01 X16.9284 Y60.2801
G01 X16.8450 Y60.3420
G01 X16.7559 Y60.3954
G01 X16.6619 Y60.4399
G01 X16.5641 Y60.4749
G01 X16.4633 Y60.5001
G01 X16.3605 Y60.5154
G01 X16.2582 Y60.5204
G01 X16.1530 Y60.5154
G01 X16.0502 Y60.5001
G01 X15.9494 Y60.4749
G01 X15.8516 Y60.4399
G01 X15.7576 Y60.3954
G01 X15.6685 Y60.3420
G01 X15.5851 Y60.2801
G01 X15.5081 Y60.2103
G01 X15.4383 Y60.1334
G01 X15.3764 Y60.0499
G01 X15.3230 Y59.9608
G01 X15.2786 Y59.8668
G01 X15.2435 Y59.7690
G01 X15.2183 Y59.6682
G01 X15.2031 Y59.5654
G01 X15.1980 Y59.4631
G01 X15.2028 Y59.3608
G01 X15.2034 Y59.3550
G01 X15.2183 Y59.2551
G01 X15.2435 Y59.1543
G01 X15.2775 Y59.0592
G01 X15.2797 Y59.0538
G01 X15.3230 Y58.9625
G01 X15.3756 Y58.8746
G01 X15.4365 Y58.7922
G01 X15.4402 Y58.7878
G01 X15.5081 Y58.7130
G01 X15.5840 Y58.6441
G01 X15.6697 Y58.5805
G01 X15.7564 Y58.5286
G01 X15.8011 Y58.5073
G01 X15.8011 Y26.4243
G01 X15.7535 Y26.4071
G01 X15.6597 Y26.3626
G01 X15.5718 Y26.3099
G01 X15.4895 Y26.2489
G01 X15.4134 Y26.1802
G01 X15.4094 Y26.1761
G01 X15.3416 Y26.1012
G01 X15.2805 Y26.0189
G01 X15.2277 Y25.9311
G01 X15.2250 Y25.9260
G01 X15.1818 Y25.8347
G01 X15.1468 Y25.7369
G01 X15.1216 Y25.6361
G01 X15.1067 Y25.5362
G01 X15.1061 Y25.5304
G01 X15.1013 Y25.4281
G01 X15.1063 Y25.3257
G01 X15.1211 Y25.2258
G01 X15.1222 Y25.2201
G01 X15.1468 Y25.1222
G01 X15.1808 Y25.0270
G01 X15.1830 Y25.0217
G01 X15.2263 Y24.9304
G01 X15.2797 Y24.8413
G01 X15.3416 Y24.7578
G01 X15.4094 Y24.6829
G01 X15.4134 Y24.6788
G01 X15.4883 Y24.6110
G01 X15.5694 Y24.5508
G01 X15.5742 Y24.5476
G01 X15.6609 Y24.4957
G01 X15.7535 Y24.4519
G00 Z4.0000
G00 X12.6676 Y46.0938
G01 F240.00
G01 Z-0.0499
G01 F280.00
G01 X12.6661 Y46.0615
G01 X12.6661 Y15.5250
G01 X12.6676 Y15.4927
G01 X12.6681 Y15.4870
G01 X12.6730 Y15.4550
G01 X12.6815 Y15.4208
G01 X12.6934 Y15.3876
G01 X12.7071 Y15.3584
G01 X12.7250 Y15.3280
G01 X12.7282 Y15.3232
G01 X12.7475 Y15.2973
G01 X12.7712 Y15.2712
G01 X18.1840 Y9.8584
G01 X18.1840 Y7.2859
G01 X18.1364 Y7.2687
G01 X18.0426 Y7.2242
G01 X17.9547 Y7.1714
G01 X17.8724 Y7.1105
G01 X17.7964 Y7.0418
G01 X17.7923 Y7.0377
G01 X17.7245 Y6.9628
G01 X17.6618 Y6.8781
G01 X17.6092 Y6.7902
G01 X17.5647 Y6.6963
G01 X17.5297 Y6.5984
G01 X17.5051 Y6.5005
G01 X17.5040 Y6.4948
G01 X17.4896 Y6.3977
G01 X17.4890 Y6.3920
G01 X17.4842 Y6.2911
G01 X17.4892 Y6.1873
G01 X17.5045 Y6.0845
G01 X17.5297 Y5.9837
G01 X17.5647 Y5.8859
G01 X17.6092 Y5.7920
G01 X17.6626 Y5.7029
G01 X17.7245 Y5.6194
G01 X17.7943 Y5.5424
G01 X17.8713 Y5.4726
G01 X17.9547 Y5.4107
G01 X18.0438 Y5.3573
G01 X18.1378 Y5.3129
G01 X18.2356 Y5.2779
G01 X18.3364 Y5.2526
G01 X18.4392 Y5.2374
G01 X18.5430 Y5.2323
G01 X18.6439 Y5.2372
G01 X18.6496 Y5.2377
G01 X18.7495 Y5.2526
G01 X18.8503 Y5.2779
G01 X18.9481 Y5.3129
G01 X19.0395 Y5.3560
G01 X19.0446 Y5.3587
G01 X19.1288 Y5.4092
G01 X19.1335 Y5.4124
G01 X19.2146 Y5.4726
G01 X19.2895 Y5.5404
G01 X19.2936 Y5.5445
G01 X19.3614 Y5.6194
G01 X19.4233 Y5.7029
G01 X19.4767 Y5.7920
G01 X19.5212 Y5.8859
G01 X19.5562 Y5.9837
G01 X19.5814 Y6.0845
G01 X19.5967 Y6.1873
G01 X19.6017 Y6.2882
G01 X19.6017 Y6.2940
G01 X19.5969 Y6.3920
G01 X19.5963 Y6.3977
G01 X19.5814 Y6.4977
G01 X19.5562 Y6.5984
G01 X19.5212 Y6.6963
G01 X19.4780 Y6.7876
G01 X19.4753 Y6.7927
G01 X19.4225 Y6.8805
G01 X19.3614 Y6.9628
G01 X19.2936 Y7.0377
G01 X19.2895 Y7.0418
G01 X19.2135 Y7.1105
G01 X19.1312 Y7.1714
G01 X19.0433 Y7.2242
G01 X18.9495 Y7.2687
G01 X18.9019 Y7.2859
G01 X18.9019 Y10.0085
G01 X18.9002 Y10.0423
G01 X18.8955 Y10.0743
G01 X18.8944 Y10.0799
G01 X18.8864 Y10.1113
G01 X18.8756 Y10.1417
G01 X18.8602 Y10.1750
G01 X18.8430 Y10.2041
G01 X18.8397 Y10.2089
G01 X18.8204 Y10.2348
G01 X18.7968 Y10.2609
G01 X13.3840 Y15.6737
G01 X13.3840 Y45.9128
G01 X14.0106 Y46.5395
G01 X14.0333 Y46.5645
G01 X14.0535 Y46.5915
G01 X14.0568 Y46.5963
G01 X14.0733 Y46.6241
G01 X14.0884 Y46.6559
G01 X14.0993 Y46.6863
G01 X14.1010 Y46.6919
G01 X14.1088 Y46.7232
G01 X14.1140 Y46.7581
G01 X14.1157 Y46.7933
G01 X14.1157 Y58.4668
G01 X14.1633 Y58.4840
G01 X14.2571 Y58.5286
G01 X14.3450 Y58.5813
G01 X14.4273 Y58.6423
G01 X14.5033 Y58.7110
G01 X14.5074 Y58.7151
G01 X14.5752 Y58.7900
G01 X14.6363 Y58.8722
G01 X14.6891 Y58.9600
G01 X14.6918 Y58.9651
G01 X14.7350 Y59.0565
G01 X14.7700 Y59.1543
G01 X14.7952 Y59.2551
G01 X14.8101 Y59.3550
G01 X14.8107 Y59.3608
G01 X14.8156 Y59.4617
G01 X14.8105 Y59.5654
G01 X14.7952 Y59.6682
G01 X14.7700 Y59.7690
G01 X14.7350 Y59.8668
G01 X14.6905 Y59.9608
G01 X14.6371 Y60.0499
G01 X14.5752 Y60.1334
G01 X14.5074 Y60.2083
G01 X14.5033 Y60.2123
G01 X14.4306 Y60.2782
G01 X14.4262 Y60.2819
G01 X14.3450 Y60.3420
G01 X14.2584 Y60.3940
G01 X14.2533 Y60.3967
G01 X14.1619 Y60.4399
G01 X14.0641 Y60.4749
G01 X13.9633 Y60.5001
G01 X13.8591 Y60.5155
G01 X13.7568 Y60.5205
G01 X13.6530 Y60.5154
G01 X13.5502 Y60.5001
G01 X13.4494 Y60.4749
G01 X13.3516 Y60.4399
G01 X13.2576 Y60.3954
G01 X13.1685 Y60.3420
G01 X13.0851 Y60.2801
G01 X13.0081 Y60.2103
G01 X12.9383 Y60.1334
G01 X12.8764 Y60.0499
G01 X12.8230 Y59.9608
G01 X12.7786 Y59.8668
G01 X12.7435 Y59.7690
G01 X12.7183 Y59.6682
G01 X12.7029 Y59.5640
G01 X12.6980 Y59.4617
G01 X12.7028 Y59.3608
G01 X12.7034 Y59.3550
G01 X12.7178 Y59.2579
G01 X12.7189 Y59.2523
G01 X12.7435 Y59.1543
G01 X12.7786 Y59.0565
G01 X12.8230 Y58.9625
G01 X12.8756 Y58.8746
G01 X12.9383 Y58.7900
G01 X13.0061 Y58.7151
G01 X13.0102 Y58.7110
G01 X13.0862 Y58.6423
G01 X13.1685 Y58.5813
G01 X13.2564 Y58.5286
G01 X13.3502 Y58.4840
G01 X13.3978 Y58.4668
G01 X13.3978 Y46.9420
G01 X12.7712 Y46.3153
G01 X12.7485 Y46.2903
G01 X12.7282 Y46.2633
G01 X12.7250 Y46.2585
G01 X12.7084 Y46.2307
G01 X12.6934 Y46.1989
G01 X12.6815 Y46.1657
G01 X12.6736 Y46.1344
G01 X12.6725 Y46.1287
G01 X12.6676 Y46.0938
G00 Z4.0000
G00 X12.5619 Y46.0990
G01 F240.00
G01 Z-0.0499
G01 F280.00
G01 X12.5602 Y46.0615
G01 X12.5602 Y15.5250
G01 X12.5625 Y15.4795
G01 X12.5678 Y15.4423
G01 X12.5709 Y15.4265
G01 X12.5791 Y15.3940
G01 X12.5828 Y15.3824
G01 X12.5956 Y15.3471
G01 X12.6151 Y15.3059
G01 X12.6386 Y15.2668
G01 X12.6608 Y15.2365
G01 X12.6710 Y15.2240
G01 X12.6964 Y15.1964
G01 X18.0782 Y9.8146
G01 X18.0782 Y7.3583
G01 X17.9939 Y7.3182
G01 X17.8959 Y7.2595
G01 X17.8041 Y7.1914
G01 X17.7253 Y7.1202
G01 X17.7139 Y7.1088
G01 X17.6480 Y7.0360
G01 X17.6377 Y7.0236
G01 X17.5746 Y6.9381
G01 X17.5198 Y6.8471
G01 X17.5122 Y6.8329
G01 X17.4702 Y6.7442
G01 X17.4641 Y6.7292
G01 X17.4285 Y6.6292
G01 X17.4007 Y6.5183
G01 X17.3839 Y6.4052
G01 X17.3785 Y6.2992
G01 X17.3785 Y6.2830
G01 X17.3833 Y6.1850
G01 X17.3849 Y6.1689
G01 X17.4007 Y6.0639
G01 X17.4263 Y5.9608
G01 X17.4310 Y5.9453
G01 X17.4641 Y5.8529
G01 X17.4702 Y5.8380
G01 X17.5158 Y5.7421
G01 X17.5703 Y5.6509
G01 X17.5792 Y5.6374
G01 X17.6427 Y5.5522
G01 X17.7194 Y5.4676
G01 X17.8041 Y5.3908
G01 X17.8893 Y5.3274
G01 X17.9027 Y5.3184
G01 X17.9939 Y5.2640
G01 X18.0973 Y5.2151
G01 X18.2049 Y5.1766
G01 X18.3157 Y5.1488
G01 X18.4288 Y5.1321
G01 X18.5430 Y5.1264
G01 X18.6571 Y5.1321
G01 X18.7622 Y5.1474
G01 X18.7780 Y5.1506
G01 X18.8732 Y5.1744
G01 X18.8887 Y5.1791
G01 X18.9886 Y5.2151
G01 X19.0847 Y5.2603
G01 X19.0990 Y5.2680
G01 X19.1900 Y5.3227
G01 X19.2818 Y5.3908
G01 X19.3665 Y5.4676
G01 X19.4432 Y5.5522
G01 X19.5113 Y5.6441
G01 X19.5661 Y5.7351
G01 X19.5737 Y5.7493
G01 X19.6157 Y5.8380
G01 X19.6218 Y5.8529
G01 X19.6574 Y5.9530
G01 X19.6852 Y6.0639
G01 X19.7020 Y6.1769
G01 X19.7074 Y6.2830
G01 X19.7074 Y6.2992
G01 X19.7026 Y6.3972
G01 X19.7010 Y6.4133
G01 X19.6852 Y6.5183
G01 X19.6574 Y6.6292
G01 X19.6218 Y6.7292
G01 X19.6157 Y6.7442
G01 X19.5701 Y6.8401
G01 X19.5113 Y6.9381
G01 X19.4432 Y7.0299
G01 X19.3720 Y7.1088
G01 X19.3606 Y7.1202
G01 X19.2818 Y7.1914
G01 X19.1966 Y7.2548
G01 X19.1832 Y7.2638
G01 X19.0920 Y7.3182
G01 X19.0077 Y7.3583
G01 X19.0077 Y10.0111
G01 X19.0061 Y10.0446
G01 X19.0051 Y10.0566
G01 X18.9996 Y10.0938
G01 X18.9970 Y10.1056
G01 X18.9877 Y10.1420
G01 X18.9753 Y10.1774
G01 X18.9708 Y10.1887
G01 X18.9547 Y10.2226
G01 X18.9489 Y10.2332
G01 X18.9337 Y10.2585
G01 X18.9248 Y10.2719
G01 X18.9022 Y10.3019
G01 X18.8716 Y10.3357
G01 X13.4898 Y15.7175
G01 X13.4898 Y45.8690
G01 X14.0854 Y46.4646
G01 X14.1160 Y46.4984
G01 X14.1432 Y46.5350
G01 X14.1627 Y46.5671
G01 X14.1703 Y46.5814
G01 X14.1862 Y46.6154
G01 X14.1990 Y46.6507
G01 X14.2037 Y46.6661
G01 X14.2126 Y46.7026
G01 X14.2193 Y46.7477
G01 X14.2215 Y46.7933
G01 X14.2215 Y58.3945
G01 X14.3058 Y58.4345
G01 X14.3970 Y58.4890
G01 X14.4104 Y58.4980
G01 X14.4956 Y58.5614
G01 X14.5803 Y58.6381
G01 X14.6518 Y58.7167
G01 X14.6620 Y58.7292
G01 X14.7251 Y58.8146
G01 X14.7839 Y58.9127
G01 X14.8295 Y59.0086
G01 X14.8356 Y59.0235
G01 X14.8712 Y59.1236
G01 X14.8990 Y59.2345
G01 X14.9148 Y59.3395
G01 X14.9164 Y59.3556
G01 X14.9214 Y59.4617
G01 X14.9158 Y59.5758
G01 X14.8990 Y59.6889
G01 X14.8712 Y59.7997
G01 X14.8327 Y59.9074
G01 X14.7839 Y60.0107
G01 X14.7251 Y60.1087
G01 X14.6570 Y60.2005
G01 X14.5859 Y60.2793
G01 X14.5744 Y60.2908
G01 X14.5017 Y60.3567
G01 X14.4892 Y60.3669
G01 X14.4038 Y60.4300
G01 X14.3128 Y60.4848
G01 X14.2985 Y60.4924
G01 X14.2024 Y60.5377
G01 X14.0948 Y60.5762
G01 X13.9840 Y60.6039
G01 X13.8709 Y60.6207
G01 X13.7568 Y60.6263
G01 X13.6426 Y60.6207
G01 X13.5295 Y60.6039
G01 X13.4187 Y60.5762
G01 X13.3111 Y60.5377
G01 X13.2077 Y60.4888
G01 X13.1097 Y60.4300
G01 X13.0179 Y60.3619
G01 X12.9332 Y60.2852
G01 X12.8565 Y60.2005
G01 X12.7884 Y60.1087
G01 X12.7296 Y60.0107
G01 X12.6808 Y59.9074
G01 X12.6423 Y59.7997
G01 X12.6145 Y59.6889
G01 X12.5977 Y59.5758
G01 X12.5923 Y59.4697
G01 X12.5923 Y59.4536
G01 X12.5977 Y59.3475
G01 X12.6145 Y59.2345
G01 X12.6423 Y59.1236
G01 X12.6779 Y59.0235
G01 X12.6840 Y59.0086
G01 X12.7260 Y58.9199
G01 X12.7336 Y58.9056
G01 X12.7884 Y58.8146
G01 X12.8515 Y58.7292
G01 X12.8618 Y58.7167
G01 X12.9277 Y58.6440
G01 X12.9391 Y58.6326
G01 X13.0179 Y58.5614
G01 X13.1097 Y58.4933
G01 X13.2077 Y58.4345
G01 X13.2920 Y58.3945
G01 X13.2920 Y46.9858
G01 X12.6964 Y46.3902
G01 X12.6657 Y46.3564
G01 X12.6386 Y46.3198
G01 X12.6191 Y46.2877
G01 X12.6115 Y46.2734
G01 X12.5956 Y46.2394
G01 X12.5802 Y46.1964
G01 X12.5709 Y46.1601
G01 X12.5678 Y46.1442
G01 X12.5629 Y46.1111
G01 X12.5619 Y46.0990
G00 Z4.0000
G00 X10.7077 Y58.4345
G01 F240.00
G01 Z-0.0499
G01 F280.00
G01 X10.7920 Y58.3945
G01 X10.7920 Y14.2933
G01 X10.7942 Y14.2477
G01 X10.8009 Y14.2026
G01 X10.8098 Y14.1661
G01 X10.8132 Y14.1545
G01 X10.8244 Y14.1229
G01 X10.8306 Y14.1080
G01 X10.8468 Y14.0742
G01 X10.8703 Y14.0350
G01 X10.8975 Y13.9984
G01 X10.9253 Y13.9675
G01 X15.5382 Y9.3546
G01 X15.5382 Y7.3583
G01 X15.4539 Y7.3182
G01 X15.3559 Y7.2595
G01 X15.2641 Y7.1914
G01 X15.1853 Y7.1202
G01 X15.1739 Y7.1088
G01 X15.1080 Y7.0360
G01 X15.0977 Y7.0236
G01 X15.0346 Y6.9381
G01 X14.9798 Y6.8471
G01 X14.9722 Y6.8329
G01 X14.9302 Y6.7442
G01 X14.9241 Y6.7292
G01 X14.8885 Y6.6292
G01 X14.8607 Y6.5183
G01 X14.8439 Y6.4052
G01 X14.8385 Y6.2992
G01 X14.8385 Y6.2830
G01 X14.8433 Y6.1850
G01 X14.8449 Y6.1689
G01 X14.8607 Y6.0639
G01 X14.8885 Y5.9530
G01 X14.9270 Y5.8454
G01 X14.9758 Y5.7421
G01 X15.0346 Y5.6441
G01 X15.1027 Y5.5522
G01 X15.1794 Y5.4676
G01 X15.2641 Y5.3908
G01 X15.3559 Y5.3227
G01 X15.4539 Y5.2640
G01 X15.5573 Y5.2151
G01 X15.6649 Y5.1766
G01 X15.7757 Y5.1488
G01 X15.8888 Y5.1321
G01 X16.0030 Y5.1264
G01 X16.1171 Y5.1321
G01 X16.2302 Y5.1488
G01 X16.3332 Y5.1744
G01 X16.3487 Y5.1791
G01 X16.4411 Y5.2122
G01 X16.4560 Y5.2184
G01 X16.5520 Y5.2640
G01 X16.6500 Y5.3227
G01 X16.7418 Y5.3908
G01 X16.8265 Y5.4676
G01 X16.9032 Y5.5522
G01 X16.9713 Y5.6441
G01 X17.0301 Y5.7421
G01 X17.0757 Y5.8380
G01 X17.0818 Y5.8529
G01 X17.1149 Y5.9453
G01 X17.1196 Y5.9608
G01 X17.1452 Y6.0639
G01 X17.1610 Y6.1689
G01 X17.1623 Y6.1810
G01 X17.1676 Y6.2911
G01 X17.1626 Y6.3972
G01 X17.1610 Y6.4133
G01 X17.1452 Y6.5183
G01 X17.1174 Y6.6292
G01 X17.0818 Y6.7292
G01 X17.0757 Y6.7442
G01 X17.0337 Y6.8329
G01 X17.0261 Y6.8471
G01 X16.9713 Y6.9381
G01 X16.9082 Y7.0236
G01 X16.8980 Y7.0360
G01 X16.8320 Y7.1088
G01 X16.8206 Y7.1202
G01 X16.7418 Y7.1914
G01 X16.6500 Y7.2595
G01 X16.5520 Y7.3182
G01 X16.4677 Y7.3583
G01 X16.4677 Y9.3838
G01 X16.4709 Y9.3940
G01 X16.4791 Y9.4265
G01 X16.4823 Y9.4423
G01 X16.4876 Y9.4795
G01 X16.4898 Y9.5250
G01 X16.4876 Y9.5706
G01 X16.4809 Y9.6157
G01 X16.4698 Y9.6599
G01 X16.4573 Y9.6953
G01 X16.4511 Y9.7103
G01 X16.4349 Y9.7441
G01 X16.4115 Y9.7832
G01 X16.3843 Y9.8199
G01 X16.3537 Y9.8537
G01 X11.7215 Y14.4858
G01 X11.7215 Y58.3945
G01 X11.8058 Y58.4345
G01 X11.8970 Y58.4890
G01 X11.9104 Y58.4980
G01 X11.9956 Y58.5614
G01 X12.0803 Y58.6381
G01 X12.1518 Y58.7167
G01 X12.1620 Y58.7292
G01 X12.2251 Y58.8146
G01 X12.2839 Y58.9127
G01 X12.3295 Y59.0086
G01 X12.3356 Y59.0235
G01 X12.3712 Y59.1236
G01 X12.3990 Y59.2345
G01 X12.4148 Y59.3395
G01 X12.4164 Y59.3556
G01 X12.4214 Y59.4617
G01 X12.4158 Y59.5758
G01 X12.4004 Y59.6809
G01 X12.3972 Y59.6968
G01 X12.3712 Y59.7997
G01 X12.3356 Y59.8998
G01 X12.3295 Y59.9147
G01 X12.2839 Y60.0107
G01 X12.2294 Y60.1019
G01 X12.2205 Y60.1153
G01 X12.1570 Y60.2005
G01 X12.0859 Y60.2793
G01 X12.0744 Y60.2908
G01 X11.9956 Y60.3619
G01 X11.9104 Y60.4254
G01 X11.8970 Y60.4344
G01 X11.8058 Y60.4888
G01 X11.7024 Y60.5377
G01 X11.5948 Y60.5762
G01 X11.4840 Y60.6039
G01 X11.3709 Y60.6207
G01 X11.2568 Y60.6263
G01 X11.1426 Y60.6207
G01 X11.0295 Y60.6039
G01 X10.9187 Y60.5762
G01 X10.8111 Y60.5377
G01 X10.7077 Y60.4888
G01 X10.6097 Y60.4300
G01 X10.5179 Y60.3619
G01 X10.4332 Y60.2852
G01 X10.3565 Y60.2005
G01 X10.2884 Y60.1087
G01 X10.2296 Y60.0107
G01 X10.1808 Y59.9074
G01 X10.1423 Y59.7997
G01 X10.1145 Y59.6889
G01 X10.0977 Y59.5758
G01 X10.0921 Y59.4617
G01 X10.0977 Y59.3475
G01 X10.1145 Y59.2345
G01 X10.1423 Y59.1236
G01 X10.1808 Y59.0160
G01 X10.2296 Y58.9127
G01 X10.2884 Y58.8146
G01 X10.3565 Y58.7228
G01 X10.4332 Y58.6381
G01 X10.5179 Y58.5614
G01 X10.6097 Y58.4933
G01 X10.7077 Y58.4345
G00 Z4.0000
G00 X10.8516 Y58.4835
G01 F240.00
G01 Z-0.0499
G01 F280.00
G01 X10.8978 Y58.4668
G01 X10.8978 Y14.2933
G01 X10.8995 Y14.2581
G01 X10.9047 Y14.2232
G01 X10.9133 Y14.1891
G01 X10.9251 Y14.1559
G01 X10.9389 Y14.1266
G01 X10.9568 Y14.0963
G01 X10.9600 Y14.0915
G01 X10.9793 Y14.0656
G01 X11.0029 Y14.0395
G01 X15.6440 Y9.3984
G01 X15.6440 Y7.2859
G01 X15.5964 Y7.2687
G01 X15.5026 Y7.2242
G01 X15.4147 Y7.1714
G01 X15.3324 Y7.1105
G01 X15.2564 Y7.0418
G01 X15.2523 Y7.0377
G01 X15.1845 Y6.9628
G01 X15.1218 Y6.8781
G01 X15.0692 Y6.7902
G01 X15.0247 Y6.6963
G01 X14.9897 Y6.5984
G01 X14.9651 Y6.5005
G01 X14.9640 Y6.4948
G01 X14.9496 Y6.3977
G01 X14.9490 Y6.3920
G01 X14.9442 Y6.2911
G01 X14.9494 Y6.1859
G01 X14.9645 Y6.0845
G01 X14.9897 Y5.9837
G01 X15.0247 Y5.8859
G01 X15.0692 Y5.7920
G01 X15.1226 Y5.7029
G01 X15.1845 Y5.6194
G01 X15.2543 Y5.5424
G01 X15.3313 Y5.4726
G01 X15.4147 Y5.4107
G01 X15.5038 Y5.3573
G01 X15.5978 Y5.3129
G01 X15.6956 Y5.2779
G01 X15.7964 Y5.2526
G01 X15.8992 Y5.2374
G01 X16.0030 Y5.2323
G01 X16.1067 Y5.2374
G01 X16.2095 Y5.2526
G01 X16.3075 Y5.2771
G01 X16.3130 Y5.2788
G01 X16.4054 Y5.3118
G01 X16.4108 Y5.3141
G01 X16.5021 Y5.3573
G01 X16.5912 Y5.4107
G01 X16.6746 Y5.4726
G01 X16.7516 Y5.5424
G01 X16.8214 Y5.6194
G01 X16.8833 Y5.7029
G01 X16.9367 Y5.7920
G01 X16.9800 Y5.8833
G01 X16.9822 Y5.8886
G01 X17.0153 Y5.9810
G01 X17.0169 Y5.9865
G01 X17.0414 Y6.0845
G01 X17.0563 Y6.1844
G01 X17.0569 Y6.1902
G01 X17.0618 Y6.2911
G01 X17.0567 Y6.3949
G01 X17.0414 Y6.4977
G01 X17.0169 Y6.5957
G01 X17.0153 Y6.6012
G01 X16.9822 Y6.6936
G01 X16.9800 Y6.6989
G01 X16.9367 Y6.7902
G01 X16.8841 Y6.8781
G01 X16.8214 Y6.9628
G01 X16.7536 Y7.0377
G01 X16.7495 Y7.0418
G01 X16.6735 Y7.1105
G01 X16.5912 Y7.1714
G01 X16.5033 Y7.2242
G01 X16.4095 Y7.2687
G01 X16.3619 Y7.2859
G01 X16.3619 Y9.4021
G01 X16.3689 Y9.4222
G01 X16.3773 Y9.4564
G01 X16.3822 Y9.4898
G01 X16.3840 Y9.5250
G01 X16.3822 Y9.5602
G01 X16.3776 Y9.5922
G01 X16.3764 Y9.5979
G01 X16.3685 Y9.6292
G01 X16.3577 Y9.6597
G01 X16.3429 Y9.6916
G01 X16.3250 Y9.7220
G01 X16.3218 Y9.7268
G01 X16.3025 Y9.7527
G01 X16.2788 Y9.7788
G01 X11.6157 Y14.4420
G01 X11.6157 Y58.4668
G01 X11.6633 Y58.4840
G01 X11.7571 Y58.5286
G01 X11.8450 Y58.5813
G01 X11.9273 Y58.6423
G01 X12.0033 Y58.7110
G01 X12.0074 Y58.7151
G01 X12.0752 Y58.7900
G01 X12.1363 Y58.8722
G01 X12.1891 Y58.9600
G01 X12.1918 Y58.9651
G01 X12.2350 Y59.0565
G01 X12.2700 Y59.1543
G01 X12.2952 Y59.2551
G01 X12.3101 Y59.3550
G01 X12.3107 Y59.3608
G01 X12.3156 Y59.4617
G01 X12.3105 Y59.5654
G01 X12.2957 Y59.6654
G01 X12.2946 Y59.6710
G01 X12.2700 Y59.7690
G01 X12.2360 Y59.8642
G01 X12.2338 Y59.8695
G01 X12.1905 Y59.9608
G01 X12.1371 Y60.0499
G01 X12.0752 Y60.1334
G01 X12.0074 Y60.2083
G01 X12.0033 Y60.2123
G01 X11.9284 Y60.2801
G01 X11.8474 Y60.3404
G01 X11.8426 Y60.3436
G01 X11.7559 Y60.3954
G01 X11.6619 Y60.4399
G01 X11.5641 Y60.4749
G01 X11.4633 Y60.5001
G01 X11.3605 Y60.5154
G01 X11.2568 Y60.5205
G01 X11.1530 Y60.5154
G01 X11.0502 Y60.5001
G01 X10.9494 Y60.4749
G01 X10.8516 Y60.4399
G01 X10.7576 Y60.3954
G01 X10.6685 Y60.3420
G01 X10.5851 Y60.2801
G01 X10.5081 Y60.2103
G01 X10.4383 Y60.1334
G01 X10.3764 Y60.0499
G01 X10.3230 Y59.9608
G01 X10.2786 Y59.8668
G01 X10.2435 Y59.7690
G01 X10.2183 Y59.6682
G01 X10.2031 Y59.5654
G01 X10.1980 Y59.4617
G01 X10.2031 Y59.3579
G01 X10.2183 Y59.2551
G01 X10.2435 Y59.1543
G01 X10.2786 Y59.0565
G01 X10.3230 Y58.9625
G01 X10.3764 Y58.8734
G01 X10.4383 Y58.7900
G01 X10.5081 Y58.7130
G01 X10.5851 Y58.6432
G01 X10.6685 Y58.5813
G01 X10.7576 Y58.5279
G01 X10.8516 Y58.4835
G00 Z4.0000
G00 X15.6131 Y58.4911
G01 F240.00
G01 Z-0.0499
G01 F280.00
G01 X15.6953 Y58.4418
G01 X15.6953 Y26.4967
G01 X15.6110 Y26.4566
G01 X15.5198 Y26.4022
G01 X15.5064 Y26.3932
G01 X15.4212 Y26.3298
G01 X15.3424 Y26.2586
G01 X15.3309 Y26.2472
G01 X15.2598 Y26.1684
G01 X15.1917 Y26.0766
G01 X15.1329 Y25.9785
G01 X15.0873 Y25.8826
G01 X15.0811 Y25.8677
G01 X15.0456 Y25.7676
G01 X15.0178 Y25.6567
G01 X15.0020 Y25.5517
G01 X15.0004 Y25.5356
G01 X14.9956 Y25.4376
G01 X14.9955 Y25.4255
G01 X15.0010 Y25.3154
G01 X15.0178 Y25.2023
G01 X15.0456 Y25.0914
G01 X15.0841 Y24.9838
G01 X15.1329 Y24.8805
G01 X15.1917 Y24.7825
G01 X15.2598 Y24.6907
G01 X15.3365 Y24.6060
G01 X15.4212 Y24.5292
G01 X15.5130 Y24.4611
G01 X15.6110 Y24.4024
G01 X15.7144 Y24.3535
G01 X15.8220 Y24.3150
G01 X15.9328 Y24.2872
G01 X16.0459 Y24.2705
G01 X16.1520 Y24.2651
G01 X16.1641 Y24.2649
G01 X16.2742 Y24.2705
G01 X16.3873 Y24.2872
G01 X16.4981 Y24.3150
G01 X16.6057 Y24.3535
G01 X16.7090 Y24.4024
G01 X16.8071 Y24.4611
G01 X16.8989 Y24.5292
G01 X16.9836 Y24.6060
G01 X17.0603 Y24.6907
G01 X17.1284 Y24.7825
G01 X17.1872 Y24.8805
G01 X17.2360 Y24.9838
G01 X17.2745 Y25.0914
G01 X17.3023 Y25.2023
G01 X17.3191 Y25.3154
G01 X17.3246 Y25.4255
G01 X17.3245 Y25.4376
G01 X17.3197 Y25.5356
G01 X17.3181 Y25.5517
G01 X17.3023 Y25.6567
G01 X17.2745 Y25.7676
G01 X17.2389 Y25.8677
G01 X17.2328 Y25.8826
G01 X17.1872 Y25.9785
G01 X17.1284 Y26.0766
G01 X17.0603 Y26.1684
G01 X16.9891 Y26.2472
G01 X16.9777 Y26.2586
G01 X16.8989 Y26.3298
G01 X16.8137 Y26.3932
G01 X16.8003 Y26.4022
G01 X16.7090 Y26.4566
G01 X16.6248 Y26.4967
G01 X16.6248 Y58.3577
G01 X16.7024 Y58.3857
G01 X16.8058 Y58.4345
G01 X16.9038 Y58.4933
G01 X16.9892 Y58.5564
G01 X17.0017 Y58.5667
G01 X17.0744 Y58.6326
G01 X17.0859 Y58.6440
G01 X17.1570 Y58.7228
G01 X17.2228 Y58.8113
G01 X17.2294 Y58.8215
G01 X17.2799 Y58.9056
G01 X17.2875 Y58.9199
G01 X17.3327 Y59.0160
G01 X17.3712 Y59.1236
G01 X17.3990 Y59.2345
G01 X17.4148 Y59.3395
G01 X17.4164 Y59.3556
G01 X17.4214 Y59.4617
G01 X17.4158 Y59.5758
G01 X17.4004 Y59.6809
G01 X17.3972 Y59.6968
G01 X17.3712 Y59.7997
G01 X17.3356 Y59.8998
G01 X17.3295 Y59.9147
G01 X17.2839 Y60.0107
G01 X17.2294 Y60.1019
G01 X17.2205 Y60.1153
G01 X17.1570 Y60.2005
G01 X17.0859 Y60.2793
G01 X17.0744 Y60.2908
G01 X16.9956 Y60.3619
G01 X16.9038 Y60.4300
G01 X16.8058 Y60.4888
G01 X16.7024 Y60.5377
G01 X16.5948 Y60.5762
G01 X16.4840 Y60.6039
G01 X16.3709 Y60.6207
G01 X16.2568 Y60.6263
G01 X16.1426 Y60.6207
G01 X16.0295 Y60.6039
G01 X15.9187 Y60.5762
G01 X15.8111 Y60.5377
G01 X15.7077 Y60.4888
G01 X15.6097 Y60.4300
G01 X15.5179 Y60.3619
G01 X15.4332 Y60.2852
G01 X15.3565 Y60.2005
G01 X15.2884 Y60.1087
G01 X15.2296 Y60.0107
G01 X15.1808 Y59.9074
G01 X15.1423 Y59.7997
G01 X15.1145 Y59.6889
G01 X15.0977 Y59.5758
G01 X15.0921 Y59.4617
G01 X15.0977 Y59.3475
G01 X15.1145 Y59.2345
G01 X15.1423 Y59.1236
G01 X15.1808 Y59.0160
G01 X15.2296 Y58.9127
G01 X15.2884 Y58.8146
G01 X15.3565 Y58.7228
G01 X15.4332 Y58.6381
G01 X15.5179 Y58.5614
G01 X15.6031 Y58.4980
G01 X15.6131 Y58.4911
G00 Z4.0000
G00 X20.7113 Y58.4327
G01 F240.00
G01 Z-0.0499
G01 F280.00
G01 X20.7920 Y58.3945
G01 X20.7920 Y26.5045
G01 X20.6910 Y26.4566
G01 X20.5998 Y26.4022
G01 X20.5864 Y26.3932
G01 X20.5012 Y26.3298
G01 X20.4224 Y26.2586
G01 X20.4109 Y26.2472
G01 X20.3398 Y26.1684
G01 X20.2717 Y26.0766
G01 X20.2129 Y25.9785
G01 X20.1673 Y25.8826
G01 X20.1611 Y25.8677
G01 X20.1256 Y25.7676
G01 X20.0978 Y25.6567
G01 X20.0820 Y25.5517
G01 X20.0804 Y25.5356
G01 X20.0756 Y25.4376
G01 X20.0755 Y25.4255
G01 X20.0810 Y25.3154
G01 X20.0978 Y25.2023
G01 X20.1256 Y25.0914
G01 X20.1641 Y24.9838
G01 X20.2129 Y24.8805
G01 X20.2717 Y24.7825
G01 X20.3398 Y24.6907
G01 X20.4165 Y24.6060
G01 X20.5012 Y24.5292
G01 X20.5930 Y24.4611
G01 X20.6910 Y24.4024
G01 X20.7944 Y24.3535
G01 X20.9020 Y24.3150
G01 X21.0128 Y24.2872
G01 X21.1259 Y24.2705
G01 X21.2320 Y24.2651
G01 X21.2441 Y24.2649
G01 X21.3542 Y24.2705
G01 X21.4673 Y24.2872
G01 X21.5781 Y24.3150
G01 X21.6857 Y24.3535
G01 X21.7890 Y24.4024
G01 X21.8871 Y24.4611
G01 X21.9789 Y24.5292
G01 X22.0636 Y24.6060
G01 X22.1403 Y24.6907
G01 X22.2084 Y24.7825
G01 X22.2672 Y24.8805
G01 X22.3160 Y24.9838
G01 X22.3545 Y25.0914
G01 X22.3823 Y25.2023
G01 X22.3991 Y25.3154
G01 X22.4046 Y25.4255
G01 X22.4045 Y25.4376
G01 X22.3997 Y25.5356
G01 X22.3981 Y25.5517
G01 X22.3823 Y25.6567
G01 X22.3545 Y25.7676
G01 X22.3189 Y25.8677
G01 X22.3128 Y25.8826
G01 X22.2672 Y25.9785
G01 X22.2106 Y26.0732
G01 X22.2038 Y26.0832
G01 X22.1453 Y26.1620
G01 X22.1350 Y26.1745
G01 X22.0636 Y26.2530
G01 X21.9820 Y26.3272
G01 X21.9725 Y26.3348
G01 X21.8937 Y26.3932
G01 X21.8837 Y26.4001
G01 X21.7890 Y26.4566
G01 X21.7215 Y26.4888
G01 X21.7215 Y58.3945
G01 X21.8058 Y58.4345
G01 X21.8970 Y58.4890
G01 X21.9104 Y58.4980
G01 X21.9956 Y58.5614
G01 X22.0803 Y58.6381
G01 X22.1518 Y58.7167
G01 X22.1620 Y58.7292
G01 X22.2251 Y58.8146
G01 X22.2839 Y58.9127
G01 X22.3295 Y59.0086
G01 X22.3356 Y59.0235
G01 X22.3712 Y59.1236
G01 X22.3990 Y59.2345
G01 X22.4148 Y59.3395
G01 X22.4164 Y59.3556
G01 X22.4214 Y59.4617
G01 X22.4158 Y59.5758
G01 X22.4004 Y59.6809
G01 X22.3972 Y59.6968
G01 X22.3712 Y59.7997
G01 X22.3356 Y59.8998
G01 X22.3295 Y59.9147
G01 X22.2839 Y60.0107
G01 X22.2294 Y60.1019
G01 X22.2205 Y60.1153
G01 X22.1570 Y60.2005
G01 X22.0859 Y60.2793
G01 X22.0744 Y60.2908
G01 X21.9956 Y60.3619
G01 X21.9104 Y60.4254
G01 X21.8970 Y60.4344
G01 X21.8058 Y60.4888
G01 X21.7024 Y60.5377
G01 X21.5948 Y60.5762
G01 X21.4840 Y60.6039
G01 X21.3709 Y60.6207
G01 X21.2568 Y60.6263
G01 X21.1426 Y60.6207
G01 X21.0295 Y60.6039
G01 X20.9187 Y60.5762
G01 X20.8111 Y60.5377
G01 X20.7077 Y60.4888
G01 X20.6097 Y60.4300
G01 X20.5179 Y60.3619
G01 X20.4332 Y60.2852
G01 X20.3565 Y60.2005
G01 X20.2884 Y60.1087
G01 X20.2296 Y60.0107
G01 X20.1808 Y59.9074
G01 X20.1423 Y59.7997
G01 X20.1145 Y59.6889
G01 X20.0977 Y59.5758
G01 X20.0921 Y59.4617
G01 X20.0977 Y59.3475
G01 X20.1145 Y59.2345
G01 X20.1423 Y59.1236
G01 X20.1808 Y59.0160
G01 X20.2296 Y58.9127
G01 X20.2884 Y58.8146
G01 X20.3565 Y58.7228
G01 X20.4332 Y58.6381
G01 X20.5179 Y58.5614
G01 X20.6097 Y58.4933
G01 X20.7007 Y58.4385
G01 X20.7113 Y58.4327
G00 Z4.0000
M05
G00 Z4.0000
G00 Z55.00


