(G-CODE GENERATED BY FLATCAM v2024.4 - www.flatcam.org - Version Date: 2024/04/15)

(Name: Rele-Edge_Cuts.gbr_cutout_cnc)
(Type: G-code from Geometry)
(Units: MM)

(Created on Monday, 01 December 2025 at 17:37)

(This preprocessor is the default preprocessor used by FlatCAM.)
(It is made to work with MACH3 compatible motion controllers.)

(TOOL DIAMETER: 3.0 mm)
(Feedrate_XY: 120.0 mm/min)
(Feedrate_Z: 60.0 mm/min)
(Feedrate rapids 1500.0 mm/min)

(Z_Cut: -2.0 mm)
(Z_Move: 2.0 mm)
(Z Start: None mm)
(Z End: 55.0 mm)
(X,Y End: None mm)
(Steps per circle: 64)
(Preprocessor Geometry: Default_no_M6)

(X range:   -1.6000 ...   44.6500  mm)
(Y range:   -1.6000 ...   66.6500  mm)

(Spindle Speed: 0.0 RPM)
G21
G90
G94

G01 F120.00

M5
G00 Z15.0000
G00 X0.0000 Y0.0000
T1
(MSG, Change to Tool Dia = 3.0000)
M0
G00 Z15.0000
		
M03
G01 F120.00
G00 X-1.6000 Y65.0250
G01 F60.00
G01 Z-2.0000
G01 F120.00
G01 X-1.5980 Y65.1060
G01 X-1.5826 Y65.2622
G01 X-1.5516 Y65.4187
G01 X-1.5054 Y65.5713
G01 X-1.4445 Y65.7187
G01 X-1.3694 Y65.8594
G01 X-1.2809 Y65.9920
G01 X-1.1798 Y66.1154
G01 X-1.0672 Y66.2282
G01 X-0.9440 Y66.3295
G01 X-0.8114 Y66.4182
G01 X-0.6709 Y66.4935
G01 X-0.5236 Y66.5546
G01 X-0.3710 Y66.6010
G01 X-0.2146 Y66.6322
G01 X-0.0559 Y66.6480
G01 X0.0250 Y66.6500
G01 X43.0250 Y66.6500
G01 X43.1060 Y66.6480
G01 X43.2622 Y66.6326
G01 X43.4187 Y66.6016
G01 X43.5736 Y66.5546
G01 X43.7209 Y66.4935
G01 X43.8615 Y66.4182
G01 X43.9920 Y66.3309
G01 X44.1154 Y66.2299
G01 X44.2282 Y66.1172
G01 X44.3309 Y65.9920
G01 X44.4182 Y65.8615
G01 X44.4935 Y65.7209
G01 X44.5554 Y65.5713
G01 X44.6016 Y65.4187
G01 X44.6322 Y65.2647
G01 X44.6480 Y65.1060
G01 X44.6500 Y65.0250
G01 X44.6500 Y0.0250
G01 X44.6480 Y-0.0559
G01 X44.6326 Y-0.2122
G01 X44.6016 Y-0.3686
G01 X44.5546 Y-0.5236
G01 X44.4935 Y-0.6709
G01 X44.4182 Y-0.8114
G01 X44.3309 Y-0.9420
G01 X44.2299 Y-1.0653
G01 X44.1172 Y-1.1782
G01 X43.9920 Y-1.2809
G01 X43.8615 Y-1.3682
G01 X43.7209 Y-1.4434
G01 X43.5713 Y-1.5054
G01 X43.4187 Y-1.5516
G01 X43.2647 Y-1.5822
G01 X43.1060 Y-1.5980
G01 X43.0250 Y-1.6000
G01 X0.0250 Y-1.6000
G01 X-0.0559 Y-1.5980
G01 X-0.2122 Y-1.5826
G01 X-0.3686 Y-1.5516
G01 X-0.5213 Y-1.5054
G01 X-0.6709 Y-1.4434
G01 X-0.8114 Y-1.3682
G01 X-0.9420 Y-1.2809
G01 X-1.0653 Y-1.1798
G01 X-1.1782 Y-1.0672
G01 X-1.2809 Y-0.9420
G01 X-1.3682 Y-0.8114
G01 X-1.4434 Y-0.6709
G01 X-1.5054 Y-0.5213
G01 X-1.5516 Y-0.3686
G01 X-1.5822 Y-0.2146
G01 X-1.5980 Y-0.0559
G01 X-1.6000 Y0.0250
G01 X-1.6000 Y65.0250
G00 Z2.0000
M05
G00 Z2.0000
G00 Z55.00


