(G-CODE GENERATED BY FLATCAM v2024.4 - www.flatcam.org - Version Date: 2024/04/15)

(Name: DRILL_1_4mm.drl_cnc)
(Type: G-code from Geometry)
(Units: MM)

(Created on Monday, 01 December 2025 at 17:38)

(This preprocessor is the default preprocessor used by FlatCAM.)
(It is made to work with MACH3 compatible motion controllers.)


(TOOLS DIAMETER: )
(Tool: 1 -> Dia: 1.4)

(FEEDRATE Z: )
(Tool: 1 -> Feedrate: 120.0)

(FEEDRATE RAPIDS: )
(Tool: 1 -> Feedrate Rapids: 1500)

(Z_CUT: )
(Tool: 1 -> Z_Cut: -2.0)

(Tools Offset: )
(Tool: 1 -> Offset Z: 0.0)

(Z_MOVE: )
(Tool: 1 -> Z_Move: 2)

(Z Toolchange: 15 mm)
(X,Y Toolchange: 0.0000, 0.0000 mm)
(Z Start: None mm)
(Z End: 55.0 mm)
(X,Y End: None mm)
(Steps per circle: 64)
(Preprocessor Excellon: Default_no_M6)

(X range:    7.3250 ...   28.7250  mm)
(Y range:   38.8650 ...   48.1850  mm)

(Spindle Speed: 0 RPM)
G21
G90
G94

G01 F120.00

M5
G00 Z15.0000
T1
G00 X0.0000 Y0.0000                
(MSG, Change to Tool Dia = 1.4000 ||| Total drills for tool T1 = 6)
M0
G00 Z15.0000
		
G01 F120.00
M03
G00 X8.0250 Y47.4850
G01 Z-2.0000
G01 Z0
G00 Z2.0000
G00 X28.0250 Y43.5250
G01 Z-2.0000
G01 Z0
G00 Z2.0000
G00 X22.5290 Y43.5250
G01 Z-2.0000
G01 Z0
G00 Z2.0000
G00 X17.0250 Y43.5250
G01 Z-2.0000
G01 Z0
G00 Z2.0000
G00 X8.0250 Y39.5650
G01 Z-2.0000
G01 Z0
G00 Z2.0000
G00 X8.0250 Y43.5250
G01 Z-2.0000
G01 Z0
G00 Z2.0000
M05
G00 Z55.00


