(G-CODE GENERATED BY FLATCAM v2024.4 - www.flatcam.org - Version Date: 2024/04/15)

(Name: Rele-F_Cu.gbr_iso_combined_cnc)
(Type: G-code from Geometry)
(Units: MM)

(Created on Monday, 01 December 2025 at 17:35)

(This preprocessor is the default preprocessor used by FlatCAM.)
(It is made to work with MACH3 compatible motion controllers.)

(TOOL DIAMETER: 0.1693 mm)
(Feedrate_XY: 60.0 mm/min)
(Feedrate_Z: 60.0 mm/min)
(Feedrate rapids 1500.0 mm/min)

(Z_Cut: -0.06 mm)
(Z_Move: 2.0 mm)
(Z Start: None mm)
(Z End: 55.0 mm)
(X,Y End: None mm)
(Steps per circle: 64)
(Preprocessor Geometry: Default_no_M6)

(X range:    5.5261 ...   34.7202  mm)
(Y range:   16.3261 ...   52.0241  mm)

(Spindle Speed: 10000.0 RPM)
G21
G90
G94

G01 F60.00

M5
G00 Z15.0000
G00 X0.0000 Y0.0000
T1
(MSG, Change to Tool Dia = 0.1693)
M0
G00 Z15.0000
		
M03 S10000.0
G01 F60.00
G00 X18.7030 Y17.1298
G01 F60.00
G01 Z-0.0600
G01 F60.00
G01 X18.7190 Y17.1229
G01 X18.7531 Y17.1107
G01 X18.7699 Y17.1059
G01 X18.7993 Y17.0986
G01 X18.8165 Y17.0954
G01 X18.8523 Y17.0903
G01 X18.8942 Y17.0881
G01 X20.1500 Y17.0880
G01 X20.1616 Y17.0883
G01 X20.1920 Y17.0898
G01 X20.2035 Y17.0910
G01 X20.2336 Y17.0954
G01 X20.2507 Y17.0986
G01 X20.2914 Y17.1090
G01 X20.3255 Y17.1209
G01 X20.3417 Y17.1274
G01 X20.3796 Y17.1455
G01 X20.4108 Y17.1638
G01 X20.4254 Y17.1734
G01 X20.4498 Y17.1914
G01 X20.4634 Y17.2023
G01 X20.4902 Y17.2266
G01 X20.5012 Y17.2377
G01 X21.5488 Y17.2377
G01 X21.5598 Y17.2266
G01 X21.5866 Y17.2023
G01 X21.5956 Y17.1949
G01 X21.6199 Y17.1768
G01 X21.6343 Y17.1669
G01 X21.6603 Y17.1512
G01 X21.6704 Y17.1455
G01 X21.6808 Y17.1403
G01 X21.7136 Y17.1251
G01 X21.7476 Y17.1126
G01 X21.7586 Y17.1090
G01 X21.7699 Y17.1059
G01 X21.8050 Y17.0974
G01 X21.8165 Y17.0954
G01 X21.8523 Y17.0903
G01 X21.8884 Y17.0883
G01 X21.9000 Y17.0880
G01 X23.1558 Y17.0881
G01 X23.1977 Y17.0903
G01 X23.2336 Y17.0954
G01 X23.2450 Y17.0974
G01 X23.2802 Y17.1059
G01 X23.2914 Y17.1090
G01 X23.3255 Y17.1209
G01 X23.3417 Y17.1274
G01 X23.3796 Y17.1455
G01 X23.4108 Y17.1638
G01 X23.4254 Y17.1734
G01 X23.4498 Y17.1914
G01 X23.4634 Y17.2023
G01 X23.4902 Y17.2266
G01 X23.5012 Y17.2377
G01 X27.9750 Y17.2377
G01 X27.9866 Y17.2380
G01 X28.0473 Y17.2413
G01 X28.1074 Y17.2499
G01 X28.1245 Y17.2531
G01 X28.1890 Y17.2695
G01 X28.2463 Y17.2897
G01 X28.2572 Y17.2939
G01 X28.2678 Y17.2986
G01 X28.3226 Y17.3248
G01 X28.3748 Y17.3558
G01 X28.3846 Y17.3620
G01 X28.3941 Y17.3687
G01 X28.4427 Y17.4051
G01 X28.4879 Y17.4457
G01 X28.4963 Y17.4537
G01 X30.2837 Y19.2410
G01 X31.5008 Y19.2410
G01 X31.5071 Y19.2187
G01 X31.5172 Y19.1901
G01 X31.5237 Y19.1739
G01 X31.5419 Y19.1361
G01 X31.5633 Y19.1000
G01 X31.5697 Y19.0903
G01 X31.5877 Y19.0659
G01 X31.5949 Y19.0567
G01 X31.6025 Y19.0479
G01 X31.6270 Y19.0213
G01 X31.6580 Y18.9929
G01 X31.6670 Y18.9856
G01 X31.6913 Y18.9674
G01 X31.7008 Y18.9607
G01 X31.7106 Y18.9545
G01 X31.7418 Y18.9361
G01 X31.7522 Y18.9309
G01 X31.7850 Y18.9157
G01 X31.8245 Y18.9014
G01 X31.8412 Y18.8965
G01 X31.8764 Y18.8880
G01 X31.8878 Y18.8860
G01 X31.9236 Y18.8810
G01 X31.9597 Y18.8789
G01 X31.9714 Y18.8786
G01 X33.4772 Y18.8787
G01 X33.5133 Y18.8805
G01 X33.5307 Y18.8824
G01 X33.5664 Y18.8880
G01 X33.6072 Y18.8980
G01 X33.6238 Y18.9033
G01 X33.6577 Y18.9157
G01 X33.6958 Y18.9335
G01 X33.7111 Y18.9419
G01 X33.7371 Y18.9575
G01 X33.7515 Y18.9674
G01 X33.7803 Y18.9892
G01 X33.8073 Y19.0133
G01 X33.8198 Y19.0254
G01 X33.8441 Y19.0522
G01 X33.8550 Y19.0659
G01 X33.8763 Y19.0951
G01 X33.8952 Y19.1260
G01 X33.9036 Y19.1412
G01 X33.9190 Y19.1739
G01 X33.9255 Y19.1901
G01 X33.9357 Y19.2187
G01 X33.9405 Y19.2355
G01 X33.9490 Y19.2706
G01 X33.9546 Y19.3064
G01 X33.9565 Y19.3237
G01 X33.9584 Y19.3657
G01 X33.9584 Y20.5657
G01 X33.9581 Y20.5773
G01 X33.9560 Y20.6134
G01 X33.9510 Y20.6492
G01 X33.9478 Y20.6664
G01 X33.9374 Y20.7070
G01 X33.9255 Y20.7412
G01 X33.9213 Y20.7520
G01 X33.9166 Y20.7627
G01 X33.9009 Y20.7952
G01 X33.8825 Y20.8264
G01 X33.8763 Y20.8362
G01 X33.8696 Y20.8457
G01 X33.8515 Y20.8701
G01 X33.8441 Y20.8791
G01 X33.8157 Y20.9100
G01 X33.8073 Y20.9181
G01 X33.7803 Y20.9421
G01 X33.7515 Y20.9639
G01 X33.7419 Y20.9706
G01 X33.7111 Y20.9894
G01 X33.7010 Y20.9952
G01 X33.6906 Y21.0004
G01 X33.6577 Y21.0156
G01 X33.6238 Y21.0281
G01 X33.6127 Y21.0317
G01 X33.6015 Y21.0348
G01 X33.5721 Y21.0421
G01 X33.5607 Y21.0444
G01 X33.5191 Y21.0503
G01 X33.4830 Y21.0524
G01 X33.4714 Y21.0527
G01 X31.9714 Y21.0527
G01 X31.9597 Y21.0524
G01 X31.9236 Y21.0503
G01 X31.8821 Y21.0444
G01 X31.8650 Y21.0408
G01 X31.8300 Y21.0317
G01 X31.8190 Y21.0281
G01 X31.7850 Y21.0156
G01 X31.7522 Y21.0004
G01 X31.7418 Y20.9952
G01 X31.7106 Y20.9768
G01 X31.6960 Y20.9673
G01 X31.6624 Y20.9421
G01 X31.6354 Y20.9181
G01 X31.6270 Y20.9100
G01 X31.6025 Y20.8834
G01 X31.5913 Y20.8701
G01 X31.5664 Y20.8362
G01 X31.5447 Y20.8003
G01 X31.5366 Y20.7848
G01 X31.5214 Y20.7520
G01 X31.5081 Y20.7156
G01 X29.9725 Y20.7155
G01 X29.9060 Y20.7120
G01 X29.8459 Y20.7034
G01 X29.8345 Y20.7014
G01 X29.8231 Y20.6988
G01 X29.7643 Y20.6838
G01 X29.7532 Y20.6802
G01 X29.6961 Y20.6594
G01 X29.6411 Y20.6337
G01 X29.6307 Y20.6285
G01 X29.6206 Y20.6228
G01 X29.5687 Y20.5913
G01 X29.5197 Y20.5554
G01 X29.5061 Y20.5445
G01 X29.4611 Y20.5037
G01 X27.6696 Y18.7123
G01 X23.5012 Y18.7123
G01 X23.4860 Y18.7274
G01 X23.4590 Y18.7515
G01 X23.4301 Y18.7733
G01 X23.4206 Y18.7800
G01 X23.3897 Y18.7988
G01 X23.3796 Y18.8045
G01 X23.3692 Y18.8098
G01 X23.3364 Y18.8250
G01 X23.3024 Y18.8374
G01 X23.2914 Y18.8411
G01 X23.2802 Y18.8442
G01 X23.2450 Y18.8527
G01 X23.2336 Y18.8547
G01 X23.1977 Y18.8597
G01 X23.1616 Y18.8617
G01 X23.1500 Y18.8620
G01 X21.9000 Y18.8620
G01 X21.8639 Y18.8605
G01 X21.8465 Y18.8590
G01 X21.8165 Y18.8547
G01 X21.8050 Y18.8527
G01 X21.7936 Y18.8501
G01 X21.7642 Y18.8427
G01 X21.7531 Y18.8393
G01 X21.7190 Y18.8271
G01 X21.7030 Y18.8202
G01 X21.6756 Y18.8072
G01 X21.6653 Y18.8017
G01 X21.6393 Y18.7862
G01 X21.6246 Y18.7767
G01 X21.6002 Y18.7586
G01 X21.5866 Y18.7477
G01 X21.5598 Y18.7235
G01 X21.5488 Y18.7123
G01 X20.5012 Y18.7123
G01 X20.4902 Y18.7235
G01 X20.4634 Y18.7477
G01 X20.4544 Y18.7551
G01 X20.4301 Y18.7733
G01 X20.4157 Y18.7831
G01 X20.3897 Y18.7988
G01 X20.3796 Y18.8045
G01 X20.3692 Y18.8098
G01 X20.3417 Y18.8227
G01 X20.3310 Y18.8271
G01 X20.3024 Y18.8374
G01 X20.2858 Y18.8427
G01 X20.2450 Y18.8527
G01 X20.2093 Y18.8583
G01 X20.1920 Y18.8602
G01 X20.1500 Y18.8620
G01 X18.9000 Y18.8620
G01 X18.8884 Y18.8617
G01 X18.8523 Y18.8597
G01 X18.8165 Y18.8547
G01 X18.7993 Y18.8515
G01 X18.7586 Y18.8411
G01 X18.7476 Y18.8374
G01 X18.7136 Y18.8250
G01 X18.6808 Y18.8098
G01 X18.6704 Y18.8045
G01 X18.6393 Y18.7862
G01 X18.6294 Y18.7800
G01 X18.6199 Y18.7733
G01 X18.5956 Y18.7551
G01 X18.5866 Y18.7477
G01 X18.5556 Y18.7194
G01 X18.5273 Y18.6884
G01 X18.5199 Y18.6794
G01 X18.5018 Y18.6551
G01 X18.4951 Y18.6456
G01 X18.4888 Y18.6358
G01 X18.4705 Y18.6046
G01 X18.4548 Y18.5720
G01 X18.4501 Y18.5614
G01 X18.4459 Y18.5505
G01 X18.4340 Y18.5164
G01 X18.4236 Y18.4757
G01 X18.4213 Y18.4643
G01 X18.4168 Y18.4343
G01 X18.4153 Y18.4227
G01 X18.4145 Y18.4111
G01 X18.4130 Y18.3750
G01 X18.4130 Y17.5750
G01 X18.4133 Y17.5634
G01 X18.4153 Y17.5273
G01 X18.4204 Y17.4915
G01 X18.4236 Y17.4743
G01 X18.4323 Y17.4392
G01 X18.4376 Y17.4226
G01 X18.4501 Y17.3886
G01 X18.4653 Y17.3558
G01 X18.4733 Y17.3403
G01 X18.4919 Y17.3093
G01 X18.5018 Y17.2949
G01 X18.5235 Y17.2661
G01 X18.5476 Y17.2391
G01 X18.5598 Y17.2266
G01 X18.5866 Y17.2023
G01 X18.6002 Y17.1914
G01 X18.6246 Y17.1734
G01 X18.6393 Y17.1638
G01 X18.6704 Y17.1455
G01 X18.7030 Y17.1298
G00 Z2.0000
G00 X18.7681 Y17.2675
G01 F60.00
G01 Z-0.0600
G01 F60.00
G01 X18.7758 Y17.2643
G01 X18.8029 Y17.2548
G01 X18.8347 Y17.2468
G01 X18.8672 Y17.2420
G01 X18.8979 Y17.2404
G01 X20.1500 Y17.2404
G01 X20.1807 Y17.2418
G01 X20.2153 Y17.2468
G01 X20.2472 Y17.2548
G01 X20.2781 Y17.2658
G01 X20.3041 Y17.2780
G01 X20.3114 Y17.2819
G01 X20.3342 Y17.2956
G01 X20.3393 Y17.2992
G01 X20.3623 Y17.3163
G01 X20.3836 Y17.3355
G01 X20.3895 Y17.3414
G01 X20.4087 Y17.3627
G01 X20.4289 Y17.3901
G01 X21.6211 Y17.3901
G01 X21.6413 Y17.3627
G01 X21.6605 Y17.3414
G01 X21.6664 Y17.3355
G01 X21.6877 Y17.3163
G01 X21.7107 Y17.2992
G01 X21.7158 Y17.2956
G01 X21.7386 Y17.2819
G01 X21.7460 Y17.2780
G01 X21.7719 Y17.2658
G01 X21.8029 Y17.2548
G01 X21.8347 Y17.2468
G01 X21.8631 Y17.2425
G01 X21.8714 Y17.2417
G01 X21.9000 Y17.2404
G01 X23.1500 Y17.2404
G01 X23.1828 Y17.2420
G01 X23.2112 Y17.2461
G01 X23.2194 Y17.2477
G01 X23.2472 Y17.2548
G01 X23.2742 Y17.2643
G01 X23.2819 Y17.2675
G01 X23.3078 Y17.2799
G01 X23.3324 Y17.2945
G01 X23.3393 Y17.2992
G01 X23.3623 Y17.3163
G01 X23.3836 Y17.3355
G01 X23.3895 Y17.3414
G01 X23.4087 Y17.3627
G01 X23.4289 Y17.3901
G01 X27.9750 Y17.3901
G01 X28.0323 Y17.3929
G01 X28.0912 Y17.4018
G01 X28.1448 Y17.4153
G01 X28.1950 Y17.4331
G01 X28.2026 Y17.4363
G01 X28.2507 Y17.4592
G01 X28.2965 Y17.4865
G01 X28.3034 Y17.4911
G01 X28.3461 Y17.5229
G01 X28.3871 Y17.5600
G01 X30.2206 Y19.3934
G01 X31.6367 Y19.3934
G01 X31.6368 Y19.3636
G01 X31.6386 Y19.3308
G01 X31.6432 Y19.3004
G01 X31.6511 Y19.2685
G01 X31.6622 Y19.2376
G01 X31.6762 Y19.2079
G01 X31.6931 Y19.1797
G01 X31.7127 Y19.1534
G01 X31.7347 Y19.1290
G01 X31.7591 Y19.1070
G01 X31.7855 Y19.0874
G01 X31.8136 Y19.0705
G01 X31.8433 Y19.0565
G01 X31.8742 Y19.0454
G01 X31.9061 Y19.0374
G01 X31.9386 Y19.0326
G01 X31.9714 Y19.0310
G01 X33.4735 Y19.0310
G01 X33.5000 Y19.0323
G01 X33.5083 Y19.0331
G01 X33.5367 Y19.0374
G01 X33.5645 Y19.0443
G01 X33.5725 Y19.0467
G01 X33.5994 Y19.0565
G01 X33.6309 Y19.0715
G01 X33.6538 Y19.0852
G01 X33.6607 Y19.0898
G01 X33.6837 Y19.1070
G01 X33.7050 Y19.1262
G01 X33.7109 Y19.1320
G01 X33.7301 Y19.1534
G01 X33.7496 Y19.1797
G01 X33.7665 Y19.2079
G01 X33.7789 Y19.2338
G01 X33.7820 Y19.2415
G01 X33.7916 Y19.2685
G01 X33.7987 Y19.2963
G01 X33.8003 Y19.3045
G01 X33.8044 Y19.3329
G01 X33.8060 Y19.3657
G01 X33.8060 Y20.5657
G01 X33.8044 Y20.5985
G01 X33.7992 Y20.6330
G01 X33.7916 Y20.6628
G01 X33.7820 Y20.6898
G01 X33.7789 Y20.6975
G01 X33.7665 Y20.7234
G01 X33.7496 Y20.7516
G01 X33.7326 Y20.7747
G01 X33.7287 Y20.7795
G01 X33.7109 Y20.7993
G01 X33.7050 Y20.8052
G01 X33.6837 Y20.8243
G01 X33.6590 Y20.8427
G01 X33.6327 Y20.8587
G01 X33.6254 Y20.8627
G01 X33.5994 Y20.8748
G01 X33.5685 Y20.8859
G01 X33.5367 Y20.8939
G01 X33.5083 Y20.8982
G01 X33.5000 Y20.8990
G01 X33.4714 Y20.9003
G01 X31.9693 Y20.9003
G01 X31.9386 Y20.8987
G01 X31.9061 Y20.8939
G01 X31.8742 Y20.8859
G01 X31.8433 Y20.8748
G01 X31.8136 Y20.8608
G01 X31.7855 Y20.8439
G01 X31.7591 Y20.8243
G01 X31.7347 Y20.8023
G01 X31.7127 Y20.7780
G01 X31.6931 Y20.7516
G01 X31.6762 Y20.7234
G01 X31.6622 Y20.6937
G01 X31.6511 Y20.6628
G01 X31.6432 Y20.6309
G01 X31.6383 Y20.5985
G01 X31.6367 Y20.5632
G01 X29.9762 Y20.5632
G01 X29.9210 Y20.5604
G01 X29.8683 Y20.5527
G01 X29.8601 Y20.5510
G01 X29.8065 Y20.5374
G01 X29.7583 Y20.5202
G01 X29.7507 Y20.5170
G01 X29.7026 Y20.4941
G01 X29.6568 Y20.4668
G01 X29.6499 Y20.4622
G01 X29.6072 Y20.4304
G01 X29.5662 Y20.3933
G01 X27.7327 Y18.5599
G01 X23.4289 Y18.5599
G01 X23.4087 Y18.5873
G01 X23.3895 Y18.6086
G01 X23.3836 Y18.6145
G01 X23.3623 Y18.6337
G01 X23.3393 Y18.6509
G01 X23.3324 Y18.6555
G01 X23.3078 Y18.6701
G01 X23.2819 Y18.6825
G01 X23.2742 Y18.6857
G01 X23.2472 Y18.6953
G01 X23.2194 Y18.7023
G01 X23.2112 Y18.7039
G01 X23.1828 Y18.7081
G01 X23.1500 Y18.7097
G01 X21.9000 Y18.7097
G01 X21.8714 Y18.7084
G01 X21.8631 Y18.7075
G01 X21.8347 Y18.7032
G01 X21.8029 Y18.6953
G01 X21.7719 Y18.6842
G01 X21.7460 Y18.6720
G01 X21.7386 Y18.6681
G01 X21.7158 Y18.6544
G01 X21.7107 Y18.6509
G01 X21.6877 Y18.6337
G01 X21.6664 Y18.6145
G01 X21.6605 Y18.6086
G01 X21.6413 Y18.5873
G01 X21.6211 Y18.5599
G01 X20.4289 Y18.5599
G01 X20.4087 Y18.5873
G01 X20.3866 Y18.6116
G01 X20.3623 Y18.6337
G01 X20.3393 Y18.6509
G01 X20.3324 Y18.6555
G01 X20.3096 Y18.6691
G01 X20.3041 Y18.6720
G01 X20.2781 Y18.6842
G01 X20.2511 Y18.6939
G01 X20.2432 Y18.6964
G01 X20.2153 Y18.7032
G01 X20.1828 Y18.7081
G01 X20.1500 Y18.7097
G01 X18.9000 Y18.7097
G01 X18.8672 Y18.7081
G01 X18.8327 Y18.7028
G01 X18.8029 Y18.6953
G01 X18.7719 Y18.6842
G01 X18.7423 Y18.6701
G01 X18.7176 Y18.6555
G01 X18.7107 Y18.6509
G01 X18.6893 Y18.6350
G01 X18.6846 Y18.6310
G01 X18.6634 Y18.6116
G01 X18.6413 Y18.5873
G01 X18.6218 Y18.5609
G01 X18.6069 Y18.5364
G01 X18.6039 Y18.5309
G01 X18.5925 Y18.5069
G01 X18.5893 Y18.4992
G01 X18.5798 Y18.4722
G01 X18.5718 Y18.4403
G01 X18.5670 Y18.4078
G01 X18.5655 Y18.3792
G01 X18.5654 Y17.5750
G01 X18.5670 Y17.5422
G01 X18.5714 Y17.5118
G01 X18.5798 Y17.4779
G01 X18.5893 Y17.4508
G01 X18.5925 Y17.4431
G01 X18.6049 Y17.4173
G01 X18.6195 Y17.3926
G01 X18.6242 Y17.3857
G01 X18.6413 Y17.3627
G01 X18.6634 Y17.3384
G01 X18.6846 Y17.3190
G01 X18.6910 Y17.3138
G01 X18.7124 Y17.2979
G01 X18.7176 Y17.2945
G01 X18.7423 Y17.2799
G01 X18.7681 Y17.2675
G00 Z2.0000
G00 X18.7083 Y20.2274
G01 F60.00
G01 Z-0.0600
G01 F60.00
G01 X18.7245 Y20.2209
G01 X18.7586 Y20.2090
G01 X18.7699 Y20.2059
G01 X18.8050 Y20.1974
G01 X18.8165 Y20.1954
G01 X18.8523 Y20.1903
G01 X18.8942 Y20.1881
G01 X20.1500 Y20.1880
G01 X20.1920 Y20.1898
G01 X20.2093 Y20.1918
G01 X20.2450 Y20.1974
G01 X20.2802 Y20.2059
G01 X20.2914 Y20.2090
G01 X20.3024 Y20.2126
G01 X20.3364 Y20.2251
G01 X20.3692 Y20.2403
G01 X20.3796 Y20.2455
G01 X20.4108 Y20.2638
G01 X20.4206 Y20.2701
G01 X20.4301 Y20.2768
G01 X20.4590 Y20.2985
G01 X20.4860 Y20.3226
G01 X20.4944 Y20.3306
G01 X20.5189 Y20.3572
G01 X20.5301 Y20.3706
G01 X20.5550 Y20.4044
G01 X20.5738 Y20.4353
G01 X20.5822 Y20.4506
G01 X20.6000 Y20.4886
G01 X20.6143 Y20.5281
G01 X20.6192 Y20.5449
G01 X20.6277 Y20.5800
G01 X20.6297 Y20.5915
G01 X20.6347 Y20.6273
G01 X20.6367 Y20.6634
G01 X20.6370 Y20.6750
G01 X20.6370 Y21.4750
G01 X20.6367 Y21.4866
G01 X20.6347 Y21.5227
G01 X20.6287 Y21.5643
G01 X20.6251 Y21.5814
G01 X20.6161 Y21.6164
G01 X20.6041 Y21.6505
G01 X20.6000 Y21.6614
G01 X20.5952 Y21.6720
G01 X20.5795 Y21.7046
G01 X20.5612 Y21.7358
G01 X20.5550 Y21.7456
G01 X20.5483 Y21.7551
G01 X20.5301 Y21.7794
G01 X20.5227 Y21.7884
G01 X20.4944 Y21.8194
G01 X20.4634 Y21.8477
G01 X20.4544 Y21.8551
G01 X20.4301 Y21.8733
G01 X20.4206 Y21.8800
G01 X20.4108 Y21.8862
G01 X20.3796 Y21.9045
G01 X20.3692 Y21.9098
G01 X20.3364 Y21.9250
G01 X20.2969 Y21.9393
G01 X20.2858 Y21.9427
G01 X20.2623 Y21.9486
G01 X20.2623 Y22.2196
G01 X20.3304 Y22.2877
G01 X22.2750 Y22.2877
G01 X22.2866 Y22.2880
G01 X22.3473 Y22.2913
G01 X22.4074 Y22.2999
G01 X22.4188 Y22.3019
G01 X22.4302 Y22.3045
G01 X22.4890 Y22.3195
G01 X22.5463 Y22.3397
G01 X22.5572 Y22.3439
G01 X22.5678 Y22.3486
G01 X22.6174 Y22.3721
G01 X22.6327 Y22.3805
G01 X22.6846 Y22.4120
G01 X22.7336 Y22.4479
G01 X22.7427 Y22.4551
G01 X22.7515 Y22.4627
G01 X22.7963 Y22.5037
G01 X23.0463 Y22.7537
G01 X23.0873 Y22.7985
G01 X23.0986 Y22.8118
G01 X23.1380 Y22.8654
G01 X23.1695 Y22.9173
G01 X23.1752 Y22.9275
G01 X23.1805 Y22.9379
G01 X23.2062 Y22.9929
G01 X23.2269 Y23.0499
G01 X23.2305 Y23.0610
G01 X23.2336 Y23.0722
G01 X23.2481 Y23.1312
G01 X23.2581 Y23.1970
G01 X23.2596 Y23.2143
G01 X23.2623 Y23.2750
G01 X23.2623 Y24.2282
G01 X23.3006 Y24.2566
G01 X23.3142 Y24.2675
G01 X23.3956 Y24.3412
G01 X23.4077 Y24.3537
G01 X23.4775 Y24.4308
G01 X23.4884 Y24.4444
G01 X23.5469 Y24.5232
G01 X23.5536 Y24.5328
G01 X23.5598 Y24.5426
G01 X23.6132 Y24.6318
G01 X23.6212 Y24.6473
G01 X23.6632 Y24.7360
G01 X23.6679 Y24.7466
G01 X23.6721 Y24.7575
G01 X23.7051 Y24.8499
G01 X23.7088 Y24.8609
G01 X23.7119 Y24.8721
G01 X23.7357 Y24.9673
G01 X23.7383 Y24.9787
G01 X23.7403 Y24.9901
G01 X23.7547 Y25.0872
G01 X23.7561 Y25.0988
G01 X23.7569 Y25.1104
G01 X23.7617 Y25.2084
G01 X23.7620 Y25.2200
G01 X23.7617 Y25.2316
G01 X23.7569 Y25.3297
G01 X23.7561 Y25.3413
G01 X23.7547 Y25.3528
G01 X23.7403 Y25.4499
G01 X23.7383 Y25.4613
G01 X23.7357 Y25.4727
G01 X23.7119 Y25.5679
G01 X23.7088 Y25.5791
G01 X23.7051 Y25.5901
G01 X23.6721 Y25.6825
G01 X23.6679 Y25.6934
G01 X23.6632 Y25.7040
G01 X23.6212 Y25.7927
G01 X23.6160 Y25.8031
G01 X23.6102 Y25.8133
G01 X23.5598 Y25.8974
G01 X23.5536 Y25.9073
G01 X23.5469 Y25.9168
G01 X23.4884 Y25.9956
G01 X23.4812 Y26.0048
G01 X23.4736 Y26.0136
G01 X23.4077 Y26.0863
G01 X23.3997 Y26.0947
G01 X23.3913 Y26.1027
G01 X23.3186 Y26.1686
G01 X23.3052 Y26.1799
G01 X23.2218 Y26.2419
G01 X23.2123 Y26.2486
G01 X23.2024 Y26.2548
G01 X23.1183 Y26.3052
G01 X23.1081 Y26.3110
G01 X23.0977 Y26.3162
G01 X23.0090 Y26.3582
G01 X22.9984 Y26.3629
G01 X22.9875 Y26.3671
G01 X22.8951 Y26.4001
G01 X22.8841 Y26.4038
G01 X22.8729 Y26.4069
G01 X22.7777 Y26.4307
G01 X22.7663 Y26.4333
G01 X22.7549 Y26.4353
G01 X22.6578 Y26.4497
G01 X22.6463 Y26.4511
G01 X22.6347 Y26.4519
G01 X22.5366 Y26.4567
G01 X22.5250 Y26.4570
G01 X22.5134 Y26.4567
G01 X22.4154 Y26.4519
G01 X22.4038 Y26.4511
G01 X22.3922 Y26.4497
G01 X22.2951 Y26.4353
G01 X22.2837 Y26.4333
G01 X22.2723 Y26.4307
G01 X22.1771 Y26.4069
G01 X22.1659 Y26.4038
G01 X22.1549 Y26.4001
G01 X22.0625 Y26.3671
G01 X22.0516 Y26.3629
G01 X22.0410 Y26.3582
G01 X21.9523 Y26.3162
G01 X21.9419 Y26.3110
G01 X21.9318 Y26.3052
G01 X21.8476 Y26.2548
G01 X21.8378 Y26.2486
G01 X21.8282 Y26.2419
G01 X21.7494 Y26.1834
G01 X21.7403 Y26.1762
G01 X21.7314 Y26.1686
G01 X21.6587 Y26.1027
G01 X21.6503 Y26.0947
G01 X21.6423 Y26.0863
G01 X21.5764 Y26.0136
G01 X21.5688 Y26.0048
G01 X21.5616 Y25.9956
G01 X21.5032 Y25.9168
G01 X21.4933 Y25.9024
G01 X21.4398 Y25.8133
G01 X21.4341 Y25.8031
G01 X21.4288 Y25.7927
G01 X21.3869 Y25.7040
G01 X21.3822 Y25.6934
G01 X21.3780 Y25.6825
G01 X21.3449 Y25.5901
G01 X21.3413 Y25.5791
G01 X21.3382 Y25.5679
G01 X21.3143 Y25.4727
G01 X21.3118 Y25.4613
G01 X21.3098 Y25.4499
G01 X21.2954 Y25.3528
G01 X21.2939 Y25.3413
G01 X21.2931 Y25.3297
G01 X21.2883 Y25.2316
G01 X21.2880 Y25.2200
G01 X21.2883 Y25.2084
G01 X21.2931 Y25.1104
G01 X21.2939 Y25.0988
G01 X21.2954 Y25.0872
G01 X21.3098 Y24.9901
G01 X21.3118 Y24.9787
G01 X21.3143 Y24.9673
G01 X21.3382 Y24.8721
G01 X21.3413 Y24.8609
G01 X21.3449 Y24.8499
G01 X21.3780 Y24.7575
G01 X21.3822 Y24.7466
G01 X21.3869 Y24.7360
G01 X21.4288 Y24.6473
G01 X21.4369 Y24.6318
G01 X21.4902 Y24.5426
G01 X21.4965 Y24.5328
G01 X21.5032 Y24.5232
G01 X21.5616 Y24.4444
G01 X21.5725 Y24.4308
G01 X21.6423 Y24.3537
G01 X21.6545 Y24.3412
G01 X21.7358 Y24.2675
G01 X21.7494 Y24.2566
G01 X21.7877 Y24.2282
G01 X21.7877 Y23.7623
G01 X20.0192 Y23.7622
G01 X19.9585 Y23.7592
G01 X19.9412 Y23.7573
G01 X19.8812 Y23.7481
G01 X19.8166 Y23.7322
G01 X19.7999 Y23.7269
G01 X19.7429 Y23.7062
G01 X19.6879 Y23.6805
G01 X19.6775 Y23.6752
G01 X19.6673 Y23.6695
G01 X19.6154 Y23.6380
G01 X19.5665 Y23.6021
G01 X19.5528 Y23.5912
G01 X19.5037 Y23.5463
G01 X19.0037 Y23.0463
G01 X18.9627 Y23.0015
G01 X18.9515 Y22.9882
G01 X18.9153 Y22.9394
G01 X18.9058 Y22.9248
G01 X18.8748 Y22.8726
G01 X18.8486 Y22.8178
G01 X18.8439 Y22.8072
G01 X18.8397 Y22.7963
G01 X18.8195 Y22.7390
G01 X18.8045 Y22.6802
G01 X18.8019 Y22.6688
G01 X18.7999 Y22.6574
G01 X18.7913 Y22.5973
G01 X18.7878 Y22.5308
G01 X18.7877 Y21.9486
G01 X18.7642 Y21.9427
G01 X18.7531 Y21.9393
G01 X18.7136 Y21.9250
G01 X18.6808 Y21.9098
G01 X18.6704 Y21.9045
G01 X18.6393 Y21.8862
G01 X18.6294 Y21.8800
G01 X18.6199 Y21.8733
G01 X18.5956 Y21.8551
G01 X18.5866 Y21.8477
G01 X18.5556 Y21.8194
G01 X18.5273 Y21.7884
G01 X18.5199 Y21.7794
G01 X18.5018 Y21.7551
G01 X18.4951 Y21.7456
G01 X18.4888 Y21.7358
G01 X18.4705 Y21.7046
G01 X18.4548 Y21.6720
G01 X18.4501 Y21.6614
G01 X18.4357 Y21.6219
G01 X18.4309 Y21.6052
G01 X18.4224 Y21.5700
G01 X18.4204 Y21.5586
G01 X18.4153 Y21.5227
G01 X18.4133 Y21.4866
G01 X18.4130 Y21.4750
G01 X18.4130 Y20.6750
G01 X18.4133 Y20.6634
G01 X18.4153 Y20.6273
G01 X18.4204 Y20.5915
G01 X18.4236 Y20.5743
G01 X18.4323 Y20.5392
G01 X18.4376 Y20.5226
G01 X18.4501 Y20.4886
G01 X18.4653 Y20.4558
G01 X18.4733 Y20.4403
G01 X18.4919 Y20.4093
G01 X18.5018 Y20.3949
G01 X18.5235 Y20.3661
G01 X18.5476 Y20.3391
G01 X18.5598 Y20.3266
G01 X18.5866 Y20.3023
G01 X18.6002 Y20.2914
G01 X18.6294 Y20.2701
G01 X18.6603 Y20.2512
G01 X18.6756 Y20.2428
G01 X18.7083 Y20.2274
G00 Z2.0000
G00 X18.7700 Y20.3667
G01 F60.00
G01 Z-0.0600
G01 F60.00
G01 X18.8029 Y20.3548
G01 X18.8347 Y20.3468
G01 X18.8672 Y20.3420
G01 X18.8979 Y20.3404
G01 X20.1500 Y20.3404
G01 X20.1807 Y20.3418
G01 X20.2153 Y20.3468
G01 X20.2472 Y20.3548
G01 X20.2781 Y20.3658
G01 X20.3041 Y20.3780
G01 X20.3114 Y20.3819
G01 X20.3342 Y20.3956
G01 X20.3393 Y20.3992
G01 X20.3623 Y20.4163
G01 X20.3836 Y20.4355
G01 X20.3895 Y20.4414
G01 X20.4087 Y20.4627
G01 X20.4271 Y20.4874
G01 X20.4431 Y20.5136
G01 X20.4470 Y20.5210
G01 X20.4592 Y20.5469
G01 X20.4703 Y20.5779
G01 X20.4773 Y20.6057
G01 X20.4789 Y20.6138
G01 X20.4831 Y20.6422
G01 X20.4846 Y20.6709
G01 X20.4847 Y21.4750
G01 X20.4831 Y21.5078
G01 X20.4789 Y21.5362
G01 X20.4773 Y21.5444
G01 X20.4703 Y21.5722
G01 X20.4592 Y21.6031
G01 X20.4451 Y21.6328
G01 X20.4283 Y21.6609
G01 X20.4087 Y21.6873
G01 X20.3866 Y21.7116
G01 X20.3623 Y21.7337
G01 X20.3376 Y21.7521
G01 X20.3078 Y21.7701
G01 X20.2819 Y21.7825
G01 X20.2761 Y21.7850
G01 X20.2511 Y21.7939
G01 X20.2432 Y21.7964
G01 X20.2153 Y21.8032
G01 X20.1828 Y21.8081
G01 X20.1521 Y21.8096
G01 X20.1099 Y21.8097
G01 X20.1099 Y22.2827
G01 X20.2673 Y22.4401
G01 X22.2750 Y22.4401
G01 X22.3323 Y22.4429
G01 X22.3871 Y22.4510
G01 X22.4448 Y22.4653
G01 X22.4950 Y22.4831
G01 X22.5026 Y22.4863
G01 X22.5507 Y22.5092
G01 X22.5965 Y22.5365
G01 X22.6034 Y22.5411
G01 X22.6444 Y22.5716
G01 X22.6886 Y22.6114
G01 X22.9386 Y22.8614
G01 X22.9784 Y22.9056
G01 X23.0113 Y22.9501
G01 X23.0388 Y22.9957
G01 X23.0427 Y23.0030
G01 X23.0654 Y23.0512
G01 X23.0834 Y23.1013
G01 X23.0858 Y23.1092
G01 X23.0987 Y23.1609
G01 X23.1071 Y23.2177
G01 X23.1099 Y23.2750
G01 X23.1099 Y24.3074
G01 X23.1293 Y24.3193
G01 X23.2115 Y24.3803
G01 X23.2920 Y24.4530
G01 X23.3635 Y24.5319
G01 X23.4245 Y24.6140
G01 X23.4291 Y24.6209
G01 X23.4816 Y24.7087
G01 X23.5254 Y24.8011
G01 X23.5286 Y24.8088
G01 X23.5617 Y24.9012
G01 X23.5641 Y24.9092
G01 X23.5888 Y25.0084
G01 X23.6046 Y25.1158
G01 X23.6096 Y25.2159
G01 X23.6096 Y25.2242
G01 X23.6044 Y25.3263
G01 X23.5895 Y25.4275
G01 X23.5879 Y25.4357
G01 X23.5630 Y25.5349
G01 X23.5271 Y25.6351
G01 X23.4835 Y25.7276
G01 X23.4795 Y25.7349
G01 X23.4269 Y25.8226
G01 X23.3660 Y25.9048
G01 X23.3607 Y25.9113
G01 X23.2920 Y25.9870
G01 X23.2115 Y26.0598
G01 X23.1276 Y26.1219
G01 X23.0399 Y26.1745
G01 X23.0326 Y26.1785
G01 X22.9401 Y26.2221
G01 X22.8438 Y26.2567
G01 X22.8359 Y26.2591
G01 X22.7407 Y26.2829
G01 X22.7325 Y26.2845
G01 X22.6313 Y26.2994
G01 X22.5250 Y26.3047
G01 X22.4187 Y26.2994
G01 X22.3134 Y26.2838
G01 X22.2102 Y26.2580
G01 X22.1099 Y26.2221
G01 X22.0137 Y26.1766
G01 X21.9259 Y26.1241
G01 X21.9190 Y26.1195
G01 X21.8369 Y26.0585
G01 X21.7611 Y25.9898
G01 X21.7552 Y25.9840
G01 X21.6893 Y25.9113
G01 X21.6840 Y25.9048
G01 X21.6232 Y25.8226
G01 X21.5684 Y25.7313
G01 X21.5229 Y25.6351
G01 X21.4884 Y25.5388
G01 X21.4860 Y25.5309
G01 X21.4621 Y25.4357
G01 X21.4605 Y25.4275
G01 X21.4456 Y25.3263
G01 X21.4404 Y25.2200
G01 X21.4456 Y25.1137
G01 X21.4608 Y25.0105
G01 X21.4871 Y24.9052
G01 X21.5229 Y24.8049
G01 X21.5684 Y24.7087
G01 X21.6232 Y24.6174
G01 X21.6866 Y24.5319
G01 X21.7580 Y24.4530
G01 X21.8385 Y24.3803
G01 X21.9207 Y24.3193
G01 X21.9401 Y24.3074
G01 X21.9401 Y23.6099
G01 X20.0250 Y23.6099
G01 X19.9677 Y23.6071
G01 X19.9150 Y23.5994
G01 X19.9069 Y23.5978
G01 X19.8592 Y23.5858
G01 X19.8513 Y23.5834
G01 X19.8012 Y23.5654
G01 X19.7530 Y23.5427
G01 X19.7457 Y23.5388
G01 X19.7001 Y23.5113
G01 X19.6524 Y23.4758
G01 X19.6114 Y23.4386
G01 X19.1114 Y22.9386
G01 X19.0716 Y22.8944
G01 X19.0387 Y22.8500
G01 X19.0112 Y22.8043
G01 X19.0073 Y22.7970
G01 X18.9846 Y22.7488
G01 X18.9666 Y22.6987
G01 X18.9642 Y22.6908
G01 X18.9514 Y22.6391
G01 X18.9432 Y22.5844
G01 X18.9401 Y22.5250
G01 X18.9401 Y21.8097
G01 X18.8979 Y21.8096
G01 X18.8672 Y21.8081
G01 X18.8347 Y21.8032
G01 X18.8029 Y21.7953
G01 X18.7719 Y21.7842
G01 X18.7423 Y21.7701
G01 X18.7141 Y21.7533
G01 X18.6877 Y21.7337
G01 X18.6634 Y21.7116
G01 X18.6413 Y21.6873
G01 X18.6218 Y21.6609
G01 X18.6049 Y21.6328
G01 X18.5908 Y21.6031
G01 X18.5798 Y21.5722
G01 X18.5718 Y21.5403
G01 X18.5672 Y21.5099
G01 X18.5654 Y21.4750
G01 X18.5654 Y20.6750
G01 X18.5670 Y20.6422
G01 X18.5714 Y20.6118
G01 X18.5798 Y20.5779
G01 X18.5893 Y20.5508
G01 X18.5925 Y20.5431
G01 X18.6049 Y20.5173
G01 X18.6195 Y20.4926
G01 X18.6242 Y20.4857
G01 X18.6413 Y20.4627
G01 X18.6634 Y20.4384
G01 X18.6846 Y20.4190
G01 X18.6910 Y20.4138
G01 X18.7141 Y20.3968
G01 X18.7386 Y20.3819
G01 X18.7460 Y20.3780
G01 X18.7700 Y20.3667
G00 Z2.0000
G00 X18.6358 Y22.5441
G01 F60.00
G01 Z-0.0600
G01 F60.00
G01 X18.6354 Y22.5250
G01 X18.6354 Y22.0568
G01 X18.5986 Y22.0389
G01 X18.5820 Y22.0295
G01 X18.5528 Y22.0119
G01 X18.5292 Y21.9956
G01 X18.5095 Y21.9810
G01 X18.4944 Y21.9693
G01 X18.4799 Y21.9568
G01 X18.4617 Y21.9403
G01 X18.4412 Y21.9203
G01 X18.4182 Y21.8951
G01 X18.4058 Y21.8806
G01 X18.3940 Y21.8656
G01 X18.3794 Y21.8459
G01 X18.3632 Y21.8222
G01 X18.3455 Y21.7930
G01 X18.3361 Y21.7764
G01 X18.3275 Y21.7593
G01 X18.3170 Y21.7372
G01 X18.3057 Y21.7108
G01 X18.2910 Y21.6697
G01 X18.2831 Y21.6422
G01 X18.2771 Y21.6184
G01 X18.2729 Y21.5998
G01 X18.2696 Y21.5809
G01 X18.2648 Y21.5472
G01 X18.2623 Y21.5186
G01 X18.2611 Y21.4941
G01 X18.2606 Y21.4750
G01 X18.2606 Y20.6750
G01 X18.2611 Y20.6559
G01 X18.2623 Y20.6314
G01 X18.2637 Y20.6123
G01 X18.2660 Y20.5934
G01 X18.2696 Y20.5691
G01 X18.2749 Y20.5409
G01 X18.2831 Y20.5078
G01 X18.2882 Y20.4894
G01 X18.2941 Y20.4713
G01 X18.3024 Y20.4482
G01 X18.3131 Y20.4215
G01 X18.3275 Y20.3907
G01 X18.3361 Y20.3736
G01 X18.3455 Y20.3570
G01 X18.3582 Y20.3359
G01 X18.3738 Y20.3119
G01 X18.3998 Y20.2768
G01 X18.4119 Y20.2621
G01 X18.4412 Y20.2297
G01 X18.4547 Y20.2162
G01 X18.4871 Y20.1869
G01 X18.5018 Y20.1748
G01 X18.5369 Y20.1488
G01 X18.5609 Y20.1332
G01 X18.5820 Y20.1205
G01 X18.5986 Y20.1111
G01 X18.6157 Y20.1025
G01 X18.6379 Y20.0920
G01 X18.6642 Y20.0807
G01 X18.6963 Y20.0691
G01 X18.7236 Y20.0605
G01 X18.7659 Y20.0499
G01 X18.7847 Y20.0462
G01 X18.8278 Y20.0398
G01 X18.8564 Y20.0373
G01 X18.8809 Y20.0361
G01 X18.9000 Y20.0356
G01 X20.1596 Y20.0357
G01 X20.1936 Y20.0373
G01 X20.2127 Y20.0387
G01 X20.2317 Y20.0410
G01 X20.2559 Y20.0446
G01 X20.2748 Y20.0479
G01 X20.2934 Y20.0521
G01 X20.3172 Y20.0581
G01 X20.3356 Y20.0632
G01 X20.3538 Y20.0691
G01 X20.3858 Y20.0807
G01 X20.4035 Y20.0881
G01 X20.4343 Y20.1025
G01 X20.4598 Y20.1157
G01 X20.4891 Y20.1332
G01 X20.5052 Y20.1434
G01 X20.5209 Y20.1544
G01 X20.5482 Y20.1748
G01 X20.5629 Y20.1869
G01 X20.5883 Y20.2097
G01 X20.6088 Y20.2297
G01 X20.6318 Y20.2549
G01 X20.6443 Y20.2694
G01 X20.6560 Y20.2845
G01 X20.6762 Y20.3119
G01 X20.6869 Y20.3278
G01 X20.7045 Y20.3570
G01 X20.7183 Y20.3821
G01 X20.7330 Y20.4129
G01 X20.7407 Y20.4303
G01 X20.7476 Y20.4482
G01 X20.7590 Y20.4803
G01 X20.7645 Y20.4986
G01 X20.7729 Y20.5316
G01 X20.7789 Y20.5597
G01 X20.7840 Y20.5934
G01 X20.7863 Y20.6123
G01 X20.7877 Y20.6314
G01 X20.7893 Y20.6655
G01 X20.7893 Y21.4846
G01 X20.7871 Y21.5282
G01 X20.7840 Y21.5567
G01 X20.7804 Y21.5809
G01 X20.7771 Y21.5998
G01 X20.7729 Y21.6184
G01 X20.7670 Y21.6422
G01 X20.7590 Y21.6697
G01 X20.7443 Y21.7108
G01 X20.7330 Y21.7372
G01 X20.7225 Y21.7593
G01 X20.7139 Y21.7764
G01 X20.7045 Y21.7930
G01 X20.6919 Y21.8141
G01 X20.6816 Y21.8302
G01 X20.6706 Y21.8459
G01 X20.6560 Y21.8656
G01 X20.6381 Y21.8879
G01 X20.6088 Y21.9203
G01 X20.5953 Y21.9338
G01 X20.5629 Y21.9631
G01 X20.5406 Y21.9810
G01 X20.5131 Y22.0012
G01 X20.4891 Y22.0169
G01 X20.4680 Y22.0295
G01 X20.4514 Y22.0389
G01 X20.4147 Y22.0568
G01 X20.4147 Y22.1354
G01 X22.2750 Y22.1354
G01 X22.2941 Y22.1358
G01 X22.3527 Y22.1388
G01 X22.3812 Y22.1420
G01 X22.4297 Y22.1492
G01 X22.4486 Y22.1525
G01 X22.4672 Y22.1567
G01 X22.5241 Y22.1710
G01 X22.5514 Y22.1797
G01 X22.5976 Y22.1962
G01 X22.6155 Y22.2031
G01 X22.6329 Y22.2108
G01 X22.6859 Y22.2360
G01 X22.7110 Y22.2498
G01 X22.7613 Y22.2801
G01 X22.7772 Y22.2907
G01 X22.8243 Y22.3256
G01 X22.8394 Y22.3373
G01 X22.8539 Y22.3498
G01 X22.8972 Y22.3893
G01 X23.1541 Y22.6459
G01 X23.1673 Y22.6598
G01 X23.2002 Y22.6962
G01 X23.2127 Y22.7106
G01 X23.2245 Y22.7257
G01 X23.2593 Y22.7729
G01 X23.2749 Y22.7969
G01 X23.3002 Y22.8390
G01 X23.3096 Y22.8556
G01 X23.3182 Y22.8727
G01 X23.3392 Y22.9171
G01 X23.3469 Y22.9346
G01 X23.3538 Y22.9524
G01 X23.3703 Y22.9986
G01 X23.3763 Y23.0168
G01 X23.3814 Y23.0352
G01 X23.3934 Y23.0828
G01 X23.3976 Y23.1015
G01 X23.4008 Y23.1203
G01 X23.4093 Y23.1783
G01 X23.4118 Y23.2069
G01 X23.4142 Y23.2559
G01 X23.4147 Y23.2750
G01 X23.4147 Y24.1530
G01 X23.4936 Y24.2244
G01 X23.5075 Y24.2376
G01 X23.5206 Y24.2514
G01 X23.5865 Y24.3241
G01 X23.5990 Y24.3386
G01 X23.6108 Y24.3537
G01 X23.6692 Y24.4325
G01 X23.6808 Y24.4489
G01 X23.6858 Y24.4144
G01 X23.6891 Y24.3956
G01 X23.6933 Y24.3769
G01 X23.7007 Y24.3472
G01 X23.7087 Y24.3197
G01 X23.7222 Y24.2817
G01 X23.7291 Y24.2639
G01 X23.7368 Y24.2464
G01 X23.7499 Y24.2187
G01 X23.7585 Y24.2016
G01 X23.7679 Y24.1850
G01 X23.7837 Y24.1587
G01 X23.7993 Y24.1347
G01 X23.8232 Y24.1023
G01 X23.8349 Y24.0872
G01 X23.8474 Y24.0728
G01 X23.8745 Y24.0430
G01 X23.8950 Y24.0230
G01 X23.9178 Y24.0024
G01 X23.9322 Y23.9899
G01 X23.9473 Y23.9782
G01 X23.9719 Y23.9599
G01 X23.9876 Y23.9489
G01 X24.0037 Y23.9387
G01 X24.0300 Y23.9229
G01 X24.0466 Y23.9135
G01 X24.0637 Y23.9049
G01 X24.0914 Y23.8918
G01 X24.1178 Y23.8805
G01 X24.1556 Y23.8668
G01 X24.1754 Y23.8604
G01 X24.1754 Y22.9850
G01 X24.1758 Y22.9659
G01 X24.1788 Y22.9073
G01 X24.1820 Y22.8788
G01 X24.1892 Y22.8303
G01 X24.1925 Y22.8115
G01 X24.1967 Y22.7928
G01 X24.2086 Y22.7452
G01 X24.2137 Y22.7268
G01 X24.2197 Y22.7086
G01 X24.2362 Y22.6624
G01 X24.2431 Y22.6446
G01 X24.2508 Y22.6271
G01 X24.2760 Y22.5741
G01 X24.2850 Y22.5573
G01 X24.3151 Y22.5069
G01 X24.3253 Y22.4908
G01 X24.3363 Y22.4751
G01 X24.3656 Y22.4357
G01 X24.3773 Y22.4206
G01 X24.3898 Y22.4062
G01 X24.4293 Y22.3628
G01 X24.9028 Y21.8893
G01 X24.9462 Y21.8498
G01 X24.9606 Y21.8373
G01 X24.9757 Y21.8256
G01 X25.0151 Y21.7963
G01 X25.0388 Y21.7801
G01 X25.0890 Y21.7498
G01 X25.1056 Y21.7404
G01 X25.1227 Y21.7318
G01 X25.1671 Y21.7108
G01 X25.1934 Y21.6995
G01 X25.2486 Y21.6797
G01 X25.2668 Y21.6737
G01 X25.2852 Y21.6686
G01 X25.3421 Y21.6544
G01 X25.3703 Y21.6492
G01 X25.4188 Y21.6420
G01 X25.4378 Y21.6397
G01 X25.4569 Y21.6383
G01 X25.5059 Y21.6358
G01 X25.5250 Y21.6354
G01 X28.1877 Y21.6354
G01 X27.9670 Y21.4147
G01 X27.8390 Y21.4147
G01 X27.8203 Y21.4338
G01 X27.7879 Y21.4631
G01 X27.7732 Y21.4752
G01 X27.7381 Y21.5012
G01 X27.7222 Y21.5119
G01 X27.6848 Y21.5343
G01 X27.6679 Y21.5433
G01 X27.6285 Y21.5620
G01 X27.6019 Y21.5726
G01 X27.5788 Y21.5809
G01 X27.5606 Y21.5869
G01 X27.5422 Y21.5920
G01 X27.5184 Y21.5979
G01 X27.4998 Y21.6021
G01 X27.4809 Y21.6054
G01 X27.4567 Y21.6090
G01 X27.4377 Y21.6113
G01 X27.4186 Y21.6127
G01 X27.3941 Y21.6139
G01 X27.3750 Y21.6144
G01 X26.7155 Y21.6143
G01 X26.6814 Y21.6127
G01 X26.6623 Y21.6113
G01 X26.6434 Y21.6090
G01 X26.6097 Y21.6039
G01 X26.5909 Y21.6001
G01 X26.5578 Y21.5920
G01 X26.5394 Y21.5869
G01 X26.5213 Y21.5809
G01 X26.4892 Y21.5693
G01 X26.4715 Y21.5620
G01 X26.4407 Y21.5475
G01 X26.4236 Y21.5389
G01 X26.4070 Y21.5295
G01 X26.3778 Y21.5119
G01 X26.3619 Y21.5012
G01 X26.3345 Y21.4810
G01 X26.3194 Y21.4693
G01 X26.3049 Y21.4568
G01 X26.2797 Y21.4338
G01 X26.2662 Y21.4203
G01 X26.2432 Y21.3951
G01 X26.2308 Y21.3806
G01 X26.2190 Y21.3656
G01 X26.1988 Y21.3381
G01 X26.1882 Y21.3222
G01 X26.1705 Y21.2930
G01 X26.1611 Y21.2764
G01 X26.1525 Y21.2593
G01 X26.1381 Y21.2285
G01 X26.1307 Y21.2108
G01 X26.1191 Y21.1788
G01 X26.1132 Y21.1606
G01 X26.1081 Y21.1422
G01 X26.1021 Y21.1184
G01 X26.0979 Y21.0998
G01 X26.0946 Y21.0809
G01 X26.0898 Y21.0472
G01 X26.0873 Y21.0186
G01 X26.0861 Y20.9941
G01 X26.0856 Y20.9750
G01 X26.0856 Y20.0750
G01 X26.0861 Y20.0559
G01 X26.0873 Y20.0314
G01 X26.0887 Y20.0123
G01 X26.0910 Y19.9934
G01 X26.0946 Y19.9691
G01 X26.0979 Y19.9503
G01 X26.1021 Y19.9316
G01 X26.1081 Y19.9078
G01 X26.1132 Y19.8894
G01 X26.1191 Y19.8713
G01 X26.1274 Y19.8482
G01 X26.1343 Y19.8303
G01 X26.1420 Y19.8129
G01 X26.1525 Y19.7907
G01 X26.1611 Y19.7736
G01 X26.1705 Y19.7570
G01 X26.1832 Y19.7359
G01 X26.1934 Y19.7198
G01 X26.2044 Y19.7042
G01 X26.2190 Y19.6845
G01 X26.2308 Y19.6694
G01 X26.2432 Y19.6549
G01 X26.2597 Y19.6367
G01 X26.2729 Y19.6229
G01 X26.2867 Y19.6097
G01 X26.3121 Y19.5869
G01 X26.3268 Y19.5748
G01 X26.3542 Y19.5544
G01 X26.3778 Y19.5382
G01 X26.4070 Y19.5205
G01 X26.4236 Y19.5111
G01 X26.4407 Y19.5025
G01 X26.4715 Y19.4881
G01 X26.4892 Y19.4807
G01 X26.5213 Y19.4691
G01 X26.5394 Y19.4632
G01 X26.5578 Y19.4581
G01 X26.5909 Y19.4499
G01 X26.6097 Y19.4462
G01 X26.6434 Y19.4410
G01 X26.6623 Y19.4387
G01 X26.6814 Y19.4373
G01 X26.7155 Y19.4357
G01 X27.3750 Y19.4356
G01 X27.3941 Y19.4361
G01 X27.4186 Y19.4373
G01 X27.4377 Y19.4387
G01 X27.4567 Y19.4410
G01 X27.4809 Y19.4446
G01 X27.4998 Y19.4479
G01 X27.5184 Y19.4521
G01 X27.5422 Y19.4581
G01 X27.5606 Y19.4632
G01 X27.5788 Y19.4691
G01 X27.6019 Y19.4774
G01 X27.6285 Y19.4881
G01 X27.6679 Y19.5067
G01 X27.6848 Y19.5157
G01 X27.7222 Y19.5382
G01 X27.7381 Y19.5488
G01 X27.7732 Y19.5748
G01 X27.7879 Y19.5869
G01 X27.8203 Y19.6162
G01 X27.8390 Y19.6354
G01 X28.3355 Y19.6354
G01 X28.3546 Y19.6358
G01 X28.3789 Y19.6370
G01 X27.6065 Y18.8647
G01 X23.5611 Y18.8647
G01 X23.5482 Y18.8752
G01 X23.5131 Y18.9012
G01 X23.4972 Y18.9119
G01 X23.4680 Y18.9295
G01 X23.4514 Y18.9389
G01 X23.4343 Y18.9475
G01 X23.4035 Y18.9620
G01 X23.3769 Y18.9726
G01 X23.3447 Y18.9840
G01 X23.3264 Y18.9895
G01 X23.2841 Y19.0001
G01 X23.2654 Y19.0039
G01 X23.2317 Y19.0090
G01 X23.2127 Y19.0113
G01 X23.1936 Y19.0127
G01 X23.1691 Y19.0139
G01 X23.1500 Y19.0144
G01 X21.9000 Y19.0144
G01 X21.8809 Y19.0139
G01 X21.8564 Y19.0127
G01 X21.8373 Y19.0113
G01 X21.8184 Y19.0090
G01 X21.7847 Y19.0039
G01 X21.7659 Y19.0001
G01 X21.7328 Y18.9920
G01 X21.7144 Y18.9869
G01 X21.6963 Y18.9809
G01 X21.6732 Y18.9726
G01 X21.6553 Y18.9657
G01 X21.6379 Y18.9580
G01 X21.6071 Y18.9433
G01 X21.5902 Y18.9343
G01 X21.5609 Y18.9169
G01 X21.5448 Y18.9066
G01 X21.5292 Y18.8956
G01 X21.5018 Y18.8752
G01 X21.4889 Y18.8647
G01 X20.5611 Y18.8647
G01 X20.5482 Y18.8752
G01 X20.5209 Y18.8956
G01 X20.5052 Y18.9066
G01 X20.4891 Y18.9169
G01 X20.4598 Y18.9343
G01 X20.4429 Y18.9433
G01 X20.4122 Y18.9580
G01 X20.3947 Y18.9657
G01 X20.3769 Y18.9726
G01 X20.3447 Y18.9840
G01 X20.3264 Y18.9895
G01 X20.2934 Y18.9979
G01 X20.2748 Y19.0021
G01 X20.2559 Y19.0054
G01 X20.2222 Y19.0103
G01 X20.2032 Y19.0121
G01 X20.1691 Y19.0139
G01 X20.1500 Y19.0144
G01 X18.8905 Y19.0143
G01 X18.8469 Y19.0121
G01 X18.8184 Y19.0090
G01 X18.7941 Y19.0054
G01 X18.7753 Y19.0021
G01 X18.7566 Y18.9979
G01 X18.7236 Y18.9895
G01 X18.6963 Y18.9809
G01 X18.6732 Y18.9726
G01 X18.6553 Y18.9657
G01 X18.6379 Y18.9580
G01 X18.6157 Y18.9475
G01 X18.5902 Y18.9343
G01 X18.5528 Y18.9119
G01 X18.5292 Y18.8956
G01 X18.5095 Y18.8810
G01 X18.4944 Y18.8693
G01 X18.4799 Y18.8568
G01 X18.4547 Y18.8338
G01 X18.4347 Y18.8133
G01 X18.4182 Y18.7951
G01 X18.4058 Y18.7806
G01 X18.3940 Y18.7656
G01 X18.3794 Y18.7459
G01 X18.3632 Y18.7222
G01 X18.3455 Y18.6930
G01 X18.3361 Y18.6764
G01 X18.3275 Y18.6593
G01 X18.3170 Y18.6372
G01 X18.3057 Y18.6108
G01 X18.2910 Y18.5697
G01 X18.2855 Y18.5514
G01 X18.2771 Y18.5184
G01 X18.2712 Y18.4904
G01 X18.2660 Y18.4567
G01 X18.2637 Y18.4377
G01 X18.2623 Y18.4186
G01 X18.2607 Y18.3846
G01 X18.2607 Y17.5655
G01 X18.2623 Y17.5314
G01 X18.2637 Y17.5123
G01 X18.2660 Y17.4934
G01 X18.2696 Y17.4691
G01 X18.2729 Y17.4503
G01 X18.2771 Y17.4316
G01 X18.2855 Y17.3986
G01 X18.2910 Y17.3803
G01 X18.3024 Y17.3482
G01 X18.3093 Y17.3303
G01 X18.3170 Y17.3129
G01 X18.3317 Y17.2821
G01 X18.3407 Y17.2652
G01 X18.3582 Y17.2359
G01 X18.3684 Y17.2198
G01 X18.3794 Y17.2042
G01 X18.3940 Y17.1845
G01 X18.4058 Y17.1694
G01 X18.4182 Y17.1549
G01 X18.4347 Y17.1367
G01 X18.4479 Y17.1229
G01 X18.4617 Y17.1097
G01 X18.4871 Y17.0869
G01 X18.5018 Y17.0748
G01 X18.5292 Y17.0544
G01 X18.5448 Y17.0434
G01 X18.5609 Y17.0332
G01 X18.5902 Y17.0157
G01 X18.6071 Y17.0067
G01 X18.6379 Y16.9920
G01 X18.6553 Y16.9843
G01 X18.6732 Y16.9774
G01 X18.6963 Y16.9691
G01 X18.7144 Y16.9632
G01 X18.7328 Y16.9581
G01 X18.7659 Y16.9499
G01 X18.7941 Y16.9446
G01 X18.8184 Y16.9410
G01 X18.8373 Y16.9387
G01 X18.8564 Y16.9373
G01 X18.8809 Y16.9361
G01 X18.9000 Y16.9356
G01 X20.1500 Y16.9356
G01 X20.1691 Y16.9361
G01 X20.2032 Y16.9379
G01 X20.2222 Y16.9398
G01 X20.2559 Y16.9446
G01 X20.2748 Y16.9479
G01 X20.2934 Y16.9521
G01 X20.3264 Y16.9605
G01 X20.3447 Y16.9660
G01 X20.3769 Y16.9774
G01 X20.3947 Y16.9843
G01 X20.4122 Y16.9920
G01 X20.4429 Y17.0067
G01 X20.4598 Y17.0157
G01 X20.4891 Y17.0332
G01 X20.5052 Y17.0434
G01 X20.5209 Y17.0544
G01 X20.5482 Y17.0748
G01 X20.5611 Y17.0854
G01 X21.4889 Y17.0854
G01 X21.5018 Y17.0748
G01 X21.5292 Y17.0544
G01 X21.5448 Y17.0434
G01 X21.5609 Y17.0332
G01 X21.5902 Y17.0157
G01 X21.6071 Y17.0067
G01 X21.6379 Y16.9920
G01 X21.6553 Y16.9843
G01 X21.6732 Y16.9774
G01 X21.6963 Y16.9691
G01 X21.7144 Y16.9632
G01 X21.7328 Y16.9581
G01 X21.7659 Y16.9499
G01 X21.7847 Y16.9462
G01 X21.8184 Y16.9410
G01 X21.8373 Y16.9387
G01 X21.8564 Y16.9373
G01 X21.8809 Y16.9361
G01 X21.9000 Y16.9356
G01 X23.1500 Y16.9356
G01 X23.1691 Y16.9361
G01 X23.1936 Y16.9373
G01 X23.2127 Y16.9387
G01 X23.2317 Y16.9410
G01 X23.2654 Y16.9462
G01 X23.2841 Y16.9499
G01 X23.3264 Y16.9605
G01 X23.3447 Y16.9660
G01 X23.3769 Y16.9774
G01 X23.4035 Y16.9881
G01 X23.4343 Y17.0025
G01 X23.4514 Y17.0111
G01 X23.4680 Y17.0205
G01 X23.4972 Y17.0382
G01 X23.5131 Y17.0488
G01 X23.5482 Y17.0748
G01 X23.5611 Y17.0854
G01 X27.9750 Y17.0854
G01 X27.9941 Y17.0858
G01 X28.0432 Y17.0883
G01 X28.0622 Y17.0897
G01 X28.0812 Y17.0920
G01 X28.1297 Y17.0992
G01 X28.1579 Y17.1044
G01 X28.2148 Y17.1186
G01 X28.2333 Y17.1237
G01 X28.2514 Y17.1297
G01 X28.3066 Y17.1495
G01 X28.3329 Y17.1608
G01 X28.3773 Y17.1818
G01 X28.3944 Y17.1904
G01 X28.4110 Y17.1998
G01 X28.4613 Y17.2301
G01 X28.4772 Y17.2407
G01 X28.5243 Y17.2756
G01 X28.5394 Y17.2873
G01 X28.5539 Y17.2998
G01 X28.5902 Y17.3328
G01 X28.6041 Y17.3459
G01 X30.3468 Y19.0886
G01 X31.3954 Y19.0886
G01 X31.4031 Y19.0727
G01 X31.4121 Y19.0559
G01 X31.4345 Y19.0184
G01 X31.4507 Y18.9948
G01 X31.4711 Y18.9675
G01 X31.4833 Y18.9527
G01 X31.5126 Y18.9204
G01 X31.5331 Y18.9004
G01 X31.5513 Y18.8839
G01 X31.5657 Y18.8714
G01 X31.5808 Y18.8596
G01 X31.6083 Y18.8394
G01 X31.6323 Y18.8238
G01 X31.6533 Y18.8112
G01 X31.6700 Y18.8018
G01 X31.6870 Y18.7932
G01 X31.7092 Y18.7827
G01 X31.7356 Y18.7714
G01 X31.7767 Y18.7567
G01 X31.8042 Y18.7487
G01 X31.8280 Y18.7427
G01 X31.8466 Y18.7386
G01 X31.8655 Y18.7353
G01 X31.8992 Y18.7304
G01 X31.9278 Y18.7279
G01 X31.9523 Y18.7267
G01 X31.9714 Y18.7263
G01 X33.4714 Y18.7263
G01 X33.4905 Y18.7267
G01 X33.5245 Y18.7285
G01 X33.5435 Y18.7304
G01 X33.5773 Y18.7353
G01 X33.5961 Y18.7386
G01 X33.6148 Y18.7427
G01 X33.6386 Y18.7487
G01 X33.6570 Y18.7538
G01 X33.6751 Y18.7598
G01 X33.7072 Y18.7714
G01 X33.7248 Y18.7787
G01 X33.7557 Y18.7932
G01 X33.7728 Y18.8018
G01 X33.7894 Y18.8112
G01 X33.8186 Y18.8288
G01 X33.8345 Y18.8394
G01 X33.8619 Y18.8596
G01 X33.8770 Y18.8714
G01 X33.8915 Y18.8839
G01 X33.9096 Y18.9004
G01 X33.9235 Y18.9135
G01 X33.9367 Y18.9274
G01 X33.9595 Y18.9527
G01 X33.9716 Y18.9675
G01 X33.9920 Y18.9948
G01 X34.0030 Y19.0104
G01 X34.0132 Y19.0266
G01 X34.0307 Y19.0559
G01 X34.0397 Y19.0727
G01 X34.0543 Y19.1035
G01 X34.0621 Y19.1210
G01 X34.0690 Y19.1388
G01 X34.0772 Y19.1619
G01 X34.0832 Y19.1801
G01 X34.0883 Y19.1985
G01 X34.0965 Y19.2316
G01 X34.1017 Y19.2598
G01 X34.1053 Y19.2840
G01 X34.1077 Y19.3030
G01 X34.1091 Y19.3220
G01 X34.1103 Y19.3466
G01 X34.1108 Y19.3657
G01 X34.1108 Y20.5657
G01 X34.1103 Y20.5848
G01 X34.1091 Y20.6093
G01 X34.1077 Y20.6283
G01 X34.1053 Y20.6473
G01 X34.1017 Y20.6716
G01 X34.0985 Y20.6904
G01 X34.0943 Y20.7090
G01 X34.0883 Y20.7328
G01 X34.0803 Y20.7604
G01 X34.0656 Y20.8015
G01 X34.0543 Y20.8278
G01 X34.0439 Y20.8500
G01 X34.0353 Y20.8671
G01 X34.0258 Y20.8837
G01 X34.0082 Y20.9129
G01 X33.9920 Y20.9365
G01 X33.9774 Y20.9562
G01 X33.9656 Y20.9713
G01 X33.9531 Y20.9858
G01 X33.9367 Y21.0039
G01 X33.9167 Y21.0245
G01 X33.8915 Y21.0474
G01 X33.8770 Y21.0599
G01 X33.8619 Y21.0717
G01 X33.8422 Y21.0863
G01 X33.8186 Y21.1025
G01 X33.7894 Y21.1201
G01 X33.7728 Y21.1296
G01 X33.7557 Y21.1381
G01 X33.7335 Y21.1486
G01 X33.7072 Y21.1599
G01 X33.6751 Y21.1715
G01 X33.6570 Y21.1775
G01 X33.6386 Y21.1826
G01 X33.6148 Y21.1886
G01 X33.5961 Y21.1928
G01 X33.5773 Y21.1960
G01 X33.5530 Y21.1996
G01 X33.5340 Y21.2020
G01 X33.5150 Y21.2034
G01 X33.4809 Y21.2049
G01 X31.9714 Y21.2050
G01 X31.9523 Y21.2046
G01 X31.9182 Y21.2028
G01 X31.8897 Y21.1996
G01 X31.8655 Y21.1960
G01 X31.8466 Y21.1928
G01 X31.8280 Y21.1886
G01 X31.7949 Y21.1802
G01 X31.7676 Y21.1715
G01 X31.7445 Y21.1633
G01 X31.7267 Y21.1564
G01 X31.7092 Y21.1486
G01 X31.6785 Y21.1340
G01 X31.6533 Y21.1201
G01 X31.6323 Y21.1075
G01 X31.6161 Y21.0973
G01 X31.6005 Y21.0863
G01 X31.5808 Y21.0717
G01 X31.5584 Y21.0538
G01 X31.5261 Y21.0245
G01 X31.5061 Y21.0039
G01 X31.4896 Y20.9858
G01 X31.4771 Y20.9713
G01 X31.4654 Y20.9562
G01 X31.4451 Y20.9288
G01 X31.4295 Y20.9047
G01 X31.4080 Y20.8679
G01 X29.9783 Y20.8679
G01 X29.9592 Y20.8675
G01 X29.9349 Y20.8663
G01 X30.7040 Y21.6354
G01 X31.6526 Y21.6354
G01 X31.6883 Y21.5961
G01 X31.7018 Y21.5826
G01 X31.7706 Y21.5201
G01 X31.7926 Y21.5016
G01 X31.8672 Y21.4461
G01 X31.8828 Y21.4351
G01 X31.8990 Y21.4249
G01 X31.9705 Y21.3820
G01 X31.9956 Y21.3682
G01 X32.0796 Y21.3284
G01 X32.0971 Y21.3206
G01 X32.1149 Y21.3137
G01 X32.1935 Y21.2856
G01 X32.2116 Y21.2796
G01 X32.2300 Y21.2745
G01 X32.3109 Y21.2543
G01 X32.3296 Y21.2501
G01 X32.3484 Y21.2468
G01 X32.4309 Y21.2346
G01 X32.4594 Y21.2314
G01 X32.5523 Y21.2267
G01 X32.5714 Y21.2263
G01 X32.8809 Y21.2264
G01 X32.9738 Y21.2308
G01 X32.9929 Y21.2322
G01 X33.0118 Y21.2346
G01 X33.1038 Y21.2483
G01 X33.1318 Y21.2543
G01 X33.2127 Y21.2745
G01 X33.2312 Y21.2796
G01 X33.2493 Y21.2856
G01 X33.3278 Y21.3137
G01 X33.3457 Y21.3206
G01 X33.3631 Y21.3284
G01 X33.4385 Y21.3640
G01 X33.4556 Y21.3726
G01 X33.4722 Y21.3820
G01 X33.5438 Y21.4249
G01 X33.5599 Y21.4351
G01 X33.5756 Y21.4461
G01 X33.6426 Y21.4958
G01 X33.6576 Y21.5076
G01 X33.6721 Y21.5201
G01 X33.7339 Y21.5761
G01 X33.7478 Y21.5893
G01 X33.7609 Y21.6031
G01 X33.8233 Y21.6721
G01 X33.8412 Y21.6945
G01 X33.8909 Y21.7615
G01 X33.9019 Y21.7771
G01 X33.9121 Y21.7932
G01 X33.9550 Y21.8648
G01 X33.9644 Y21.8814
G01 X33.9730 Y21.8985
G01 X34.0087 Y21.9739
G01 X34.0164 Y21.9914
G01 X34.0233 Y22.0092
G01 X34.0514 Y22.0877
G01 X34.0574 Y22.1059
G01 X34.0625 Y22.1243
G01 X34.0828 Y22.2052
G01 X34.0869 Y22.2239
G01 X34.0902 Y22.2427
G01 X34.1025 Y22.3252
G01 X34.1048 Y22.3442
G01 X34.1062 Y22.3632
G01 X34.1103 Y22.4466
G01 X34.1108 Y22.4657
G01 X34.1103 Y22.4848
G01 X34.1062 Y22.5681
G01 X34.1037 Y22.5966
G01 X34.0902 Y22.6886
G01 X34.0869 Y22.7075
G01 X34.0828 Y22.7261
G01 X34.0625 Y22.8070
G01 X34.0574 Y22.8254
G01 X34.0514 Y22.8436
G01 X34.0233 Y22.9221
G01 X34.0164 Y22.9400
G01 X34.0087 Y22.9574
G01 X33.9730 Y23.0328
G01 X33.9644 Y23.0499
G01 X33.9550 Y23.0665
G01 X33.9121 Y23.1381
G01 X33.9019 Y23.1542
G01 X33.8909 Y23.1699
G01 X33.8354 Y23.2445
G01 X33.8170 Y23.2664
G01 X33.7609 Y23.3282
G01 X33.7478 Y23.3420
G01 X33.7339 Y23.3552
G01 X33.6721 Y23.4112
G01 X33.6502 Y23.4297
G01 X33.5756 Y23.4852
G01 X33.5599 Y23.4962
G01 X33.5438 Y23.5064
G01 X33.4722 Y23.5493
G01 X33.4471 Y23.5631
G01 X33.3545 Y23.6069
G01 X33.3278 Y23.6176
G01 X33.2493 Y23.6457
G01 X33.2312 Y23.6517
G01 X33.2127 Y23.6568
G01 X33.1318 Y23.6770
G01 X33.1132 Y23.6812
G01 X33.0943 Y23.6845
G01 X33.0118 Y23.6967
G01 X32.9929 Y23.6991
G01 X32.9738 Y23.7005
G01 X32.8905 Y23.7046
G01 X32.8714 Y23.7050
G01 X32.5618 Y23.7049
G01 X32.4594 Y23.6999
G01 X32.4309 Y23.6967
G01 X32.3484 Y23.6845
G01 X32.3296 Y23.6812
G01 X32.3109 Y23.6770
G01 X32.2208 Y23.6543
G01 X32.1935 Y23.6457
G01 X32.1149 Y23.6176
G01 X32.0971 Y23.6107
G01 X32.0796 Y23.6030
G01 X32.0042 Y23.5673
G01 X31.9871 Y23.5587
G01 X31.9705 Y23.5493
G01 X31.8990 Y23.5064
G01 X31.8828 Y23.4962
G01 X31.8672 Y23.4852
G01 X31.8002 Y23.4355
G01 X31.7851 Y23.4237
G01 X31.7745 Y23.4147
G01 X25.9547 Y23.4147
G01 X25.9547 Y23.8604
G01 X25.9744 Y23.8668
G01 X26.0122 Y23.8805
G01 X26.0386 Y23.8918
G01 X26.0663 Y23.9049
G01 X26.0834 Y23.9135
G01 X26.1000 Y23.9229
G01 X26.1345 Y23.9437
G01 X26.1581 Y23.9599
G01 X26.1827 Y23.9782
G01 X26.1978 Y23.9899
G01 X26.2123 Y24.0024
G01 X26.2420 Y24.0295
G01 X26.2620 Y24.0500
G01 X26.2826 Y24.0728
G01 X26.2951 Y24.0872
G01 X26.3068 Y24.1023
G01 X26.3307 Y24.1347
G01 X26.3463 Y24.1587
G01 X26.3669 Y24.1933
G01 X26.3759 Y24.2101
G01 X26.3932 Y24.2464
G01 X26.4010 Y24.2639
G01 X26.4079 Y24.2817
G01 X26.4182 Y24.3106
G01 X26.4268 Y24.3379
G01 X26.4367 Y24.3769
G01 X26.4409 Y24.3956
G01 X26.4442 Y24.4144
G01 X26.4487 Y24.4447
G01 X26.4510 Y24.4637
G01 X26.4524 Y24.4828
G01 X26.4539 Y24.5134
G01 X26.4544 Y24.5325
G01 X26.4543 Y25.9171
G01 X26.4524 Y25.9572
G01 X26.4510 Y25.9763
G01 X26.4487 Y25.9953
G01 X26.4442 Y26.0256
G01 X26.4409 Y26.0444
G01 X26.4367 Y26.0631
G01 X26.4293 Y26.0928
G01 X26.4242 Y26.1113
G01 X26.4182 Y26.1294
G01 X26.4079 Y26.1583
G01 X26.4010 Y26.1761
G01 X26.3932 Y26.1936
G01 X26.3759 Y26.2299
G01 X26.3669 Y26.2468
G01 X26.3463 Y26.2813
G01 X26.3361 Y26.2975
G01 X26.3251 Y26.3131
G01 X26.3068 Y26.3377
G01 X26.2951 Y26.3528
G01 X26.2826 Y26.3673
G01 X26.2620 Y26.3900
G01 X26.2488 Y26.4038
G01 X26.2350 Y26.4170
G01 X26.2051 Y26.4439
G01 X26.1903 Y26.4561
G01 X26.1581 Y26.4801
G01 X26.1425 Y26.4911
G01 X26.1263 Y26.5013
G01 X26.1000 Y26.5171
G01 X26.0834 Y26.5265
G01 X26.0663 Y26.5351
G01 X26.0386 Y26.5482
G01 X26.0211 Y26.5560
G01 X26.0033 Y26.5629
G01 X25.9744 Y26.5732
G01 X25.9563 Y26.5792
G01 X25.9378 Y26.5843
G01 X25.8988 Y26.5939
G01 X25.8706 Y26.5992
G01 X25.8403 Y26.6037
G01 X25.8213 Y26.6060
G01 X25.8022 Y26.6074
G01 X25.7716 Y26.6089
G01 X25.7525 Y26.6094
G01 X24.3775 Y26.6094
G01 X24.3584 Y26.6089
G01 X24.3182 Y26.6068
G01 X24.2897 Y26.6037
G01 X24.2594 Y26.5992
G01 X24.2406 Y26.5959
G01 X24.2219 Y26.5917
G01 X24.1829 Y26.5818
G01 X24.1556 Y26.5732
G01 X24.1178 Y26.5595
G01 X24.1001 Y26.5522
G01 X24.0637 Y26.5351
G01 X24.0466 Y26.5265
G01 X24.0300 Y26.5171
G01 X23.9956 Y26.4963
G01 X23.9719 Y26.4801
G01 X23.9397 Y26.4561
G01 X23.9249 Y26.4439
G01 X23.8950 Y26.4170
G01 X23.8812 Y26.4038
G01 X23.8680 Y26.3900
G01 X23.8411 Y26.3601
G01 X23.8290 Y26.3453
G01 X23.8049 Y26.3131
G01 X23.7887 Y26.2895
G01 X23.7679 Y26.2550
G01 X23.7585 Y26.2384
G01 X23.7499 Y26.2213
G01 X23.7328 Y26.1849
G01 X23.7222 Y26.1583
G01 X23.7087 Y26.1204
G01 X23.7032 Y26.1021
G01 X23.6933 Y26.0631
G01 X23.6891 Y26.0444
G01 X23.6858 Y26.0256
G01 X23.6808 Y25.9911
G01 X23.6692 Y26.0075
G01 X23.6108 Y26.0864
G01 X23.5990 Y26.1014
G01 X23.5865 Y26.1159
G01 X23.5206 Y26.1886
G01 X23.5075 Y26.2025
G01 X23.4936 Y26.2156
G01 X23.4209 Y26.2815
G01 X23.4064 Y26.2940
G01 X23.3914 Y26.3058
G01 X23.3125 Y26.3642
G01 X23.2969 Y26.3752
G01 X23.2808 Y26.3855
G01 X23.1966 Y26.4359
G01 X23.1800 Y26.4453
G01 X23.1629 Y26.4539
G01 X23.0742 Y26.4959
G01 X23.0567 Y26.5036
G01 X23.0389 Y26.5105
G01 X22.9465 Y26.5436
G01 X22.9283 Y26.5496
G01 X22.9099 Y26.5547
G01 X22.8147 Y26.5785
G01 X22.7961 Y26.5827
G01 X22.7772 Y26.5860
G01 X22.6802 Y26.6004
G01 X22.6612 Y26.6027
G01 X22.6421 Y26.6041
G01 X22.5441 Y26.6089
G01 X22.5250 Y26.6094
G01 X22.5059 Y26.6089
G01 X22.4079 Y26.6041
G01 X22.3888 Y26.6027
G01 X22.3699 Y26.6004
G01 X22.2634 Y26.5845
G01 X22.2353 Y26.5785
G01 X22.1401 Y26.5547
G01 X22.1217 Y26.5496
G01 X22.1035 Y26.5436
G01 X22.0111 Y26.5105
G01 X21.9933 Y26.5036
G01 X21.9758 Y26.4959
G01 X21.8871 Y26.4539
G01 X21.8701 Y26.4453
G01 X21.8534 Y26.4359
G01 X21.7693 Y26.3855
G01 X21.7531 Y26.3752
G01 X21.7375 Y26.3642
G01 X21.6511 Y26.3000
G01 X21.6291 Y26.2815
G01 X21.5564 Y26.2156
G01 X21.5426 Y26.2025
G01 X21.5294 Y26.1886
G01 X21.4635 Y26.1159
G01 X21.4450 Y26.0940
G01 X21.3808 Y26.0075
G01 X21.3698 Y25.9919
G01 X21.3596 Y25.9758
G01 X21.3091 Y25.8916
G01 X21.2997 Y25.8750
G01 X21.2911 Y25.8579
G01 X21.2550 Y25.7816
G01 X21.2189 Y25.8579
G01 X21.2103 Y25.8750
G01 X21.2009 Y25.8916
G01 X21.1505 Y25.9758
G01 X21.1348 Y25.9998
G01 X21.0708 Y26.0864
G01 X21.0590 Y26.1014
G01 X21.0465 Y26.1159
G01 X20.9741 Y26.1956
G01 X20.9536 Y26.2156
G01 X20.8809 Y26.2815
G01 X20.8664 Y26.2940
G01 X20.8514 Y26.3058
G01 X20.7725 Y26.3642
G01 X20.7569 Y26.3752
G01 X20.7408 Y26.3855
G01 X20.6566 Y26.4359
G01 X20.6400 Y26.4453
G01 X20.6229 Y26.4539
G01 X20.5342 Y26.4959
G01 X20.5167 Y26.5036
G01 X20.4989 Y26.5105
G01 X20.3974 Y26.5467
G01 X20.3699 Y26.5547
G01 X20.2747 Y26.5785
G01 X20.2561 Y26.5827
G01 X20.2372 Y26.5860
G01 X20.1402 Y26.6004
G01 X20.1212 Y26.6027
G01 X20.1021 Y26.6041
G01 X20.0041 Y26.6089
G01 X19.9850 Y26.6094
G01 X19.9659 Y26.6089
G01 X19.8679 Y26.6041
G01 X19.8488 Y26.6027
G01 X19.8299 Y26.6004
G01 X19.7328 Y26.5860
G01 X19.7140 Y26.5827
G01 X19.6953 Y26.5785
G01 X19.6001 Y26.5547
G01 X19.5817 Y26.5496
G01 X19.5635 Y26.5436
G01 X19.4711 Y26.5105
G01 X19.4533 Y26.5036
G01 X19.4358 Y26.4959
G01 X19.3471 Y26.4539
G01 X19.3217 Y26.4407
G01 X19.2293 Y26.3855
G01 X19.2131 Y26.3752
G01 X19.1975 Y26.3642
G01 X19.1187 Y26.3058
G01 X19.1036 Y26.2940
G01 X19.0891 Y26.2815
G01 X19.0164 Y26.2156
G01 X19.0026 Y26.2025
G01 X18.9894 Y26.1886
G01 X18.9235 Y26.1159
G01 X18.9110 Y26.1014
G01 X18.8992 Y26.0864
G01 X18.8408 Y26.0075
G01 X18.8246 Y25.9839
G01 X18.7691 Y25.8916
G01 X18.7597 Y25.8750
G01 X18.7511 Y25.8579
G01 X18.7091 Y25.7692
G01 X18.7014 Y25.7517
G01 X18.6945 Y25.7339
G01 X18.6614 Y25.6415
G01 X18.6554 Y25.6233
G01 X18.6504 Y25.6049
G01 X18.6265 Y25.5097
G01 X18.6223 Y25.4911
G01 X18.6191 Y25.4722
G01 X18.6047 Y25.3752
G01 X18.6023 Y25.3562
G01 X18.6009 Y25.3371
G01 X18.5961 Y25.2391
G01 X18.5957 Y25.2105
G01 X18.6009 Y25.1029
G01 X18.6023 Y25.0838
G01 X18.6047 Y25.0649
G01 X18.6191 Y24.9678
G01 X18.6223 Y24.9490
G01 X18.6265 Y24.9303
G01 X18.6528 Y24.8259
G01 X18.6614 Y24.7985
G01 X18.6945 Y24.7061
G01 X18.7014 Y24.6883
G01 X18.7091 Y24.6708
G01 X18.7511 Y24.5821
G01 X18.7597 Y24.5651
G01 X18.7691 Y24.5484
G01 X18.8196 Y24.4643
G01 X18.8298 Y24.4481
G01 X18.8408 Y24.4325
G01 X18.8992 Y24.3537
G01 X18.9110 Y24.3386
G01 X18.9235 Y24.3241
G01 X18.9894 Y24.2514
G01 X19.0026 Y24.2376
G01 X19.0164 Y24.2244
G01 X19.0891 Y24.1585
G01 X19.1036 Y24.1460
G01 X19.1187 Y24.1342
G01 X19.1975 Y24.0758
G01 X19.2131 Y24.0648
G01 X19.2293 Y24.0546
G01 X19.3134 Y24.0041
G01 X19.3301 Y23.9947
G01 X19.3471 Y23.9861
G01 X19.4358 Y23.9441
G01 X19.4533 Y23.9364
G01 X19.4711 Y23.9295
G01 X19.5635 Y23.8964
G01 X19.5817 Y23.8904
G01 X19.6001 Y23.8854
G01 X19.6953 Y23.8615
G01 X19.7129 Y23.8576
G01 X19.6934 Y23.8505
G01 X19.6758 Y23.8432
G01 X19.6227 Y23.8182
G01 X19.5973 Y23.8050
G01 X19.5469 Y23.7749
G01 X19.5308 Y23.7647
G01 X19.5151 Y23.7537
G01 X19.4757 Y23.7245
G01 X19.4533 Y23.7066
G01 X19.4098 Y23.6673
G01 X19.3959 Y23.6541
G01 X18.8959 Y23.1541
G01 X18.8828 Y23.1402
G01 X18.8498 Y23.1039
G01 X18.8373 Y23.0894
G01 X18.8256 Y23.0743
G01 X18.7963 Y23.0349
G01 X18.7853 Y23.0193
G01 X18.7751 Y23.0031
G01 X18.7498 Y22.9610
G01 X18.7360 Y22.9359
G01 X18.7108 Y22.8829
G01 X18.7031 Y22.8655
G01 X18.6962 Y22.8476
G01 X18.6797 Y22.8014
G01 X18.6737 Y22.7833
G01 X18.6686 Y22.7648
G01 X18.6567 Y22.7172
G01 X18.6525 Y22.6986
G01 X18.6492 Y22.6797
G01 X18.6420 Y22.6312
G01 X18.6397 Y22.6122
G01 X18.6383 Y22.5932
G01 X18.6358 Y22.5441
G00 Z2.0000
G00 X18.4837 Y22.5516
G01 F60.00
G01 Z-0.0600
G01 F60.00
G01 X18.4830 Y22.5250
G01 X18.4830 Y22.1478
G01 X18.4713 Y22.1406
G01 X18.4492 Y22.1258
G01 X18.4081 Y22.0954
G01 X18.3876 Y22.0785
G01 X18.3497 Y22.0442
G01 X18.3309 Y22.0254
G01 X18.2965 Y21.9875
G01 X18.2797 Y21.9669
G01 X18.2492 Y21.9259
G01 X18.2344 Y21.9037
G01 X18.2275 Y21.8924
G01 X18.2082 Y21.8599
G01 X18.2017 Y21.8482
G01 X18.1956 Y21.8364
G01 X18.1793 Y21.8023
G01 X18.1685 Y21.7780
G01 X18.1590 Y21.7532
G01 X18.1464 Y21.7175
G01 X18.1423 Y21.7048
G01 X18.1386 Y21.6921
G01 X18.1293 Y21.6554
G01 X18.1235 Y21.6295
G01 X18.1189 Y21.6033
G01 X18.1135 Y21.5658
G01 X18.1121 Y21.5526
G01 X18.1101 Y21.5261
G01 X18.1084 Y21.4883
G01 X18.1083 Y20.6750
G01 X18.1089 Y20.6484
G01 X18.1109 Y20.6107
G01 X18.1135 Y20.5842
G01 X18.1189 Y20.5467
G01 X18.1235 Y20.5205
G01 X18.1262 Y20.5075
G01 X18.1353 Y20.4708
G01 X18.1423 Y20.4452
G01 X18.1507 Y20.4199
G01 X18.1636 Y20.3844
G01 X18.1738 Y20.3598
G01 X18.1793 Y20.3477
G01 X18.1956 Y20.3136
G01 X18.2082 Y20.2901
G01 X18.2275 Y20.2576
G01 X18.2417 Y20.2351
G01 X18.2570 Y20.2134
G01 X18.2797 Y20.1831
G01 X18.2965 Y20.1626
G01 X18.3218 Y20.1344
G01 X18.3402 Y20.1152
G01 X18.3497 Y20.1059
G01 X18.3776 Y20.0803
G01 X18.3977 Y20.0630
G01 X18.4187 Y20.0466
G01 X18.4492 Y20.0242
G01 X18.4601 Y20.0167
G01 X18.4826 Y20.0025
G01 X18.5151 Y19.9832
G01 X18.5386 Y19.9706
G01 X18.5727 Y19.9543
G01 X18.5970 Y19.9435
G01 X18.6218 Y19.9340
G01 X18.6575 Y19.9214
G01 X18.6829 Y19.9136
G01 X18.6958 Y19.9103
G01 X18.7325 Y19.9012
G01 X18.7586 Y19.8960
G01 X18.7960 Y19.8903
G01 X18.8224 Y19.8871
G01 X18.8489 Y19.8851
G01 X18.8867 Y19.8834
G01 X20.1500 Y19.8833
G01 X20.1766 Y19.8839
G01 X20.2144 Y19.8859
G01 X20.2408 Y19.8885
G01 X20.2783 Y19.8939
G01 X20.2914 Y19.8960
G01 X20.3175 Y19.9012
G01 X20.3542 Y19.9103
G01 X20.3798 Y19.9173
G01 X20.4051 Y19.9257
G01 X20.4407 Y19.9386
G01 X20.4652 Y19.9488
G01 X20.4995 Y19.9648
G01 X20.5114 Y19.9706
G01 X20.5349 Y19.9832
G01 X20.5674 Y20.0025
G01 X20.5899 Y20.0167
G01 X20.6116 Y20.0320
G01 X20.6419 Y20.0547
G01 X20.6523 Y20.0630
G01 X20.6724 Y20.0803
G01 X20.7004 Y20.1059
G01 X20.7099 Y20.1152
G01 X20.7192 Y20.1247
G01 X20.7447 Y20.1526
G01 X20.7621 Y20.1727
G01 X20.7784 Y20.1937
G01 X20.8008 Y20.2242
G01 X20.8083 Y20.2351
G01 X20.8156 Y20.2463
G01 X20.8352 Y20.2786
G01 X20.8483 Y20.3018
G01 X20.8544 Y20.3136
G01 X20.8707 Y20.3477
G01 X20.8815 Y20.3720
G01 X20.8864 Y20.3844
G01 X20.8993 Y20.4199
G01 X20.9077 Y20.4452
G01 X20.9114 Y20.4579
G01 X20.9238 Y20.5075
G01 X20.9290 Y20.5336
G01 X20.9365 Y20.5842
G01 X20.9380 Y20.5974
G01 X20.9399 Y20.6239
G01 X20.9416 Y20.6617
G01 X20.9418 Y20.6750
G01 X20.9418 Y21.4750
G01 X20.9416 Y21.4883
G01 X20.9399 Y21.5261
G01 X20.9380 Y21.5526
G01 X20.9365 Y21.5658
G01 X20.9311 Y21.6033
G01 X20.9266 Y21.6295
G01 X20.9207 Y21.6554
G01 X20.9114 Y21.6921
G01 X20.9037 Y21.7175
G01 X20.8911 Y21.7532
G01 X20.8864 Y21.7657
G01 X20.8763 Y21.7902
G01 X20.8602 Y21.8245
G01 X20.8483 Y21.8482
G01 X20.8352 Y21.8714
G01 X20.8156 Y21.9037
G01 X20.8008 Y21.9259
G01 X20.7930 Y21.9366
G01 X20.7704 Y21.9669
G01 X20.7573 Y21.9830
G01 X21.2928 Y21.9830
G01 X21.2797 Y21.9669
G01 X21.2570 Y21.9366
G01 X21.2417 Y21.9149
G01 X21.2344 Y21.9037
G01 X21.2148 Y21.8714
G01 X21.2017 Y21.8482
G01 X21.1898 Y21.8245
G01 X21.1738 Y21.7902
G01 X21.1685 Y21.7780
G01 X21.1590 Y21.7532
G01 X21.1464 Y21.7175
G01 X21.1386 Y21.6921
G01 X21.1293 Y21.6554
G01 X21.1235 Y21.6295
G01 X21.1189 Y21.6033
G01 X21.1135 Y21.5658
G01 X21.1121 Y21.5526
G01 X21.1101 Y21.5261
G01 X21.1084 Y21.4883
G01 X21.1083 Y21.4750
G01 X21.1083 Y20.6750
G01 X21.1089 Y20.6484
G01 X21.1109 Y20.6107
G01 X21.1135 Y20.5842
G01 X21.1189 Y20.5467
G01 X21.1235 Y20.5205
G01 X21.1262 Y20.5075
G01 X21.1353 Y20.4708
G01 X21.1423 Y20.4452
G01 X21.1464 Y20.4325
G01 X21.1590 Y20.3968
G01 X21.1636 Y20.3844
G01 X21.1738 Y20.3598
G01 X21.1898 Y20.3255
G01 X21.2017 Y20.3018
G01 X21.2082 Y20.2901
G01 X21.2275 Y20.2576
G01 X21.2344 Y20.2463
G01 X21.2492 Y20.2242
G01 X21.2716 Y20.1937
G01 X21.2880 Y20.1727
G01 X21.2965 Y20.1626
G01 X21.3218 Y20.1344
G01 X21.3402 Y20.1152
G01 X21.3497 Y20.1059
G01 X21.3776 Y20.0803
G01 X21.3977 Y20.0630
G01 X21.4081 Y20.0547
G01 X21.4384 Y20.0320
G01 X21.4601 Y20.0167
G01 X21.4713 Y20.0094
G01 X21.5036 Y19.9898
G01 X21.5268 Y19.9767
G01 X21.5386 Y19.9706
G01 X21.5727 Y19.9543
G01 X21.5848 Y19.9488
G01 X21.6094 Y19.9386
G01 X21.6449 Y19.9257
G01 X21.6702 Y19.9173
G01 X21.6958 Y19.9103
G01 X21.7325 Y19.9012
G01 X21.7455 Y19.8985
G01 X21.7717 Y19.8939
G01 X21.8092 Y19.8885
G01 X21.8224 Y19.8871
G01 X21.8489 Y19.8851
G01 X21.8867 Y19.8834
G01 X23.1500 Y19.8833
G01 X23.1633 Y19.8834
G01 X23.1918 Y19.8846
G01 X23.2977 Y19.7789
G01 X23.3538 Y19.7281
G01 X23.3743 Y19.7112
G01 X23.3849 Y19.7032
G01 X23.4244 Y19.6739
G01 X23.4461 Y19.6586
G01 X23.4686 Y19.6444
G01 X23.5107 Y19.6191
G01 X23.5222 Y19.6125
G01 X23.5456 Y19.5999
G01 X23.6019 Y19.5731
G01 X23.6263 Y19.5623
G01 X23.6511 Y19.5528
G01 X23.6973 Y19.5362
G01 X23.7099 Y19.5319
G01 X23.7353 Y19.5242
G01 X23.8087 Y19.5058
G01 X23.8217 Y19.5030
G01 X23.8479 Y19.4985
G01 X23.9097 Y19.4895
G01 X23.9229 Y19.4880
G01 X23.9494 Y19.4861
G01 X24.0117 Y19.4832
G01 X24.1497 Y19.4830
G01 X24.1626 Y19.4715
G01 X24.1831 Y19.4547
G01 X24.2242 Y19.4242
G01 X24.2463 Y19.4094
G01 X24.2786 Y19.3898
G01 X24.3018 Y19.3767
G01 X24.3255 Y19.3648
G01 X24.3598 Y19.3488
G01 X24.3720 Y19.3435
G01 X24.3968 Y19.3340
G01 X24.4325 Y19.3214
G01 X24.4579 Y19.3136
G01 X24.4946 Y19.3043
G01 X24.5205 Y19.2985
G01 X24.5467 Y19.2939
G01 X24.5842 Y19.2885
G01 X24.6107 Y19.2859
G01 X24.6484 Y19.2839
G01 X24.6750 Y19.2833
G01 X25.3383 Y19.2834
G01 X25.3761 Y19.2851
G01 X25.4026 Y19.2871
G01 X25.4158 Y19.2885
G01 X25.4533 Y19.2939
G01 X25.4795 Y19.2985
G01 X25.4925 Y19.3012
G01 X25.5292 Y19.3103
G01 X25.5548 Y19.3173
G01 X25.5801 Y19.3257
G01 X25.6157 Y19.3386
G01 X25.6280 Y19.3435
G01 X25.6402 Y19.3488
G01 X25.6745 Y19.3648
G01 X25.6982 Y19.3767
G01 X25.7099 Y19.3832
G01 X25.7424 Y19.4025
G01 X25.7649 Y19.4167
G01 X25.7866 Y19.4320
G01 X25.8169 Y19.4547
G01 X25.8273 Y19.4630
G01 X25.8375 Y19.4715
G01 X25.8656 Y19.4968
G01 X25.8849 Y19.5152
G01 X25.9032 Y19.5344
G01 X25.9285 Y19.5626
G01 X25.9371 Y19.5727
G01 X25.9534 Y19.5937
G01 X25.9758 Y19.6242
G01 X25.9833 Y19.6351
G01 X25.9906 Y19.6463
G01 X26.0102 Y19.6786
G01 X26.0250 Y19.7051
G01 X26.0332 Y19.6901
G01 X26.0525 Y19.6576
G01 X26.0594 Y19.6463
G01 X26.0742 Y19.6242
G01 X26.1047 Y19.5831
G01 X26.1215 Y19.5626
G01 X26.1303 Y19.5526
G01 X26.1559 Y19.5247
G01 X26.1652 Y19.5152
G01 X26.1844 Y19.4968
G01 X26.2126 Y19.4715
G01 X26.2331 Y19.4547
G01 X26.2437 Y19.4466
G01 X26.2742 Y19.4242
G01 X26.2851 Y19.4167
G01 X26.2963 Y19.4094
G01 X26.3286 Y19.3898
G01 X26.3518 Y19.3767
G01 X26.3636 Y19.3706
G01 X26.4098 Y19.3488
G01 X26.4344 Y19.3386
G01 X26.4468 Y19.3340
G01 X26.4825 Y19.3214
G01 X26.4952 Y19.3173
G01 X26.5079 Y19.3136
G01 X26.5446 Y19.3043
G01 X26.5575 Y19.3012
G01 X26.5836 Y19.2960
G01 X26.6342 Y19.2885
G01 X26.6474 Y19.2871
G01 X26.6739 Y19.2851
G01 X26.7117 Y19.2834
G01 X26.7250 Y19.2833
G01 X27.3750 Y19.2833
G01 X27.4016 Y19.2839
G01 X27.4394 Y19.2859
G01 X27.4526 Y19.2871
G01 X27.4790 Y19.2903
G01 X27.5164 Y19.2960
G01 X27.5295 Y19.2985
G01 X27.5554 Y19.3043
G01 X27.5921 Y19.3136
G01 X27.6048 Y19.3173
G01 X27.6301 Y19.3257
G01 X27.6657 Y19.3386
G01 X27.6902 Y19.3488
G01 X27.7245 Y19.3648
G01 X27.7482 Y19.3767
G01 X27.7714 Y19.3898
G01 X27.8037 Y19.4094
G01 X27.8259 Y19.4242
G01 X27.8669 Y19.4547
G01 X27.8875 Y19.4715
G01 X27.9004 Y19.4830
G01 X28.0094 Y19.4830
G01 X27.5434 Y19.0170
G01 X23.6130 Y19.0170
G01 X23.5899 Y19.0333
G01 X23.5674 Y19.0476
G01 X23.5349 Y19.0669
G01 X23.5114 Y19.0794
G01 X23.4773 Y19.0957
G01 X23.4530 Y19.1065
G01 X23.4282 Y19.1161
G01 X23.3925 Y19.1287
G01 X23.3671 Y19.1364
G01 X23.3304 Y19.1457
G01 X23.3045 Y19.1516
G01 X23.2783 Y19.1561
G01 X23.2408 Y19.1615
G01 X23.2144 Y19.1641
G01 X23.1766 Y19.1661
G01 X23.1500 Y19.1668
G01 X21.9000 Y19.1668
G01 X21.8867 Y19.1666
G01 X21.8489 Y19.1649
G01 X21.8224 Y19.1630
G01 X21.7960 Y19.1597
G01 X21.7586 Y19.1540
G01 X21.7325 Y19.1488
G01 X21.6958 Y19.1398
G01 X21.6702 Y19.1327
G01 X21.6575 Y19.1287
G01 X21.6218 Y19.1161
G01 X21.5970 Y19.1065
G01 X21.5848 Y19.1013
G01 X21.5505 Y19.0852
G01 X21.5268 Y19.0733
G01 X21.5036 Y19.0602
G01 X21.4713 Y19.0406
G01 X21.4492 Y19.0258
G01 X21.4370 Y19.0170
G01 X20.6130 Y19.0170
G01 X20.6009 Y19.0258
G01 X20.5787 Y19.0406
G01 X20.5464 Y19.0602
G01 X20.5232 Y19.0733
G01 X20.4995 Y19.0852
G01 X20.4652 Y19.1013
G01 X20.4407 Y19.1114
G01 X20.4282 Y19.1161
G01 X20.3925 Y19.1287
G01 X20.3798 Y19.1327
G01 X20.3542 Y19.1398
G01 X20.3175 Y19.1488
G01 X20.3045 Y19.1516
G01 X20.2783 Y19.1561
G01 X20.2408 Y19.1615
G01 X20.2144 Y19.1641
G01 X20.1766 Y19.1661
G01 X20.1500 Y19.1668
G01 X18.8867 Y19.1666
G01 X18.8357 Y19.1641
G01 X18.8092 Y19.1615
G01 X18.7960 Y19.1597
G01 X18.7586 Y19.1540
G01 X18.7455 Y19.1516
G01 X18.7196 Y19.1457
G01 X18.6829 Y19.1364
G01 X18.6575 Y19.1287
G01 X18.6449 Y19.1243
G01 X18.6094 Y19.1114
G01 X18.5970 Y19.1065
G01 X18.5848 Y19.1013
G01 X18.5505 Y19.0852
G01 X18.5386 Y19.0794
G01 X18.5151 Y19.0669
G01 X18.4713 Y19.0406
G01 X18.4601 Y19.0333
G01 X18.4384 Y19.0180
G01 X18.4081 Y18.9954
G01 X18.3977 Y18.9871
G01 X18.3876 Y18.9785
G01 X18.3594 Y18.9532
G01 X18.3497 Y18.9442
G01 X18.3309 Y18.9254
G01 X18.2965 Y18.8875
G01 X18.2880 Y18.8773
G01 X18.2716 Y18.8563
G01 X18.2492 Y18.8259
G01 X18.2417 Y18.8149
G01 X18.2344 Y18.8037
G01 X18.2148 Y18.7714
G01 X18.2017 Y18.7482
G01 X18.1956 Y18.7364
G01 X18.1738 Y18.6902
G01 X18.1685 Y18.6780
G01 X18.1590 Y18.6532
G01 X18.1464 Y18.6175
G01 X18.1386 Y18.5921
G01 X18.1293 Y18.5554
G01 X18.1235 Y18.5295
G01 X18.1189 Y18.5033
G01 X18.1135 Y18.4658
G01 X18.1109 Y18.4394
G01 X18.1089 Y18.4016
G01 X18.1083 Y18.3750
G01 X18.1084 Y17.5617
G01 X18.1101 Y17.5239
G01 X18.1121 Y17.4974
G01 X18.1135 Y17.4842
G01 X18.1189 Y17.4467
G01 X18.1235 Y17.4205
G01 X18.1293 Y17.3946
G01 X18.1386 Y17.3579
G01 X18.1464 Y17.3325
G01 X18.1590 Y17.2968
G01 X18.1685 Y17.2720
G01 X18.1793 Y17.2477
G01 X18.1956 Y17.2136
G01 X18.2082 Y17.1901
G01 X18.2275 Y17.1576
G01 X18.2417 Y17.1351
G01 X18.2570 Y17.1134
G01 X18.2797 Y17.0831
G01 X18.2880 Y17.0727
G01 X18.2965 Y17.0626
G01 X18.3218 Y17.0344
G01 X18.3402 Y17.0152
G01 X18.3594 Y16.9968
G01 X18.3876 Y16.9715
G01 X18.4081 Y16.9547
G01 X18.4384 Y16.9320
G01 X18.4601 Y16.9167
G01 X18.4826 Y16.9025
G01 X18.5151 Y16.8832
G01 X18.5386 Y16.8706
G01 X18.5727 Y16.8543
G01 X18.5970 Y16.8435
G01 X18.6218 Y16.8340
G01 X18.6575 Y16.8214
G01 X18.6702 Y16.8173
G01 X18.6958 Y16.8103
G01 X18.7325 Y16.8012
G01 X18.7455 Y16.7985
G01 X18.7717 Y16.7939
G01 X18.8092 Y16.7885
G01 X18.8224 Y16.7871
G01 X18.8357 Y16.7859
G01 X18.8734 Y16.7839
G01 X18.9000 Y16.7833
G01 X20.1500 Y16.7833
G01 X20.1766 Y16.7839
G01 X20.2144 Y16.7859
G01 X20.2408 Y16.7885
G01 X20.2783 Y16.7939
G01 X20.2914 Y16.7960
G01 X20.3175 Y16.8012
G01 X20.3542 Y16.8103
G01 X20.3798 Y16.8173
G01 X20.3925 Y16.8214
G01 X20.4282 Y16.8340
G01 X20.4530 Y16.8435
G01 X20.4652 Y16.8488
G01 X20.4995 Y16.8648
G01 X20.5232 Y16.8767
G01 X20.5464 Y16.8898
G01 X20.5787 Y16.9094
G01 X20.6009 Y16.9242
G01 X20.6130 Y16.9330
G01 X21.4370 Y16.9330
G01 X21.4492 Y16.9242
G01 X21.4713 Y16.9094
G01 X21.5036 Y16.8898
G01 X21.5268 Y16.8767
G01 X21.5505 Y16.8648
G01 X21.5848 Y16.8488
G01 X21.6094 Y16.8386
G01 X21.6218 Y16.8340
G01 X21.6575 Y16.8214
G01 X21.6702 Y16.8173
G01 X21.6958 Y16.8103
G01 X21.7325 Y16.8012
G01 X21.7586 Y16.7960
G01 X21.7960 Y16.7903
G01 X21.8224 Y16.7871
G01 X21.8489 Y16.7851
G01 X21.8867 Y16.7834
G01 X21.9000 Y16.7833
G01 X23.1500 Y16.7833
G01 X23.1766 Y16.7839
G01 X23.2144 Y16.7859
G01 X23.2408 Y16.7885
G01 X23.2783 Y16.7939
G01 X23.3045 Y16.7985
G01 X23.3304 Y16.8043
G01 X23.3671 Y16.8136
G01 X23.3925 Y16.8214
G01 X23.4282 Y16.8340
G01 X23.4530 Y16.8435
G01 X23.4773 Y16.8543
G01 X23.5114 Y16.8706
G01 X23.5349 Y16.8832
G01 X23.5674 Y16.9025
G01 X23.5899 Y16.9167
G01 X23.6130 Y16.9330
G01 X27.9750 Y16.9330
G01 X28.0016 Y16.9337
G01 X28.0506 Y16.9361
G01 X28.0771 Y16.9380
G01 X28.1035 Y16.9413
G01 X28.1521 Y16.9485
G01 X28.1652 Y16.9506
G01 X28.1913 Y16.9558
G01 X28.2519 Y16.9708
G01 X28.2775 Y16.9779
G01 X28.3027 Y16.9862
G01 X28.3614 Y17.0074
G01 X28.3860 Y17.0176
G01 X28.3981 Y17.0231
G01 X28.4425 Y17.0441
G01 X28.4662 Y17.0560
G01 X28.4893 Y17.0691
G01 X28.5428 Y17.1014
G01 X28.5539 Y17.1086
G01 X28.5757 Y17.1239
G01 X28.6257 Y17.1612
G01 X28.6462 Y17.1781
G01 X28.6926 Y17.2199
G01 X28.7118 Y17.2382
G01 X30.4099 Y18.9363
G01 X31.3062 Y18.9363
G01 X31.3206 Y18.9148
G01 X31.3284 Y18.9040
G01 X31.3510 Y18.8738
G01 X31.3593 Y18.8634
G01 X31.3679 Y18.8532
G01 X31.3932 Y18.8251
G01 X31.4115 Y18.8058
G01 X31.4308 Y18.7875
G01 X31.4589 Y18.7622
G01 X31.4691 Y18.7536
G01 X31.4795 Y18.7453
G01 X31.5098 Y18.7226
G01 X31.5205 Y18.7149
G01 X31.5426 Y18.7001
G01 X31.5865 Y18.6738
G01 X31.6099 Y18.6613
G01 X31.6562 Y18.6394
G01 X31.6684 Y18.6342
G01 X31.6932 Y18.6246
G01 X31.7289 Y18.6120
G01 X31.7415 Y18.6080
G01 X31.7543 Y18.6043
G01 X31.7910 Y18.5949
G01 X31.8039 Y18.5919
G01 X31.8300 Y18.5867
G01 X31.8806 Y18.5792
G01 X31.8938 Y18.5777
G01 X31.9203 Y18.5758
G01 X31.9581 Y18.5741
G01 X31.9714 Y18.5739
G01 X33.4714 Y18.5739
G01 X33.4980 Y18.5746
G01 X33.5357 Y18.5766
G01 X33.5622 Y18.5792
G01 X33.5996 Y18.5846
G01 X33.6258 Y18.5891
G01 X33.6518 Y18.5949
G01 X33.6884 Y18.6043
G01 X33.7139 Y18.6120
G01 X33.7496 Y18.6246
G01 X33.7744 Y18.6342
G01 X33.7987 Y18.6449
G01 X33.8328 Y18.6613
G01 X33.8563 Y18.6738
G01 X33.8888 Y18.6931
G01 X33.9113 Y18.7073
G01 X33.9330 Y18.7226
G01 X33.9633 Y18.7453
G01 X33.9838 Y18.7622
G01 X34.0120 Y18.7875
G01 X34.0312 Y18.8058
G01 X34.0496 Y18.8251
G01 X34.0749 Y18.8532
G01 X34.0917 Y18.8738
G01 X34.1144 Y18.9040
G01 X34.1297 Y18.9258
G01 X34.1439 Y18.9482
G01 X34.1632 Y18.9808
G01 X34.1758 Y19.0042
G01 X34.1921 Y19.0384
G01 X34.2029 Y19.0627
G01 X34.2124 Y19.0875
G01 X34.2250 Y19.1231
G01 X34.2290 Y19.1358
G01 X34.2361 Y19.1615
G01 X34.2452 Y19.1982
G01 X34.2504 Y19.2243
G01 X34.2579 Y19.2748
G01 X34.2605 Y19.3013
G01 X34.2630 Y19.3524
G01 X34.2631 Y20.5657
G01 X34.2625 Y20.5922
G01 X34.2605 Y20.6300
G01 X34.2579 Y20.6565
G01 X34.2561 Y20.6697
G01 X34.2504 Y20.7071
G01 X34.2479 Y20.7201
G01 X34.2421 Y20.7461
G01 X34.2327 Y20.7827
G01 X34.2250 Y20.8082
G01 X34.2207 Y20.8207
G01 X34.2078 Y20.8563
G01 X34.2029 Y20.8687
G01 X34.1921 Y20.8930
G01 X34.1758 Y20.9271
G01 X34.1632 Y20.9505
G01 X34.1565 Y20.9620
G01 X34.1369 Y20.9944
G01 X34.1297 Y21.0055
G01 X34.1144 Y21.0273
G01 X34.0917 Y21.0576
G01 X34.0749 Y21.0781
G01 X34.0660 Y21.0881
G01 X34.0405 Y21.1160
G01 X34.0312 Y21.1255
G01 X34.0120 Y21.1439
G01 X33.9838 Y21.1691
G01 X33.9737 Y21.1777
G01 X33.9527 Y21.1941
G01 X33.9222 Y21.2165
G01 X33.9113 Y21.2240
G01 X33.8888 Y21.2382
G01 X33.8563 Y21.2575
G01 X33.8446 Y21.2639
G01 X33.8209 Y21.2759
G01 X33.7866 Y21.2919
G01 X33.7744 Y21.2972
G01 X33.7496 Y21.3067
G01 X33.7139 Y21.3193
G01 X33.6884 Y21.3270
G01 X33.6754 Y21.3305
G01 X33.7333 Y21.3735
G01 X33.7543 Y21.3898
G01 X33.7744 Y21.4072
G01 X33.8362 Y21.4632
G01 X33.8555 Y21.4815
G01 X33.8648 Y21.4911
G01 X33.9299 Y21.5626
G01 X33.9387 Y21.5726
G01 X33.9555 Y21.5931
G01 X34.0211 Y21.6815
G01 X34.0286 Y21.6924
G01 X34.0428 Y21.7149
G01 X34.0924 Y21.7979
G01 X34.1049 Y21.8214
G01 X34.1108 Y21.8333
G01 X34.1464 Y21.9087
G01 X34.1572 Y21.9331
G01 X34.1668 Y21.9579
G01 X34.1949 Y22.0364
G01 X34.2032 Y22.0617
G01 X34.2103 Y22.0873
G01 X34.2306 Y22.1682
G01 X34.2364 Y22.1941
G01 X34.2409 Y22.2203
G01 X34.2532 Y22.3029
G01 X34.2564 Y22.3292
G01 X34.2576 Y22.3425
G01 X34.2625 Y22.4391
G01 X34.2631 Y22.4657
G01 X34.2630 Y22.4790
G01 X34.2576 Y22.5888
G01 X34.2550 Y22.6153
G01 X34.2532 Y22.6285
G01 X34.2409 Y22.7110
G01 X34.2364 Y22.7372
G01 X34.2306 Y22.7631
G01 X34.2103 Y22.8440
G01 X34.2032 Y22.8697
G01 X34.1992 Y22.8823
G01 X34.1621 Y22.9859
G01 X34.1572 Y22.9983
G01 X34.1464 Y23.0226
G01 X34.1108 Y23.0980
G01 X34.0988 Y23.1217
G01 X34.0857 Y23.1449
G01 X34.0428 Y23.2164
G01 X34.0286 Y23.2389
G01 X34.0133 Y23.2606
G01 X33.9636 Y23.3276
G01 X33.9472 Y23.3486
G01 X33.9299 Y23.3687
G01 X33.8738 Y23.4305
G01 X33.8555 Y23.4498
G01 X33.8362 Y23.4681
G01 X33.7744 Y23.5241
G01 X33.7543 Y23.5415
G01 X33.7333 Y23.5579
G01 X33.6663 Y23.6076
G01 X33.6446 Y23.6229
G01 X33.6221 Y23.6371
G01 X33.5506 Y23.6800
G01 X33.5274 Y23.6931
G01 X33.5037 Y23.7050
G01 X33.4283 Y23.7407
G01 X33.4040 Y23.7515
G01 X33.3792 Y23.7610
G01 X33.3006 Y23.7891
G01 X33.2754 Y23.7975
G01 X33.2498 Y23.8046
G01 X33.1688 Y23.8249
G01 X33.1429 Y23.8307
G01 X33.1167 Y23.8352
G01 X33.0342 Y23.8475
G01 X33.0078 Y23.8507
G01 X32.9813 Y23.8527
G01 X32.8847 Y23.8573
G01 X32.5714 Y23.8574
G01 X32.5448 Y23.8568
G01 X32.4615 Y23.8527
G01 X32.4350 Y23.8507
G01 X32.4217 Y23.8493
G01 X32.3261 Y23.8352
G01 X32.2999 Y23.8307
G01 X32.2739 Y23.8249
G01 X32.1930 Y23.8046
G01 X32.1674 Y23.7975
G01 X32.1547 Y23.7935
G01 X32.0511 Y23.7564
G01 X32.0388 Y23.7515
G01 X32.0145 Y23.7407
G01 X31.9271 Y23.6992
G01 X31.9037 Y23.6867
G01 X31.8922 Y23.6800
G01 X31.8206 Y23.6371
G01 X31.7982 Y23.6229
G01 X31.7764 Y23.6076
G01 X31.7218 Y23.5670
G01 X26.1070 Y23.5670
G01 X26.1070 Y23.7556
G01 X26.1315 Y23.7672
G01 X26.1552 Y23.7791
G01 X26.1783 Y23.7922
G01 X26.2046 Y23.8080
G01 X26.2160 Y23.8150
G01 X26.2381 Y23.8297
G01 X26.2841 Y23.8639
G01 X26.2944 Y23.8722
G01 X26.3146 Y23.8895
G01 X26.3373 Y23.9101
G01 X26.3566 Y23.9285
G01 X26.3749 Y23.9477
G01 X26.3955 Y23.9704
G01 X26.4129 Y23.9906
G01 X26.4212 Y24.0010
G01 X26.4553 Y24.0469
G01 X26.4701 Y24.0691
G01 X26.4770 Y24.0804
G01 X26.4928 Y24.1067
G01 X26.5059 Y24.1298
G01 X26.5179 Y24.1536
G01 X26.5310 Y24.1813
G01 X26.5365 Y24.1934
G01 X26.5467 Y24.2179
G01 X26.5660 Y24.2719
G01 X26.5700 Y24.2845
G01 X26.5771 Y24.3102
G01 X26.5845 Y24.3399
G01 X26.5904 Y24.3659
G01 X26.5949 Y24.3921
G01 X26.5994 Y24.4224
G01 X26.6027 Y24.4488
G01 X26.6046 Y24.4753
G01 X26.6061 Y24.5059
G01 X26.6068 Y24.5325
G01 X26.6068 Y25.9075
G01 X26.6061 Y25.9341
G01 X26.6046 Y25.9647
G01 X26.6027 Y25.9912
G01 X26.5994 Y26.0176
G01 X26.5928 Y26.0611
G01 X26.5876 Y26.0872
G01 X26.5771 Y26.1299
G01 X26.5700 Y26.1555
G01 X26.5616 Y26.1807
G01 X26.5513 Y26.2096
G01 X26.5417 Y26.2344
G01 X26.5310 Y26.2587
G01 X26.5120 Y26.2984
G01 X26.4995 Y26.3219
G01 X26.4770 Y26.3596
G01 X26.4628 Y26.3821
G01 X26.4475 Y26.4039
G01 X26.4212 Y26.4391
G01 X26.4043 Y26.4596
G01 X26.3749 Y26.4923
G01 X26.3566 Y26.5116
G01 X26.3373 Y26.5299
G01 X26.3046 Y26.5593
G01 X26.2841 Y26.5762
G01 X26.2489 Y26.6025
G01 X26.2271 Y26.6178
G01 X26.2046 Y26.6320
G01 X26.1669 Y26.6545
G01 X26.1434 Y26.6670
G01 X26.1037 Y26.6860
G01 X26.0794 Y26.6967
G01 X26.0546 Y26.7063
G01 X26.0257 Y26.7166
G01 X26.0005 Y26.7250
G01 X25.9749 Y26.7321
G01 X25.9322 Y26.7426
G01 X25.9192 Y26.7454
G01 X25.8930 Y26.7499
G01 X25.8626 Y26.7544
G01 X25.8362 Y26.7577
G01 X25.8097 Y26.7596
G01 X25.7791 Y26.7611
G01 X25.7525 Y26.7618
G01 X24.3775 Y26.7618
G01 X24.3509 Y26.7611
G01 X24.3203 Y26.7596
G01 X24.2938 Y26.7577
G01 X24.2674 Y26.7544
G01 X24.2371 Y26.7499
G01 X24.2109 Y26.7454
G01 X24.1849 Y26.7395
G01 X24.1552 Y26.7321
G01 X24.1295 Y26.7250
G01 X24.1043 Y26.7166
G01 X24.0754 Y26.7063
G01 X24.0506 Y26.6967
G01 X24.0384 Y26.6915
G01 X23.9866 Y26.6670
G01 X23.9632 Y26.6545
G01 X23.9517 Y26.6478
G01 X23.9254 Y26.6320
G01 X23.9029 Y26.6178
G01 X23.8812 Y26.6025
G01 X23.8565 Y26.5842
G01 X23.8356 Y26.5679
G01 X23.8254 Y26.5593
G01 X23.7830 Y26.5209
G01 X23.7735 Y26.5116
G01 X23.7551 Y26.4923
G01 X23.7345 Y26.4696
G01 X23.7172 Y26.4494
G01 X23.7008 Y26.4285
G01 X23.6825 Y26.4039
G01 X23.6672 Y26.3821
G01 X23.6530 Y26.3596
G01 X23.6372 Y26.3333
G01 X23.6305 Y26.3219
G01 X23.6210 Y26.3042
G01 X23.6057 Y26.3195
G01 X23.5959 Y26.3285
G01 X23.5232 Y26.3944
G01 X23.5031 Y26.4118
G01 X23.4821 Y26.4282
G01 X23.4033 Y26.4866
G01 X23.3816 Y26.5019
G01 X23.3591 Y26.5162
G01 X23.2749 Y26.5666
G01 X23.2518 Y26.5797
G01 X23.2280 Y26.5917
G01 X23.1393 Y26.6336
G01 X23.1272 Y26.6392
G01 X23.1027 Y26.6493
G01 X22.9978 Y26.6870
G01 X22.9726 Y26.6954
G01 X22.9469 Y26.7025
G01 X22.8517 Y26.7263
G01 X22.8258 Y26.7321
G01 X22.7996 Y26.7367
G01 X22.7025 Y26.7511
G01 X22.6761 Y26.7543
G01 X22.6496 Y26.7563
G01 X22.5516 Y26.7611
G01 X22.5250 Y26.7618
G01 X22.4984 Y26.7611
G01 X22.4004 Y26.7563
G01 X22.3739 Y26.7543
G01 X22.3475 Y26.7511
G01 X22.2504 Y26.7367
G01 X22.2373 Y26.7346
G01 X22.2112 Y26.7294
G01 X22.0902 Y26.6991
G01 X22.0648 Y26.6914
G01 X22.0522 Y26.6870
G01 X21.9598 Y26.6540
G01 X21.9350 Y26.6444
G01 X21.9107 Y26.6336
G01 X21.8220 Y26.5917
G01 X21.8100 Y26.5858
G01 X21.7866 Y26.5733
G01 X21.6909 Y26.5162
G01 X21.6796 Y26.5092
G01 X21.6575 Y26.4944
G01 X21.5573 Y26.4201
G01 X21.5368 Y26.4032
G01 X21.5268 Y26.3944
G01 X21.4443 Y26.3195
G01 X21.4255 Y26.3007
G01 X21.4165 Y26.2909
G01 X21.3506 Y26.2182
G01 X21.3332 Y26.1981
G01 X21.3169 Y26.1771
G01 X21.2550 Y26.0936
G01 X21.1932 Y26.1771
G01 X21.1768 Y26.1981
G01 X21.1594 Y26.2182
G01 X21.0935 Y26.2909
G01 X21.0752 Y26.3102
G01 X21.0559 Y26.3285
G01 X20.9832 Y26.3944
G01 X20.9631 Y26.4118
G01 X20.9421 Y26.4282
G01 X20.8633 Y26.4866
G01 X20.8416 Y26.5019
G01 X20.8191 Y26.5162
G01 X20.7349 Y26.5666
G01 X20.7118 Y26.5797
G01 X20.6880 Y26.5917
G01 X20.5993 Y26.6336
G01 X20.5750 Y26.6444
G01 X20.5502 Y26.6540
G01 X20.4578 Y26.6870
G01 X20.4326 Y26.6954
G01 X20.4069 Y26.7025
G01 X20.3117 Y26.7263
G01 X20.2988 Y26.7294
G01 X20.2727 Y26.7346
G01 X20.1493 Y26.7529
G01 X20.1229 Y26.7555
G01 X20.1096 Y26.7563
G01 X20.0116 Y26.7611
G01 X19.9850 Y26.7618
G01 X19.9584 Y26.7611
G01 X19.8471 Y26.7555
G01 X19.8207 Y26.7529
G01 X19.8075 Y26.7511
G01 X19.7104 Y26.7367
G01 X19.6842 Y26.7321
G01 X19.6583 Y26.7263
G01 X19.5631 Y26.7025
G01 X19.5502 Y26.6991
G01 X19.5248 Y26.6914
G01 X19.4198 Y26.6540
G01 X19.3950 Y26.6444
G01 X19.3707 Y26.6336
G01 X19.2820 Y26.5917
G01 X19.2700 Y26.5858
G01 X19.2466 Y26.5733
G01 X19.1509 Y26.5162
G01 X19.1285 Y26.5019
G01 X19.1067 Y26.4866
G01 X19.0279 Y26.4282
G01 X19.0069 Y26.4118
G01 X18.9868 Y26.3944
G01 X18.9141 Y26.3285
G01 X18.8948 Y26.3102
G01 X18.8765 Y26.2909
G01 X18.8106 Y26.2182
G01 X18.7932 Y26.1981
G01 X18.7769 Y26.1771
G01 X18.7184 Y26.0983
G01 X18.7031 Y26.0766
G01 X18.6889 Y26.0541
G01 X18.6317 Y25.9584
G01 X18.6253 Y25.9468
G01 X18.6133 Y25.9230
G01 X18.5714 Y25.8343
G01 X18.5606 Y25.8100
G01 X18.5510 Y25.7852
G01 X18.5180 Y25.6928
G01 X18.5096 Y25.6676
G01 X18.5025 Y25.6419
G01 X18.4787 Y25.5467
G01 X18.4729 Y25.5208
G01 X18.4683 Y25.4946
G01 X18.4539 Y25.3975
G01 X18.4507 Y25.3711
G01 X18.4487 Y25.3446
G01 X18.4439 Y25.2466
G01 X18.4433 Y25.2200
G01 X18.4439 Y25.1934
G01 X18.4487 Y25.0954
G01 X18.4507 Y25.0689
G01 X18.4539 Y25.0425
G01 X18.4683 Y24.9454
G01 X18.4729 Y24.9192
G01 X18.4787 Y24.8933
G01 X18.5025 Y24.7981
G01 X18.5096 Y24.7725
G01 X18.5180 Y24.7472
G01 X18.5510 Y24.6548
G01 X18.5606 Y24.6300
G01 X18.5714 Y24.6057
G01 X18.6133 Y24.5170
G01 X18.6253 Y24.4932
G01 X18.6384 Y24.4701
G01 X18.6889 Y24.3859
G01 X18.7031 Y24.3635
G01 X18.7184 Y24.3417
G01 X18.7769 Y24.2629
G01 X18.7932 Y24.2419
G01 X18.8106 Y24.2218
G01 X18.8765 Y24.1491
G01 X18.8948 Y24.1298
G01 X18.9141 Y24.1115
G01 X18.9968 Y24.0368
G01 X19.0173 Y24.0199
G01 X19.0279 Y24.0119
G01 X19.1067 Y23.9534
G01 X19.1285 Y23.9381
G01 X19.1396 Y23.9308
G01 X19.2351 Y23.8734
G01 X19.2582 Y23.8603
G01 X19.2820 Y23.8483
G01 X19.3482 Y23.8170
G01 X19.3075 Y23.7802
G01 X19.2882 Y23.7618
G01 X18.7789 Y23.2523
G01 X18.7369 Y23.2062
G01 X18.7195 Y23.1861
G01 X18.7032 Y23.1651
G01 X18.6739 Y23.1257
G01 X18.6586 Y23.1039
G01 X18.6444 Y23.0815
G01 X18.6191 Y23.0393
G01 X18.6060 Y23.0162
G01 X18.5941 Y22.9925
G01 X18.5731 Y22.9481
G01 X18.5676 Y22.9360
G01 X18.5574 Y22.9114
G01 X18.5362 Y22.8527
G01 X18.5279 Y22.8275
G01 X18.5208 Y22.8019
G01 X18.5058 Y22.7413
G01 X18.5006 Y22.7152
G01 X18.4985 Y22.7021
G01 X18.4913 Y22.6535
G01 X18.4880 Y22.6271
G01 X18.4861 Y22.6006
G01 X18.4837 Y22.5516
G00 Z2.0000
G00 X18.3315 Y22.5591
G01 F60.00
G01 Z-0.0600
G01 F60.00
G01 X18.3306 Y22.5250
G01 X18.3306 Y22.2278
G01 X18.3011 Y22.2048
G01 X18.2753 Y22.1826
G01 X18.2446 Y22.1545
G01 X18.2324 Y22.1426
G01 X18.2089 Y22.1179
G01 X18.1812 Y22.0870
G01 X18.1595 Y22.0607
G01 X18.1246 Y22.0136
G01 X18.1057 Y21.9853
G01 X18.0842 Y21.9497
G01 X18.0674 Y21.9201
G01 X18.0595 Y21.9050
G01 X18.0416 Y21.8675
G01 X18.0278 Y21.8363
G01 X18.0155 Y21.8045
G01 X18.0017 Y21.7653
G01 X17.9965 Y21.7491
G01 X17.9918 Y21.7327
G01 X17.9815 Y21.6924
G01 X17.9740 Y21.6592
G01 X17.9682 Y21.6256
G01 X17.9623 Y21.5845
G01 X17.9604 Y21.5676
G01 X17.9579 Y21.5336
G01 X17.9561 Y21.4920
G01 X17.9559 Y20.6750
G01 X17.9567 Y20.6410
G01 X17.9590 Y20.5994
G01 X17.9604 Y20.5825
G01 X17.9646 Y20.5487
G01 X17.9709 Y20.5076
G01 X17.9740 Y20.4908
G01 X17.9815 Y20.4576
G01 X17.9918 Y20.4173
G01 X17.9965 Y20.4009
G01 X18.0017 Y20.3847
G01 X18.0155 Y20.3455
G01 X18.0214 Y20.3295
G01 X18.0345 Y20.2981
G01 X18.0520 Y20.2604
G01 X18.0674 Y20.2300
G01 X18.0756 Y20.2150
G01 X18.0968 Y20.1793
G01 X18.1057 Y20.1648
G01 X18.1246 Y20.1364
G01 X18.1492 Y20.1029
G01 X18.1702 Y20.0761
G01 X18.1812 Y20.0630
G01 X18.2089 Y20.0321
G01 X18.2205 Y20.0196
G01 X18.2446 Y19.9955
G01 X18.2880 Y19.9562
G01 X18.3011 Y19.9452
G01 X18.3279 Y19.9242
G01 X18.3614 Y19.8996
G01 X18.3755 Y19.8900
G01 X18.4043 Y19.8718
G01 X18.4400 Y19.8506
G01 X18.4701 Y19.8345
G01 X18.4854 Y19.8270
G01 X18.5231 Y19.8095
G01 X18.5387 Y19.8028
G01 X18.5705 Y19.7905
G01 X18.6097 Y19.7767
G01 X18.6259 Y19.7715
G01 X18.6423 Y19.7668
G01 X18.6826 Y19.7565
G01 X18.7158 Y19.7490
G01 X18.7326 Y19.7459
G01 X18.7905 Y19.7373
G01 X18.8075 Y19.7354
G01 X18.8414 Y19.7329
G01 X18.8830 Y19.7311
G01 X18.9000 Y19.7309
G01 X20.1500 Y19.7309
G01 X20.1841 Y19.7317
G01 X20.2256 Y19.7340
G01 X20.2426 Y19.7354
G01 X20.2764 Y19.7396
G01 X20.3175 Y19.7459
G01 X20.3342 Y19.7490
G01 X20.3674 Y19.7565
G01 X20.4077 Y19.7668
G01 X20.4241 Y19.7715
G01 X20.4564 Y19.7822
G01 X20.4955 Y19.7964
G01 X20.5270 Y19.8095
G01 X20.5425 Y19.8166
G01 X20.5800 Y19.8345
G01 X20.5951 Y19.8424
G01 X20.6247 Y19.8592
G01 X20.6603 Y19.8807
G01 X20.6886 Y19.8996
G01 X20.7024 Y19.9096
G01 X20.7357 Y19.9345
G01 X20.7490 Y19.9452
G01 X20.7620 Y19.9562
G01 X20.7929 Y19.9839
G01 X20.8176 Y20.0074
G01 X20.8295 Y20.0196
G01 X20.8576 Y20.0503
G01 X20.8798 Y20.0761
G01 X20.8905 Y20.0894
G01 X20.9154 Y20.1226
G01 X20.9350 Y20.1505
G01 X20.9443 Y20.1648
G01 X20.9744 Y20.2150
G01 X20.9905 Y20.2451
G01 X20.9980 Y20.2604
G01 X21.0156 Y20.2981
G01 X21.0250 Y20.3206
G01 X21.0345 Y20.2981
G01 X21.0416 Y20.2826
G01 X21.0595 Y20.2451
G01 X21.0674 Y20.2300
G01 X21.0756 Y20.2150
G01 X21.0968 Y20.1793
G01 X21.1150 Y20.1505
G01 X21.1346 Y20.1226
G01 X21.1595 Y20.0894
G01 X21.1702 Y20.0761
G01 X21.1812 Y20.0630
G01 X21.2089 Y20.0321
G01 X21.2205 Y20.0196
G01 X21.2446 Y19.9955
G01 X21.2880 Y19.9562
G01 X21.3011 Y19.9452
G01 X21.3279 Y19.9242
G01 X21.3614 Y19.8996
G01 X21.3755 Y19.8900
G01 X21.3898 Y19.8807
G01 X21.4253 Y19.8592
G01 X21.4400 Y19.8506
G01 X21.4701 Y19.8345
G01 X21.5231 Y19.8095
G01 X21.5545 Y19.7964
G01 X21.6097 Y19.7767
G01 X21.6259 Y19.7715
G01 X21.6588 Y19.7624
G01 X21.6992 Y19.7526
G01 X21.7326 Y19.7459
G01 X21.7737 Y19.7396
G01 X21.8075 Y19.7354
G01 X21.8414 Y19.7329
G01 X21.8830 Y19.7311
G01 X23.1300 Y19.7309
G01 X23.1927 Y19.6686
G01 X23.2543 Y19.6127
G01 X23.2806 Y19.5911
G01 X23.3474 Y19.5416
G01 X23.3757 Y19.5226
G01 X23.4471 Y19.4799
G01 X23.4771 Y19.4638
G01 X23.5523 Y19.4283
G01 X23.5838 Y19.4152
G01 X23.5997 Y19.4093
G01 X23.6460 Y19.3927
G01 X23.6783 Y19.3821
G01 X23.7111 Y19.3730
G01 X23.7588 Y19.3610
G01 X23.7920 Y19.3536
G01 X23.8087 Y19.3505
G01 X23.8910 Y19.3383
G01 X23.9249 Y19.3349
G01 X24.0080 Y19.3308
G01 X24.0945 Y19.3306
G01 X24.1364 Y19.2996
G01 X24.1648 Y19.2807
G01 X24.2150 Y19.2506
G01 X24.2451 Y19.2345
G01 X24.2981 Y19.2095
G01 X24.3295 Y19.1964
G01 X24.3847 Y19.1767
G01 X24.4083 Y19.1694
G01 X23.6601 Y19.1694
G01 X23.6247 Y19.1909
G01 X23.5951 Y19.2077
G01 X23.5800 Y19.2155
G01 X23.5425 Y19.2335
G01 X23.5113 Y19.2473
G01 X23.4955 Y19.2536
G01 X23.4564 Y19.2678
G01 X23.4241 Y19.2785
G01 X23.3912 Y19.2876
G01 X23.3509 Y19.2975
G01 X23.3175 Y19.3041
G01 X23.2764 Y19.3104
G01 X23.2426 Y19.3146
G01 X23.2256 Y19.3161
G01 X23.1841 Y19.3183
G01 X23.1500 Y19.3191
G01 X21.9000 Y19.3191
G01 X21.8660 Y19.3183
G01 X21.8244 Y19.3161
G01 X21.7905 Y19.3127
G01 X21.7737 Y19.3104
G01 X21.7326 Y19.3041
G01 X21.7158 Y19.3010
G01 X21.6992 Y19.2975
G01 X21.6588 Y19.2876
G01 X21.6423 Y19.2832
G01 X21.6097 Y19.2733
G01 X21.5545 Y19.2536
G01 X21.5231 Y19.2406
G01 X21.5076 Y19.2335
G01 X21.4701 Y19.2155
G01 X21.4550 Y19.2077
G01 X21.4253 Y19.1909
G01 X21.3899 Y19.1694
G01 X20.6601 Y19.1694
G01 X20.6247 Y19.1909
G01 X20.5951 Y19.2077
G01 X20.5800 Y19.2155
G01 X20.5425 Y19.2335
G01 X20.5113 Y19.2473
G01 X20.4955 Y19.2536
G01 X20.4564 Y19.2678
G01 X20.4241 Y19.2785
G01 X20.3912 Y19.2876
G01 X20.3509 Y19.2975
G01 X20.3342 Y19.3010
G01 X20.3006 Y19.3068
G01 X20.2595 Y19.3127
G01 X20.2426 Y19.3146
G01 X20.2086 Y19.3171
G01 X20.1670 Y19.3189
G01 X18.9000 Y19.3191
G01 X18.8660 Y19.3183
G01 X18.8244 Y19.3161
G01 X18.7905 Y19.3127
G01 X18.7326 Y19.3041
G01 X18.6992 Y19.2975
G01 X18.6423 Y19.2832
G01 X18.6097 Y19.2733
G01 X18.5545 Y19.2536
G01 X18.5231 Y19.2406
G01 X18.4701 Y19.2155
G01 X18.4400 Y19.1994
G01 X18.3898 Y19.1693
G01 X18.3614 Y19.1504
G01 X18.3476 Y19.1404
G01 X18.3144 Y19.1155
G01 X18.3011 Y19.1048
G01 X18.2880 Y19.0939
G01 X18.2571 Y19.0661
G01 X18.2324 Y19.0426
G01 X18.2205 Y19.0304
G01 X18.1924 Y18.9998
G01 X18.1702 Y18.9740
G01 X18.1595 Y18.9607
G01 X18.1246 Y18.9136
G01 X18.1057 Y18.8853
G01 X18.0756 Y18.8350
G01 X18.0595 Y18.8050
G01 X18.0345 Y18.7520
G01 X18.0214 Y18.7205
G01 X18.0017 Y18.6653
G01 X17.9918 Y18.6327
G01 X17.9815 Y18.5924
G01 X17.9776 Y18.5759
G01 X17.9709 Y18.5425
G01 X17.9646 Y18.5014
G01 X17.9604 Y18.4676
G01 X17.9579 Y18.4336
G01 X17.9561 Y18.3920
G01 X17.9559 Y17.5750
G01 X17.9567 Y17.5410
G01 X17.9590 Y17.4994
G01 X17.9623 Y17.4655
G01 X17.9682 Y17.4244
G01 X17.9740 Y17.3908
G01 X17.9815 Y17.3576
G01 X17.9918 Y17.3173
G01 X18.0017 Y17.2847
G01 X18.0155 Y17.2455
G01 X18.0278 Y17.2137
G01 X18.0416 Y17.1826
G01 X18.0595 Y17.1451
G01 X18.0674 Y17.1300
G01 X18.0842 Y17.1003
G01 X18.1057 Y17.0648
G01 X18.1246 Y17.0364
G01 X18.1492 Y17.0029
G01 X18.1702 Y16.9761
G01 X18.1924 Y16.9503
G01 X18.2205 Y16.9196
G01 X18.2446 Y16.8955
G01 X18.2753 Y16.8674
G01 X18.3011 Y16.8452
G01 X18.3144 Y16.8345
G01 X18.3476 Y16.8096
G01 X18.3755 Y16.7900
G01 X18.4043 Y16.7718
G01 X18.4400 Y16.7506
G01 X18.4701 Y16.7345
G01 X18.5076 Y16.7166
G01 X18.5387 Y16.7028
G01 X18.5705 Y16.6905
G01 X18.6097 Y16.6767
G01 X18.6423 Y16.6668
G01 X18.6826 Y16.6565
G01 X18.7158 Y16.6490
G01 X18.7494 Y16.6432
G01 X18.7905 Y16.6373
G01 X18.8075 Y16.6354
G01 X18.8244 Y16.6340
G01 X18.8660 Y16.6317
G01 X18.9000 Y16.6309
G01 X20.1500 Y16.6309
G01 X20.1841 Y16.6317
G01 X20.2256 Y16.6340
G01 X20.2595 Y16.6373
G01 X20.2764 Y16.6396
G01 X20.3175 Y16.6459
G01 X20.3342 Y16.6490
G01 X20.3509 Y16.6526
G01 X20.3912 Y16.6624
G01 X20.4077 Y16.6668
G01 X20.4403 Y16.6767
G01 X20.4955 Y16.6964
G01 X20.5270 Y16.7095
G01 X20.5425 Y16.7166
G01 X20.5800 Y16.7345
G01 X20.5951 Y16.7424
G01 X20.6247 Y16.7592
G01 X20.6601 Y16.7806
G01 X21.3899 Y16.7806
G01 X21.4253 Y16.7592
G01 X21.4550 Y16.7424
G01 X21.4701 Y16.7345
G01 X21.5076 Y16.7166
G01 X21.5387 Y16.7028
G01 X21.5545 Y16.6964
G01 X21.6097 Y16.6767
G01 X21.6259 Y16.6715
G01 X21.6588 Y16.6624
G01 X21.6992 Y16.6526
G01 X21.7158 Y16.6490
G01 X21.7494 Y16.6432
G01 X21.7905 Y16.6373
G01 X21.8075 Y16.6354
G01 X21.8414 Y16.6329
G01 X21.8830 Y16.6311
G01 X21.9000 Y16.6309
G01 X23.1500 Y16.6309
G01 X23.1841 Y16.6317
G01 X23.2256 Y16.6340
G01 X23.2595 Y16.6373
G01 X23.2764 Y16.6396
G01 X23.3175 Y16.6459
G01 X23.3509 Y16.6526
G01 X23.3912 Y16.6624
G01 X23.4241 Y16.6715
G01 X23.4564 Y16.6822
G01 X23.4955 Y16.6964
G01 X23.5270 Y16.7095
G01 X23.5425 Y16.7166
G01 X23.5800 Y16.7345
G01 X23.5951 Y16.7424
G01 X23.6247 Y16.7592
G01 X23.6601 Y16.7806
G01 X27.9750 Y16.7806
G01 X28.0091 Y16.7815
G01 X28.0581 Y16.7839
G01 X28.0921 Y16.7864
G01 X28.1259 Y16.7906
G01 X28.1913 Y16.8005
G01 X28.2247 Y16.8071
G01 X28.2413 Y16.8110
G01 X28.2889 Y16.8230
G01 X28.3217 Y16.8321
G01 X28.3541 Y16.8427
G01 X28.4163 Y16.8652
G01 X28.4321 Y16.8715
G01 X28.4632 Y16.8854
G01 X28.5076 Y16.9063
G01 X28.5380 Y16.9217
G01 X28.5677 Y16.9385
G01 X28.6243 Y16.9726
G01 X28.6386 Y16.9819
G01 X28.6664 Y17.0015
G01 X28.7194 Y17.0411
G01 X28.7458 Y17.0627
G01 X28.7949 Y17.1070
G01 X28.8196 Y17.1305
G01 X30.4730 Y18.7839
G01 X31.2279 Y18.7839
G01 X31.2416 Y18.7667
G01 X31.2525 Y18.7537
G01 X31.2919 Y18.7103
G01 X31.3160 Y18.6862
G01 X31.3594 Y18.6468
G01 X31.3857 Y18.6252
G01 X31.4328 Y18.5903
G01 X31.4611 Y18.5714
G01 X31.5114 Y18.5412
G01 X31.5414 Y18.5252
G01 X31.5944 Y18.5001
G01 X31.6259 Y18.4871
G01 X31.6811 Y18.4673
G01 X31.7137 Y18.4574
G01 X31.7705 Y18.4432
G01 X31.8039 Y18.4366
G01 X31.8619 Y18.4280
G01 X31.8958 Y18.4246
G01 X31.9128 Y18.4236
G01 X31.9543 Y18.4217
G01 X31.9714 Y18.4215
G01 X33.4714 Y18.4215
G01 X33.5054 Y18.4224
G01 X33.5469 Y18.4246
G01 X33.5639 Y18.4261
G01 X33.5977 Y18.4302
G01 X33.6388 Y18.4366
G01 X33.6722 Y18.4432
G01 X33.7126 Y18.4531
G01 X33.7454 Y18.4622
G01 X33.7778 Y18.4729
G01 X33.8169 Y18.4871
G01 X33.8483 Y18.5001
G01 X33.8860 Y18.5177
G01 X33.9164 Y18.5330
G01 X33.9314 Y18.5412
G01 X33.9671 Y18.5624
G01 X33.9959 Y18.5806
G01 X34.0238 Y18.6003
G01 X34.0570 Y18.6252
G01 X34.0834 Y18.6468
G01 X34.1143 Y18.6746
G01 X34.1390 Y18.6981
G01 X34.1625 Y18.7227
G01 X34.1902 Y18.7537
G01 X34.2118 Y18.7800
G01 X34.2368 Y18.8133
G01 X34.2564 Y18.8411
G01 X34.2746 Y18.8699
G01 X34.2958 Y18.9057
G01 X34.3119 Y18.9357
G01 X34.3298 Y18.9732
G01 X34.3436 Y19.0044
G01 X34.3559 Y19.0361
G01 X34.3697 Y19.0754
G01 X34.3796 Y19.1080
G01 X34.3899 Y19.1482
G01 X34.3974 Y19.1815
G01 X34.4032 Y19.2150
G01 X34.4091 Y19.2562
G01 X34.4110 Y19.2731
G01 X34.4135 Y19.3071
G01 X34.4153 Y19.3486
G01 X34.4155 Y20.5657
G01 X34.4147 Y20.5997
G01 X34.4124 Y20.6412
G01 X34.4110 Y20.6582
G01 X34.4091 Y20.6751
G01 X34.4032 Y20.7163
G01 X34.3974 Y20.7499
G01 X34.3899 Y20.7831
G01 X34.3796 Y20.8234
G01 X34.3749 Y20.8397
G01 X34.3697 Y20.8560
G01 X34.3559 Y20.8952
G01 X34.3436 Y20.9270
G01 X34.3298 Y20.9581
G01 X34.3119 Y20.9956
G01 X34.3040 Y21.0107
G01 X34.2958 Y21.0256
G01 X34.2746 Y21.0614
G01 X34.2564 Y21.0902
G01 X34.2468 Y21.1042
G01 X34.2118 Y21.1513
G01 X34.1902 Y21.1776
G01 X34.1509 Y21.2211
G01 X34.1268 Y21.2452
G01 X34.0834 Y21.2845
G01 X34.0570 Y21.3061
G01 X34.0100 Y21.3410
G01 X33.9816 Y21.3600
G01 X33.9616 Y21.3722
G01 X33.9867 Y21.3985
G01 X34.0427 Y21.4603
G01 X34.0650 Y21.4861
G01 X34.0860 Y21.5129
G01 X34.1357 Y21.5799
G01 X34.1553 Y21.6078
G01 X34.1735 Y21.6366
G01 X34.2164 Y21.7081
G01 X34.2250 Y21.7228
G01 X34.2410 Y21.7529
G01 X34.2913 Y21.8591
G01 X34.2980 Y21.8747
G01 X34.3102 Y21.9065
G01 X34.3439 Y22.0012
G01 X34.3490 Y22.0174
G01 X34.3581 Y22.0503
G01 X34.3784 Y22.1312
G01 X34.3858 Y22.1644
G01 X34.3917 Y22.1980
G01 X34.4039 Y22.2805
G01 X34.4062 Y22.2974
G01 X34.4095 Y22.3313
G01 X34.4153 Y22.4486
G01 X34.4153 Y22.4827
G01 X34.4147 Y22.4997
G01 X34.4106 Y22.5830
G01 X34.4081 Y22.6170
G01 X34.4039 Y22.6508
G01 X34.3917 Y22.7333
G01 X34.3858 Y22.7669
G01 X34.3784 Y22.8001
G01 X34.3581 Y22.8811
G01 X34.3490 Y22.9139
G01 X34.3383 Y22.9462
G01 X34.3102 Y23.0248
G01 X34.2980 Y23.0566
G01 X34.2842 Y23.0877
G01 X34.2485 Y23.1631
G01 X34.2410 Y23.1784
G01 X34.2250 Y23.2085
G01 X34.1646 Y23.3093
G01 X34.1456 Y23.3376
G01 X34.0860 Y23.4184
G01 X34.0756 Y23.4319
G01 X34.0540 Y23.4583
G01 X33.9867 Y23.5328
G01 X33.9632 Y23.5575
G01 X33.9386 Y23.5810
G01 X33.8768 Y23.6370
G01 X33.8510 Y23.6593
G01 X33.8241 Y23.6802
G01 X33.7571 Y23.7299
G01 X33.7292 Y23.7496
G01 X33.7005 Y23.7678
G01 X33.6289 Y23.8107
G01 X33.5993 Y23.8275
G01 X33.5688 Y23.8428
G01 X33.4934 Y23.8784
G01 X33.4623 Y23.8922
G01 X33.4305 Y23.9045
G01 X33.3520 Y23.9326
G01 X33.3196 Y23.9433
G01 X33.2868 Y23.9524
G01 X33.2059 Y23.9727
G01 X33.1726 Y23.9801
G01 X33.1391 Y23.9859
G01 X33.0565 Y23.9982
G01 X33.0227 Y24.0024
G01 X32.9887 Y24.0049
G01 X32.8884 Y24.0096
G01 X32.5714 Y24.0098
G01 X32.5373 Y24.0090
G01 X32.4540 Y24.0049
G01 X32.4200 Y24.0024
G01 X32.4031 Y24.0005
G01 X32.3037 Y23.9859
G01 X32.2701 Y23.9801
G01 X32.2369 Y23.9727
G01 X32.1395 Y23.9480
G01 X32.1069 Y23.9382
G01 X32.0122 Y23.9045
G01 X31.9805 Y23.8922
G01 X31.9648 Y23.8855
G01 X31.8739 Y23.8428
G01 X31.8586 Y23.8353
G01 X31.8286 Y23.8192
G01 X31.7278 Y23.7588
G01 X31.6995 Y23.7399
G01 X31.6714 Y23.7194
G01 X26.3453 Y23.7194
G01 X26.3778 Y23.7437
G01 X26.4041 Y23.7653
G01 X26.4521 Y23.8088
G01 X26.4762 Y23.8329
G01 X26.5197 Y23.8809
G01 X26.5413 Y23.9072
G01 X26.5799 Y23.9592
G01 X26.5988 Y23.9875
G01 X26.6321 Y24.0431
G01 X26.6481 Y24.0731
G01 X26.6758 Y24.1316
G01 X26.6888 Y24.1631
G01 X26.7107 Y24.2241
G01 X26.7205 Y24.2567
G01 X26.7363 Y24.3195
G01 X26.7429 Y24.3529
G01 X26.7501 Y24.4000
G01 X26.7543 Y24.4338
G01 X26.7558 Y24.4508
G01 X26.7583 Y24.4985
G01 X26.7591 Y24.5325
G01 X26.7591 Y25.9075
G01 X26.7589 Y25.9245
G01 X26.7568 Y25.9722
G01 X26.7558 Y25.9892
G01 X26.7524 Y26.0231
G01 X26.7456 Y26.0703
G01 X26.7398 Y26.1039
G01 X26.7323 Y26.1371
G01 X26.7205 Y26.1834
G01 X26.7107 Y26.2160
G01 X26.6948 Y26.2609
G01 X26.6825 Y26.2927
G01 X26.6687 Y26.3239
G01 X26.6481 Y26.3669
G01 X26.6321 Y26.3970
G01 X26.6077 Y26.4380
G01 X26.5895 Y26.4668
G01 X26.5699 Y26.4946
G01 X26.5413 Y26.5328
G01 X26.5197 Y26.5591
G01 X26.4878 Y26.5946
G01 X26.4643 Y26.6193
G01 X26.4396 Y26.6428
G01 X26.4041 Y26.6747
G01 X26.3778 Y26.6963
G01 X26.3396 Y26.7249
G01 X26.3118 Y26.7445
G01 X26.2830 Y26.7627
G01 X26.2420 Y26.7871
G01 X26.2119 Y26.8031
G01 X26.1689 Y26.8237
G01 X26.1377 Y26.8375
G01 X26.1059 Y26.8498
G01 X26.0610 Y26.8657
G01 X26.0284 Y26.8755
G01 X25.9821 Y26.8873
G01 X25.9489 Y26.8948
G01 X25.9153 Y26.9006
G01 X25.8681 Y26.9074
G01 X25.8512 Y26.9093
G01 X25.8342 Y26.9108
G01 X25.7866 Y26.9133
G01 X25.7525 Y26.9141
G01 X24.3775 Y26.9141
G01 X24.3435 Y26.9133
G01 X24.2958 Y26.9108
G01 X24.2619 Y26.9074
G01 X24.2147 Y26.9006
G01 X24.1811 Y26.8948
G01 X24.1479 Y26.8873
G01 X24.1017 Y26.8755
G01 X24.0691 Y26.8657
G01 X24.0530 Y26.8601
G01 X24.0081 Y26.8438
G01 X23.9766 Y26.8308
G01 X23.9181 Y26.8031
G01 X23.8881 Y26.7871
G01 X23.8733 Y26.7785
G01 X23.8325 Y26.7538
G01 X23.8042 Y26.7349
G01 X23.7522 Y26.6963
G01 X23.7259 Y26.6747
G01 X23.6779 Y26.6312
G01 X23.6538 Y26.6071
G01 X23.6103 Y26.5591
G01 X23.5915 Y26.5362
G01 X23.5729 Y26.5506
G01 X23.4941 Y26.6090
G01 X23.4662 Y26.6286
G01 X23.4374 Y26.6469
G01 X23.3533 Y26.6973
G01 X23.3236 Y26.7141
G01 X23.2932 Y26.7294
G01 X23.2045 Y26.7714
G01 X23.1733 Y26.7852
G01 X23.1415 Y26.7974
G01 X23.0491 Y26.8305
G01 X23.0168 Y26.8412
G01 X22.9840 Y26.8503
G01 X22.8888 Y26.8741
G01 X22.8555 Y26.8816
G01 X22.8220 Y26.8874
G01 X22.7249 Y26.9018
G01 X22.6911 Y26.9060
G01 X22.6571 Y26.9085
G01 X22.5591 Y26.9133
G01 X22.5250 Y26.9141
G01 X22.4910 Y26.9133
G01 X22.3929 Y26.9085
G01 X22.3759 Y26.9074
G01 X22.3420 Y26.9041
G01 X22.2281 Y26.8874
G01 X22.1945 Y26.8816
G01 X22.1613 Y26.8741
G01 X22.0661 Y26.8503
G01 X22.0332 Y26.8412
G01 X22.0009 Y26.8305
G01 X21.9085 Y26.7974
G01 X21.8767 Y26.7852
G01 X21.8456 Y26.7714
G01 X21.7568 Y26.7294
G01 X21.7264 Y26.7141
G01 X21.6968 Y26.6973
G01 X21.6126 Y26.6469
G01 X21.5838 Y26.6286
G01 X21.5559 Y26.6090
G01 X21.4636 Y26.5402
G01 X21.4372 Y26.5186
G01 X21.4245 Y26.5073
G01 X21.3393 Y26.4298
G01 X21.3152 Y26.4057
G01 X21.2550 Y26.3397
G01 X21.1948 Y26.4057
G01 X21.1707 Y26.4298
G01 X21.0856 Y26.5073
G01 X21.0598 Y26.5296
G01 X21.0329 Y26.5506
G01 X20.9541 Y26.6090
G01 X20.9262 Y26.6286
G01 X20.8974 Y26.6469
G01 X20.7985 Y26.7059
G01 X20.7836 Y26.7141
G01 X20.7532 Y26.7294
G01 X20.6490 Y26.7785
G01 X20.6175 Y26.7915
G01 X20.5091 Y26.8305
G01 X20.4768 Y26.8412
G01 X20.4440 Y26.8503
G01 X20.3322 Y26.8781
G01 X20.2988 Y26.8847
G01 X20.1849 Y26.9018
G01 X20.1511 Y26.9060
G01 X20.1171 Y26.9085
G01 X20.0191 Y26.9133
G01 X19.9850 Y26.9141
G01 X19.9510 Y26.9133
G01 X19.8529 Y26.9085
G01 X19.8190 Y26.9060
G01 X19.7851 Y26.9018
G01 X19.6881 Y26.8874
G01 X19.6545 Y26.8816
G01 X19.6213 Y26.8741
G01 X19.5096 Y26.8459
G01 X19.4932 Y26.8412
G01 X19.4609 Y26.8305
G01 X19.3525 Y26.7915
G01 X19.3210 Y26.7785
G01 X19.2168 Y26.7294
G01 X19.2015 Y26.7219
G01 X19.1715 Y26.7059
G01 X19.0726 Y26.6469
G01 X19.0581 Y26.6379
G01 X19.0298 Y26.6190
G01 X18.9236 Y26.5402
G01 X18.8972 Y26.5186
G01 X18.8845 Y26.5073
G01 X18.7993 Y26.4298
G01 X18.7752 Y26.4057
G01 X18.7636 Y26.3933
G01 X18.6977 Y26.3206
G01 X18.6754 Y26.2948
G01 X18.6545 Y26.2679
G01 X18.5960 Y26.1891
G01 X18.5764 Y26.1612
G01 X18.5671 Y26.1469
G01 X18.5077 Y26.0483
G01 X18.4909 Y26.0186
G01 X18.4756 Y25.9882
G01 X18.4336 Y25.8995
G01 X18.4198 Y25.8683
G01 X18.4076 Y25.8365
G01 X18.3745 Y25.7441
G01 X18.3638 Y25.7118
G01 X18.3547 Y25.6790
G01 X18.3309 Y25.5838
G01 X18.3234 Y25.5505
G01 X18.3176 Y25.5170
G01 X18.3032 Y25.4199
G01 X18.2990 Y25.3861
G01 X18.2965 Y25.3521
G01 X18.2917 Y25.2541
G01 X18.2909 Y25.2200
G01 X18.2911 Y25.2030
G01 X18.2965 Y25.0879
G01 X18.2990 Y25.0540
G01 X18.3032 Y25.0201
G01 X18.3176 Y24.9231
G01 X18.3234 Y24.8895
G01 X18.3309 Y24.8563
G01 X18.3547 Y24.7611
G01 X18.3638 Y24.7282
G01 X18.3745 Y24.6959
G01 X18.4135 Y24.5875
G01 X18.4266 Y24.5560
G01 X18.4756 Y24.4518
G01 X18.4909 Y24.4214
G01 X18.5077 Y24.3918
G01 X18.5582 Y24.3076
G01 X18.5764 Y24.2788
G01 X18.5960 Y24.2509
G01 X18.6648 Y24.1586
G01 X18.6864 Y24.1322
G01 X18.7636 Y24.0468
G01 X18.7871 Y24.0221
G01 X18.8118 Y23.9986
G01 X18.8972 Y23.9214
G01 X18.9103 Y23.9104
G01 X18.9371 Y23.8895
G01 X19.0298 Y23.8210
G01 X19.0581 Y23.8021
G01 X19.0923 Y23.7814
G01 X18.6686 Y23.3574
G01 X18.6127 Y23.2958
G01 X18.5911 Y23.2694
G01 X18.5416 Y23.2026
G01 X18.5226 Y23.1743
G01 X18.4885 Y23.1177
G01 X18.4717 Y23.0880
G01 X18.4563 Y23.0576
G01 X18.4354 Y23.0132
G01 X18.4215 Y22.9821
G01 X18.4152 Y22.9663
G01 X18.3927 Y22.9041
G01 X18.3821 Y22.8717
G01 X18.3730 Y22.8389
G01 X18.3610 Y22.7913
G01 X18.3536 Y22.7580
G01 X18.3505 Y22.7413
G01 X18.3406 Y22.6759
G01 X18.3364 Y22.6421
G01 X18.3339 Y22.6081
G01 X18.3315 Y22.5591
G00 Z2.0000
G00 X18.1793 Y22.5665
G01 F60.00
G01 Z-0.0600
G01 F60.00
G01 X18.1785 Y22.5458
G01 X18.1783 Y22.5250
G01 X18.1783 Y22.3002
G01 X18.1395 Y22.2649
G01 X18.1247 Y22.2504
G01 X18.1102 Y22.2355
G01 X18.0795 Y22.2021
G01 X18.0658 Y22.1865
G01 X18.0524 Y22.1706
G01 X18.0394 Y22.1544
G01 X18.0268 Y22.1379
G01 X18.0001 Y22.1013
G01 X17.9883 Y22.0842
G01 X17.9770 Y22.0668
G01 X17.9661 Y22.0491
G01 X17.9430 Y22.0101
G01 X17.9330 Y21.9919
G01 X17.9234 Y21.9735
G01 X17.9038 Y21.9326
G01 X17.8952 Y21.9137
G01 X17.8870 Y21.8946
G01 X17.8793 Y21.8753
G01 X17.8720 Y21.8559
G01 X17.8570 Y21.8131
G01 X17.8507 Y21.7933
G01 X17.8449 Y21.7734
G01 X17.8337 Y21.7295
G01 X17.8289 Y21.7093
G01 X17.8246 Y21.6889
G01 X17.8208 Y21.6685
G01 X17.8175 Y21.6480
G01 X17.8111 Y21.6031
G01 X17.8088 Y21.5825
G01 X17.8070 Y21.5618
G01 X17.8057 Y21.5411
G01 X17.8038 Y21.4958
G01 X17.8035 Y20.6750
G01 X17.8038 Y20.6542
G01 X17.8045 Y20.6335
G01 X17.8070 Y20.5882
G01 X17.8088 Y20.5675
G01 X17.8111 Y20.5469
G01 X17.8175 Y20.5020
G01 X17.8208 Y20.4815
G01 X17.8246 Y20.4611
G01 X17.8289 Y20.4408
G01 X17.8337 Y20.4206
G01 X17.8449 Y20.3767
G01 X17.8507 Y20.3567
G01 X17.8570 Y20.3369
G01 X17.8638 Y20.3173
G01 X17.8793 Y20.2747
G01 X17.8870 Y20.2554
G01 X17.8952 Y20.2363
G01 X17.9143 Y20.1952
G01 X17.9234 Y20.1766
G01 X17.9330 Y20.1581
G01 X17.9430 Y20.1399
G01 X17.9661 Y20.1009
G01 X17.9770 Y20.0832
G01 X17.9883 Y20.0658
G01 X18.0001 Y20.0487
G01 X18.0268 Y20.0122
G01 X18.0394 Y19.9956
G01 X18.0524 Y19.9794
G01 X18.0658 Y19.9635
G01 X18.0960 Y19.9298
G01 X18.1102 Y19.9145
G01 X18.1247 Y19.8997
G01 X18.1395 Y19.8852
G01 X18.1548 Y19.8710
G01 X18.1885 Y19.8408
G01 X18.2044 Y19.8274
G01 X18.2206 Y19.8144
G01 X18.2569 Y19.7872
G01 X18.2737 Y19.7751
G01 X18.2908 Y19.7633
G01 X18.3082 Y19.7520
G01 X18.3259 Y19.7411
G01 X18.3649 Y19.7180
G01 X18.3831 Y19.7080
G01 X18.4016 Y19.6984
G01 X18.4202 Y19.6893
G01 X18.4613 Y19.6702
G01 X18.4804 Y19.6620
G01 X18.4997 Y19.6543
G01 X18.5423 Y19.6388
G01 X18.5619 Y19.6320
G01 X18.5817 Y19.6257
G01 X18.6017 Y19.6199
G01 X18.6218 Y19.6146
G01 X18.6658 Y19.6039
G01 X18.6861 Y19.5996
G01 X18.7065 Y19.5958
G01 X18.7270 Y19.5925
G01 X18.7719 Y19.5861
G01 X18.7925 Y19.5838
G01 X18.8132 Y19.5820
G01 X18.8585 Y19.5795
G01 X18.8792 Y19.5788
G01 X18.9000 Y19.5785
G01 X20.1500 Y19.5785
G01 X20.1708 Y19.5788
G01 X20.1915 Y19.5795
G01 X20.2368 Y19.5820
G01 X20.2575 Y19.5838
G01 X20.2781 Y19.5861
G01 X20.3230 Y19.5925
G01 X20.3435 Y19.5958
G01 X20.3639 Y19.5996
G01 X20.3843 Y19.6039
G01 X20.4283 Y19.6146
G01 X20.4484 Y19.6199
G01 X20.4683 Y19.6257
G01 X20.4881 Y19.6320
G01 X20.5078 Y19.6388
G01 X20.5503 Y19.6543
G01 X20.5696 Y19.6620
G01 X20.5887 Y19.6702
G01 X20.6298 Y19.6893
G01 X20.6485 Y19.6984
G01 X20.6669 Y19.7080
G01 X20.6851 Y19.7180
G01 X20.7241 Y19.7411
G01 X20.7418 Y19.7520
G01 X20.7592 Y19.7633
G01 X20.7763 Y19.7751
G01 X20.7932 Y19.7872
G01 X20.8294 Y19.8144
G01 X20.8456 Y19.8274
G01 X20.8615 Y19.8408
G01 X20.8953 Y19.8710
G01 X20.9105 Y19.8852
G01 X20.9254 Y19.8997
G01 X20.9399 Y19.9145
G01 X20.9705 Y19.9479
G01 X20.9842 Y19.9635
G01 X20.9976 Y19.9794
G01 X21.0106 Y19.9956
G01 X21.0250 Y20.0146
G01 X21.0394 Y19.9956
G01 X21.0524 Y19.9794
G01 X21.0658 Y19.9635
G01 X21.0795 Y19.9479
G01 X21.1102 Y19.9145
G01 X21.1247 Y19.8997
G01 X21.1395 Y19.8852
G01 X21.1729 Y19.8545
G01 X21.1885 Y19.8408
G01 X21.2044 Y19.8274
G01 X21.2206 Y19.8144
G01 X21.2569 Y19.7872
G01 X21.2737 Y19.7751
G01 X21.2908 Y19.7633
G01 X21.3082 Y19.7520
G01 X21.3259 Y19.7411
G01 X21.3649 Y19.7180
G01 X21.3831 Y19.7080
G01 X21.4016 Y19.6984
G01 X21.4202 Y19.6893
G01 X21.4613 Y19.6702
G01 X21.4804 Y19.6620
G01 X21.4997 Y19.6543
G01 X21.5423 Y19.6388
G01 X21.5619 Y19.6320
G01 X21.5817 Y19.6257
G01 X21.6017 Y19.6199
G01 X21.6218 Y19.6146
G01 X21.6658 Y19.6039
G01 X21.6861 Y19.5996
G01 X21.7065 Y19.5958
G01 X21.7513 Y19.5889
G01 X21.7719 Y19.5861
G01 X21.7925 Y19.5838
G01 X21.8132 Y19.5820
G01 X21.8585 Y19.5795
G01 X21.8792 Y19.5788
G01 X21.9000 Y19.5785
G01 X23.0669 Y19.5785
G01 X23.0876 Y19.5582
G01 X23.1392 Y19.5111
G01 X23.1547 Y19.4973
G01 X23.1706 Y19.4840
G01 X23.1873 Y19.4706
G01 X23.1500 Y19.4715
G01 X21.9000 Y19.4715
G01 X21.8792 Y19.4713
G01 X21.8585 Y19.4705
G01 X21.8132 Y19.4680
G01 X21.7925 Y19.4662
G01 X21.7719 Y19.4639
G01 X21.7513 Y19.4611
G01 X21.7065 Y19.4542
G01 X21.6861 Y19.4504
G01 X21.6658 Y19.4461
G01 X21.6218 Y19.4354
G01 X21.6017 Y19.4301
G01 X21.5817 Y19.4243
G01 X21.5619 Y19.4180
G01 X21.5192 Y19.4030
G01 X21.4997 Y19.3958
G01 X21.4804 Y19.3880
G01 X21.4613 Y19.3799
G01 X21.4202 Y19.3607
G01 X21.4016 Y19.3516
G01 X21.3831 Y19.3420
G01 X21.3649 Y19.3320
G01 X21.3473 Y19.3218
G01 X20.7027 Y19.3218
G01 X20.6851 Y19.3320
G01 X20.6669 Y19.3420
G01 X20.6485 Y19.3516
G01 X20.6298 Y19.3607
G01 X20.5887 Y19.3799
G01 X20.5696 Y19.3880
G01 X20.5503 Y19.3958
G01 X20.5309 Y19.4030
G01 X20.4881 Y19.4180
G01 X20.4683 Y19.4243
G01 X20.4484 Y19.4301
G01 X20.4045 Y19.4413
G01 X20.3843 Y19.4461
G01 X20.3639 Y19.4504
G01 X20.3435 Y19.4542
G01 X20.3230 Y19.4575
G01 X20.2781 Y19.4639
G01 X20.2575 Y19.4662
G01 X20.2368 Y19.4680
G01 X20.2161 Y19.4693
G01 X20.1708 Y19.4713
G01 X20.1500 Y19.4715
G01 X18.9000 Y19.4715
G01 X18.8792 Y19.4713
G01 X18.8585 Y19.4705
G01 X18.8132 Y19.4680
G01 X18.7925 Y19.4662
G01 X18.7719 Y19.4639
G01 X18.7513 Y19.4611
G01 X18.7065 Y19.4542
G01 X18.6861 Y19.4504
G01 X18.6658 Y19.4461
G01 X18.6218 Y19.4354
G01 X18.6017 Y19.4301
G01 X18.5817 Y19.4243
G01 X18.5619 Y19.4180
G01 X18.5192 Y19.4030
G01 X18.4997 Y19.3958
G01 X18.4804 Y19.3880
G01 X18.4613 Y19.3799
G01 X18.4202 Y19.3607
G01 X18.4016 Y19.3516
G01 X18.3831 Y19.3420
G01 X18.3649 Y19.3320
G01 X18.3259 Y19.3089
G01 X18.3082 Y19.2980
G01 X18.2908 Y19.2867
G01 X18.2737 Y19.2750
G01 X18.2569 Y19.2628
G01 X18.2206 Y19.2356
G01 X18.2044 Y19.2226
G01 X18.1885 Y19.2092
G01 X18.1548 Y19.1790
G01 X18.1395 Y19.1649
G01 X18.1247 Y19.1504
G01 X18.1102 Y19.1355
G01 X18.0795 Y19.1021
G01 X18.0658 Y19.0865
G01 X18.0524 Y19.0706
G01 X18.0394 Y19.0544
G01 X18.0268 Y19.0379
G01 X18.0001 Y19.0013
G01 X17.9883 Y18.9842
G01 X17.9770 Y18.9668
G01 X17.9535 Y18.9280
G01 X17.9430 Y18.9101
G01 X17.9330 Y18.8919
G01 X17.9234 Y18.8735
G01 X17.9038 Y18.8326
G01 X17.8952 Y18.8137
G01 X17.8870 Y18.7946
G01 X17.8793 Y18.7753
G01 X17.8720 Y18.7559
G01 X17.8570 Y18.7131
G01 X17.8507 Y18.6933
G01 X17.8449 Y18.6734
G01 X17.8396 Y18.6533
G01 X17.8289 Y18.6093
G01 X17.8246 Y18.5889
G01 X17.8208 Y18.5685
G01 X17.8139 Y18.5237
G01 X17.8111 Y18.5031
G01 X17.8088 Y18.4825
G01 X17.8070 Y18.4618
G01 X17.8045 Y18.4165
G01 X17.8038 Y18.3958
G01 X17.8035 Y17.5750
G01 X17.8038 Y17.5542
G01 X17.8045 Y17.5335
G01 X17.8070 Y17.4882
