(G-CODE GENERATED BY FLATCAM v2024.4 - www.flatcam.org - Version Date: 2024/04/15)

(Name: Rele-F_Cu.gbr_ncc_cnc)
(Type: G-code from Geometry)
(Units: MM)

(Created on Monday, 01 December 2025 at 17:07)

(This preprocessor is the default preprocessor used by FlatCAM.)
(It is made to work with MACH3 compatible motion controllers.)

(TOOL DIAMETER: 1.0 mm)
(Feedrate_XY: 120.0 mm/min)
(Feedrate_Z: 60.0 mm/min)
(Feedrate rapids 1500.0 mm/min)

(Z_Cut: -0.06 mm)
(Z_Move: 2.0 mm)
(Z Start: None mm)
(Z End: 55.0 mm)
(X,Y End: None mm)
(Steps per circle: 64)
(Preprocessor Geometry: Default_no_M6)

(X range:   -0.5000 ...   43.5000  mm)
(Y range:   27.5000 ...   56.5000  mm)

(Spindle Speed: 0.0 RPM)
G21
G90
G94

G01 F120.00

M5
G00 Z15.0000
G00 X0.0000 Y0.0000
T1
(MSG, Change to Tool Dia = 1.0000)
M0
G00 Z15.0000
		
M03
G01 F120.00
G00 X0.7362 Y27.5000
G01 F60.00
G01 Z-0.0600
G01 F120.00
G01 X0.4648 Y27.6243
G01 X0.1141 Y27.7955
G01 X-0.2323 Y27.9752
G01 X-0.5000 Y28.1225
G01 X-0.5000 Y28.8145
G01 X-0.2785 Y28.6854
G01 X0.0505 Y28.5044
G01 X0.3838 Y28.3314
G01 X0.7213 Y28.1667
G01 X1.0627 Y28.0103
G01 X1.4078 Y27.8624
G01 X1.7565 Y27.7230
G01 X2.1085 Y27.5921
G01 X2.3763 Y27.5000
G01 X4.8378 Y27.5000
G01 X4.7498 Y27.5142
G01 X4.3951 Y27.5802
G01 X4.0421 Y27.6549
G01 X3.6911 Y27.7383
G01 X3.3422 Y27.8302
G01 X2.9957 Y27.9307
G01 X2.6518 Y28.0397
G01 X2.3106 Y28.1571
G01 X1.9724 Y28.2828
G01 X1.6374 Y28.4167
G01 X1.3058 Y28.5589
G01 X0.9778 Y28.7091
G01 X0.6536 Y28.8674
G01 X0.3334 Y29.0335
G01 X0.0173 Y29.2075
G01 X-0.2944 Y29.3891
G01 X-0.5000 Y29.5158
G01 X-0.5000 Y30.2281
G01 X-0.2806 Y30.0853
G01 X0.0140 Y29.9038
G01 X0.3130 Y29.7295
G01 X0.6162 Y29.5627
G01 X0.9234 Y29.4033
G01 X1.2344 Y29.2515
G01 X1.5490 Y29.1074
G01 X1.8671 Y28.9710
G01 X2.1884 Y28.8426
G01 X2.5127 Y28.7220
G01 X2.8400 Y28.6094
G01 X3.1699 Y28.5049
G01 X3.5022 Y28.4085
G01 X3.8369 Y28.3203
G01 X4.1736 Y28.2403
G01 X4.5121 Y28.1687
G01 X4.8523 Y28.1053
G01 X5.1940 Y28.0504
G01 X5.5369 Y28.0038
G01 X5.8808 Y27.9656
G01 X6.2256 Y27.9360
G01 X6.5710 Y27.9147
G01 X6.9169 Y27.9020
G01 X7.2629 Y27.8977
G01 X7.6089 Y27.9020
G01 X7.9547 Y27.9147
G01 X8.3002 Y27.9360
G01 X8.6449 Y27.9656
G01 X8.9889 Y28.0038
G01 X9.3318 Y28.0504
G01 X9.6735 Y28.1053
G01 X10.0137 Y28.1687
G01 X10.3522 Y28.2403
G01 X10.6889 Y28.3203
G01 X11.0235 Y28.4085
G01 X11.3559 Y28.5049
G01 X11.6858 Y28.6094
G01 X12.0130 Y28.7220
G01 X12.3374 Y28.8426
G01 X12.6587 Y28.9710
G01 X12.9768 Y29.1074
G01 X13.2914 Y29.2515
G01 X13.6024 Y29.4033
G01 X13.9096 Y29.5627
G01 X14.2128 Y29.7295
G01 X14.5117 Y29.9038
G01 X14.8064 Y30.0853
G01 X15.0964 Y30.2740
G01 X15.3818 Y30.4698
G01 X15.6623 Y30.6725
G01 X15.9377 Y30.8821
G01 X16.2078 Y31.0983
G01 X16.4726 Y31.3211
G01 X16.7319 Y31.5503
G01 X16.9854 Y31.7859
G01 X17.2331 Y32.0275
G01 X17.4748 Y32.2752
G01 X17.6777 Y32.4936
G00 Z2.0000
G00 X17.2359 Y32.8996
G01 F60.00
G01 Z-0.0600
G01 F120.00
G01 X17.0402 Y32.6890
G01 X16.8088 Y32.4518
G01 X16.5717 Y32.2204
G01 X16.3289 Y31.9949
G01 X16.0807 Y31.7754
G01 X15.8272 Y31.5621
G01 X15.5685 Y31.3551
G01 X15.3048 Y31.1544
G01 X15.0363 Y30.9604
G01 X14.7631 Y30.7729
G01 X14.4854 Y30.5922
G01 X14.2033 Y30.4184
G01 X13.9170 Y30.2516
G01 X13.6267 Y30.0918
G01 X13.3326 Y29.9392
G01 X13.0349 Y29.7939
G01 X12.7336 Y29.6559
G01 X12.4291 Y29.5254
G01 X12.1215 Y29.4023
G01 X11.8109 Y29.2869
G01 X11.4976 Y29.1791
G01 X11.1817 Y29.0791
G01 X10.8635 Y28.9868
G01 X10.5431 Y28.9023
G01 X10.2208 Y28.8258
G01 X9.8966 Y28.7571
G01 X9.5709 Y28.6965
G01 X9.2438 Y28.6439
G01 X8.9154 Y28.5993
G01 X8.5861 Y28.5628
G01 X8.2560 Y28.5343
G01 X7.9253 Y28.5140
G01 X7.5942 Y28.5018
G01 X7.2629 Y28.4977
G01 X6.9316 Y28.5018
G01 X6.6005 Y28.5140
G01 X6.2698 Y28.5343
G01 X5.9397 Y28.5628
G01 X5.6103 Y28.5993
G01 X5.2820 Y28.6439
G01 X4.9549 Y28.6965
G01 X4.6292 Y28.7571
G01 X4.3050 Y28.8258
G01 X3.9827 Y28.9023
G01 X3.6623 Y28.9868
G01 X3.3440 Y29.0791
G01 X3.0282 Y29.1791
G01 X2.7149 Y29.2869
G01 X2.4043 Y29.4023
G01 X2.0967 Y29.5254
G01 X1.7921 Y29.6559
G01 X1.4909 Y29.7939
G01 X1.1931 Y29.9392
G01 X0.8990 Y30.0918
G01 X0.6088 Y30.2516
G01 X0.3225 Y30.4184
G01 X0.0404 Y30.5922
G01 X-0.2373 Y30.7729
G01 X-0.5000 Y30.9531
G01 X-0.5000 Y31.6960
G01 X-0.4216 Y31.6364
G01 X-0.1650 Y31.4509
G01 X0.0960 Y31.2718
G01 X0.3614 Y31.0991
G01 X0.6310 Y30.9331
G01 X0.9045 Y30.7736
G01 X1.1819 Y30.6210
G01 X1.4629 Y30.4752
G01 X1.7474 Y30.3363
G01 X2.0353 Y30.2044
G01 X2.3263 Y30.0797
G01 X2.6202 Y29.9621
G01 X2.9170 Y29.8518
G01 X3.2164 Y29.7488
G01 X3.5182 Y29.6532
G01 X3.8223 Y29.5650
G01 X4.1284 Y29.4843
G01 X4.4365 Y29.4112
G01 X4.7462 Y29.3456
G01 X5.0575 Y29.2877
G01 X5.3701 Y29.2374
G01 X5.6838 Y29.1948
G01 X5.9985 Y29.1599
G01 X6.3139 Y29.1327
G01 X6.6299 Y29.1133
G01 X6.9463 Y29.1016
G01 X7.2629 Y29.0977
G01 X7.5795 Y29.1016
G01 X7.8959 Y29.1133
G01 X8.2119 Y29.1327
G01 X8.5273 Y29.1599
G01 X8.8420 Y29.1948
G01 X9.1557 Y29.2374
G01 X9.4683 Y29.2877
G01 X9.7796 Y29.3456
G01 X10.0893 Y29.4112
G01 X10.3973 Y29.4843
G01 X10.7035 Y29.5650
G01 X11.0076 Y29.6532
G01 X11.3094 Y29.7488
G01 X11.6088 Y29.8518
G01 X11.9055 Y29.9621
G01 X12.1995 Y30.0797
G01 X12.4905 Y30.2044
G01 X12.7784 Y30.3363
G01 X13.0629 Y30.4752
G01 X13.3439 Y30.6210
G01 X13.6213 Y30.7736
G01 X13.8948 Y30.9331
G01 X14.1644 Y31.0991
G01 X14.4297 Y31.2718
G01 X14.6908 Y31.4509
G01 X14.9474 Y31.6364
G01 X15.1994 Y31.8281
G01 X15.4466 Y32.0259
G01 X15.6888 Y32.2298
G01 X15.9260 Y32.4395
G01 X16.1580 Y32.6550
G01 X16.3846 Y32.8761
G01 X16.6057 Y33.1027
G01 X16.8114 Y33.3241
G01 X16.3866 Y33.7489
G01 X16.3766 Y33.7376
G01 X16.1711 Y33.5164
G01 X15.9603 Y33.3003
G01 X15.7442 Y33.0895
G01 X15.5231 Y32.8841
G01 X15.2969 Y32.6841
G01 X15.0659 Y32.4897
G01 X14.8302 Y32.3011
G01 X14.5900 Y32.1183
G01 X14.3453 Y31.9415
G01 X14.0964 Y31.7707
G01 X13.8434 Y31.6061
G01 X13.5864 Y31.4477
G01 X13.3255 Y31.2957
G01 X13.0611 Y31.1501
G01 X12.7931 Y31.0111
G01 X12.5218 Y30.8787
G01 X12.2474 Y30.7530
G01 X11.9699 Y30.6340
G01 X11.6896 Y30.5219
G01 X11.4066 Y30.4168
G01 X11.1212 Y30.3186
G01 X10.8334 Y30.2274
G01 X10.5435 Y30.1433
G01 X10.2515 Y30.0664
G01 X9.9578 Y29.9966
G01 X9.6625 Y29.9341
G01 X9.3657 Y29.8788
G01 X9.0677 Y29.8309
G01 X8.7685 Y29.7903
G01 X8.4685 Y29.7570
G01 X8.1677 Y29.7311
G01 X7.8664 Y29.7126
G01 X7.5647 Y29.7015
G01 X7.2629 Y29.6977
G01 X6.9610 Y29.7015
G01 X6.6594 Y29.7126
G01 X6.3580 Y29.7311
G01 X6.0573 Y29.7570
G01 X5.7572 Y29.7903
G01 X5.4581 Y29.8309
G01 X5.1601 Y29.8788
G01 X4.8633 Y29.9341
G01 X4.5679 Y29.9966
G01 X4.2742 Y30.0664
G01 X3.9823 Y30.1433
G01 X3.6924 Y30.2274
G01 X3.4046 Y30.3186
G01 X3.1191 Y30.4168
G01 X2.8362 Y30.5219
G01 X2.5559 Y30.6340
G01 X2.2784 Y30.7530
G01 X2.0040 Y30.8787
G01 X1.7327 Y31.0111
G01 X1.4647 Y31.1501
G01 X1.2002 Y31.2957
G01 X0.9394 Y31.4477
G01 X0.6824 Y31.6061
G01 X0.4294 Y31.7707
G01 X0.1805 Y31.9415
G01 X-0.0642 Y32.1183
G01 X-0.3045 Y32.3011
G01 X-0.5000 Y32.4576
G01 X-0.5000 Y33.2452
G01 X-0.3792 Y33.1384
G01 X-0.1595 Y32.9535
G01 X0.0647 Y32.7741
G01 X0.2932 Y32.6002
G01 X0.5259 Y32.4320
G01 X0.7627 Y32.2696
G01 X1.0034 Y32.1130
G01 X1.2479 Y31.9623
G01 X1.4960 Y31.8177
G01 X1.7475 Y31.6793
G01 X2.0024 Y31.5470
G01 X2.2605 Y31.4211
G01 X2.5216 Y31.3015
G01 X2.7855 Y31.1884
G01 X3.0521 Y31.0817
G01 X3.3213 Y30.9817
G01 X3.5928 Y30.8883
G01 X3.8666 Y30.8015
G01 X4.1424 Y30.7216
G01 X4.4200 Y30.6484
G01 X4.6994 Y30.5820
G01 X4.9803 Y30.5226
G01 X5.2626 Y30.4700
G01 X5.5461 Y30.4244
G01 X5.8307 Y30.3857
G01 X6.1161 Y30.3541
G01 X6.4022 Y30.3295
G01 X6.6888 Y30.3118
G01 X6.9758 Y30.3013
G01 X7.2629 Y30.2977
G01 X7.5500 Y30.3013
G01 X7.8370 Y30.3118
G01 X8.1236 Y30.3295
G01 X8.4097 Y30.3541
G01 X8.6951 Y30.3857
G01 X8.9796 Y30.4244
G01 X9.2631 Y30.4700
G01 X9.5454 Y30.5226
G01 X9.8264 Y30.5820
G01 X10.1058 Y30.6484
G01 X10.3834 Y30.7216
G01 X10.6592 Y30.8015
G01 X10.9330 Y30.8883
G01 X11.2045 Y30.9817
G01 X11.4737 Y31.0817
G01 X11.7403 Y31.1884
G01 X12.0042 Y31.3015
G01 X12.2653 Y31.4211
G01 X12.5233 Y31.5470
G01 X12.7782 Y31.6793
G01 X13.0298 Y31.8177
G01 X13.2779 Y31.9623
G01 X13.5224 Y32.1130
G01 X13.7631 Y32.2696
G01 X13.9998 Y32.4320
G01 X14.2326 Y32.6002
G01 X14.4611 Y32.7741
G01 X14.6853 Y32.9535
G01 X14.9050 Y33.1384
G01 X15.1201 Y33.3286
G01 X15.3305 Y33.5241
G01 X15.5360 Y33.7246
G01 X15.7366 Y33.9301
G01 X15.9320 Y34.1405
G01 X16.0557 Y34.2804
G00 Z2.0000
G00 X16.0248 Y35.1834
G01 F60.00
G01 Z-0.0600
G01 F120.00
G01 X16.0135 Y35.1687
G01 X15.8433 Y34.9560
G01 X15.6679 Y34.7475
G01 X15.4874 Y34.5434
G01 X15.3020 Y34.3438
G01 X15.1118 Y34.1489
G01 X14.9168 Y33.9586
G01 X14.7172 Y33.7732
G01 X14.5131 Y33.5927
G01 X14.3047 Y33.4173
G01 X14.0920 Y33.2471
G01 X13.8752 Y33.0821
G01 X13.6544 Y32.9226
G01 X13.4297 Y32.7684
G01 X13.2014 Y32.6199
G01 X12.9694 Y32.4770
G01 X12.7341 Y32.3398
G01 X12.4954 Y32.2084
G01 X12.2536 Y32.0830
G01 X12.0088 Y31.9635
G01 X11.7611 Y31.8500
G01 X11.5107 Y31.7427
G01 X11.2577 Y31.6415
G01 X11.0024 Y31.5466
G01 X10.7448 Y31.4580
G01 X10.4851 Y31.3757
G01 X10.2234 Y31.2998
G01 X9.9600 Y31.2304
G01 X9.6949 Y31.1675
G01 X9.4284 Y31.1110
G01 X9.1606 Y31.0612
G01 X8.8916 Y31.0179
G01 X8.6216 Y30.9812
G01 X8.3509 Y30.9512
G01 X8.0795 Y30.9278
G01 X7.8075 Y30.9111
G01 X7.5353 Y30.9011
G01 X7.2629 Y30.8977
G01 X6.9905 Y30.9011
G01 X6.7182 Y30.9111
G01 X6.4463 Y30.9278
G01 X6.1749 Y30.9512
G01 X5.9041 Y30.9812
G01 X5.6342 Y31.0179
G01 X5.3652 Y31.0612
G01 X5.0974 Y31.1110
G01 X4.8309 Y31.1675
G01 X4.5658 Y31.2304
G01 X4.3024 Y31.2998
G01 X4.0407 Y31.3757
G01 X3.7810 Y31.4580
G01 X3.5234 Y31.5466
G01 X3.2681 Y31.6415
G01 X3.0151 Y31.7427
G01 X2.7647 Y31.8500
G01 X2.5170 Y31.9635
G01 X2.2722 Y32.0830
G01 X2.0304 Y32.2084
G01 X1.7917 Y32.3398
G01 X1.5564 Y32.4770
G01 X1.3244 Y32.6199
G01 X1.0961 Y32.7684
G01 X0.8714 Y32.9226
G01 X0.6506 Y33.0821
G01 X0.4338 Y33.2471
G01 X0.2211 Y33.4173
G01 X0.0127 Y33.5927
G01 X-0.1914 Y33.7732
G01 X-0.3910 Y33.9586
G01 X-0.5000 Y34.0650
G01 X-0.5000 Y34.9280
G01 X-0.3417 Y34.7576
G01 X-0.1617 Y34.5731
G01 X0.0227 Y34.3932
G01 X0.2115 Y34.2178
G01 X0.4046 Y34.0471
G01 X0.6018 Y33.8811
G01 X0.8030 Y33.7201
G01 X1.0080 Y33.5641
G01 X1.2169 Y33.4131
G01 X1.4294 Y33.2673
G01 X1.6454 Y33.1268
G01 X1.8648 Y32.9916
G01 X2.0875 Y32.8618
G01 X2.3132 Y32.7376
G01 X2.5420 Y32.6189
G01 X2.7736 Y32.5059
G01 X3.0079 Y32.3985
G01 X3.2447 Y32.2970
G01 X3.4840 Y32.2013
G01 X3.7255 Y32.1115
G01 X3.9692 Y32.0277
G01 X4.2149 Y31.9499
G01 X4.4624 Y31.8781
G01 X4.7116 Y31.8124
G01 X4.9623 Y31.7529
G01 X5.2144 Y31.6995
G01 X5.4678 Y31.6523
G01 X5.7222 Y31.6114
G01 X5.9776 Y31.5767
G01 X6.2337 Y31.5483
G01 X6.4905 Y31.5262
G01 X6.7477 Y31.5104
G01 X7.0052 Y31.5009
G01 X7.2629 Y31.4977
G01 X7.5206 Y31.5009
G01 X7.7781 Y31.5104
G01 X8.0353 Y31.5262
G01 X8.2921 Y31.5483
G01 X8.5482 Y31.5767
G01 X8.8036 Y31.6114
G01 X9.0580 Y31.6523
G01 X9.3113 Y31.6995
G01 X9.5635 Y31.7529
G01 X9.8142 Y31.8124
G01 X10.0634 Y31.8781
G01 X10.3109 Y31.9499
G01 X10.5565 Y32.0277
G01 X10.8002 Y32.1115
G01 X11.0418 Y32.2013
G01 X11.2811 Y32.2970
G01 X11.5179 Y32.3985
G01 X11.7522 Y32.5059
G01 X11.9838 Y32.6189
G01 X12.2126 Y32.7376
G01 X12.4383 Y32.8618
G01 X12.6610 Y32.9916
G01 X12.8804 Y33.1268
G01 X13.0964 Y33.2673
G01 X13.3089 Y33.4131
G01 X13.5177 Y33.5641
G01 X13.7228 Y33.7201
G01 X13.9240 Y33.8811
G01 X14.1212 Y34.0471
G01 X14.3143 Y34.2178
G01 X14.5031 Y34.3932
G01 X14.6875 Y34.5731
G01 X14.8675 Y34.7576
G01 X15.0429 Y34.9464
G01 X15.2136 Y35.1394
G01 X15.3795 Y35.3366
G01 X15.5405 Y35.5378
G01 X15.6966 Y35.7429
G01 X15.7155 Y35.7690
G00 Z2.0000
G00 X16.0248 Y35.4259
G01 F60.00
G01 Z-0.0600
G01 F120.00
G01 X16.0248 Y34.5250
G01 X16.0254 Y34.5005
G01 X16.0285 Y34.4392
G01 X16.0309 Y34.4148
G01 X16.0326 Y34.4026
G01 X16.0398 Y34.3541
G01 X16.0440 Y34.3299
G01 X16.0494 Y34.3059
G01 X16.0613 Y34.2583
G01 X16.0644 Y34.2464
G01 X16.0715 Y34.2230
G01 X16.0921 Y34.1651
G01 X16.1009 Y34.1422
G01 X16.1108 Y34.1198
G01 X16.1372 Y34.0644
G01 X16.1488 Y34.0427
G01 X16.1550 Y34.0321
G01 X16.1802 Y33.9900
G01 X16.1933 Y33.9693
G01 X16.2075 Y33.9492
G01 X16.2441 Y33.9000
G01 X16.2597 Y33.8811
G01 X16.2678 Y33.8719
G01 X16.3008 Y33.8355
G01 X16.3177 Y33.8177
G01 X17.5027 Y32.6327
G01 X17.5205 Y32.6158
G01 X17.5569 Y32.5828
G01 X17.5755 Y32.5668
G01 X17.5850 Y32.5591
G01 X17.6442 Y32.5153
G01 X17.6543 Y32.5083
G01 X17.6750 Y32.4952
G01 X17.7171 Y32.4700
G01 X17.7385 Y32.4579
G01 X17.7604 Y32.4468
G01 X17.8048 Y32.4258
G01 X17.8160 Y32.4207
G01 X17.8386 Y32.4113
G01 X17.8964 Y32.3905
G01 X17.9197 Y32.3828
G01 X17.9314 Y32.3794
G01 X18.0029 Y32.3615
G01 X18.0269 Y32.3567
G01 X18.0876 Y32.3476
G01 X18.0998 Y32.3459
G01 X18.1242 Y32.3435
G01 X18.1855 Y32.3404
G01 X18.2100 Y32.3398
G01 X18.7852 Y32.3398
G01 X18.7939 Y32.3201
G01 X18.8275 Y32.2491
G01 X18.8385 Y32.2272
G01 X18.8506 Y32.2058
G01 X18.8974 Y32.1281
G01 X18.9110 Y32.1077
G01 X18.9182 Y32.0977
G01 X18.9724 Y32.0249
G01 X18.9880 Y32.0059
G01 X19.0248 Y31.9651
G01 X19.0248 Y31.5250
G01 X19.0254 Y31.5005
G01 X19.0278 Y31.4514
G01 X19.0285 Y31.4392
G01 X19.0309 Y31.4148
G01 X19.0398 Y31.3541
G01 X19.0440 Y31.3299
G01 X19.0494 Y31.3059
G01 X19.0613 Y31.2583
G01 X19.0678 Y31.2347
G01 X19.0755 Y31.2114
G01 X19.0921 Y31.1651
G01 X19.1009 Y31.1422
G01 X19.1108 Y31.1198
G01 X19.1318 Y31.0754
G01 X19.1429 Y31.0535
G01 X19.1488 Y31.0427
G01 X19.1866 Y30.9796
G01 X19.2003 Y30.9592
G01 X19.2075 Y30.9492
G01 X19.2367 Y30.9098
G01 X19.2518 Y30.8905
G01 X19.2678 Y30.8719
G01 X19.3008 Y30.8355
G01 X19.3177 Y30.8177
G01 X19.6947 Y30.4409
G01 X19.7401 Y30.3996
G01 X19.7587 Y30.3836
G01 X19.7683 Y30.3759
G01 X19.7913 Y30.3586
G01 X19.8175 Y30.3392
G01 X19.8375 Y30.3251
G01 X19.8583 Y30.3120
G01 X19.8828 Y30.2973
G01 X19.9110 Y30.2806
G01 X19.9217 Y30.2746
G01 X19.9436 Y30.2636
G01 X19.9992 Y30.2375
G01 X20.0105 Y30.2327
G01 X20.0334 Y30.2238
G01 X20.0796 Y30.2073
G01 X20.1029 Y30.1996
G01 X20.1265 Y30.1931
G01 X20.1742 Y30.1811
G01 X20.1981 Y30.1758
G01 X20.2223 Y30.1716
G01 X20.2708 Y30.1644
G01 X20.2952 Y30.1614
G01 X20.3197 Y30.1595
G01 X20.3687 Y30.1571
G01 X20.3932 Y30.1565
G01 X26.6568 Y30.1565
G01 X26.6813 Y30.1571
G01 X26.7426 Y30.1603
G01 X26.7548 Y30.1614
G01 X26.7792 Y30.1644
G01 X26.8277 Y30.1716
G01 X26.8519 Y30.1758
G01 X26.8759 Y30.1811
G01 X26.9235 Y30.1931
G01 X26.9471 Y30.1996
G01 X26.9704 Y30.2073
G01 X27.0167 Y30.2238
G01 X27.0396 Y30.2327
G01 X27.0620 Y30.2426
G01 X27.1064 Y30.2636
G01 X27.1174 Y30.2690
G01 X27.1390 Y30.2806
G01 X27.1918 Y30.3120
G01 X27.2125 Y30.3251
G01 X27.2326 Y30.3392
G01 X27.2720 Y30.3685
G01 X27.2913 Y30.3836
G01 X27.3099 Y30.3996
G01 X27.3463 Y30.4326
G01 X27.3641 Y30.4495
G01 X28.7323 Y31.8177
G01 X28.7492 Y31.8355
G01 X28.7822 Y31.8719
G01 X28.7982 Y31.8905
G01 X28.8059 Y31.9000
G01 X28.8426 Y31.9492
G01 X28.8567 Y31.9693
G01 X28.8698 Y31.9900
G01 X28.9012 Y32.0427
G01 X28.9072 Y32.0535
G01 X28.9182 Y32.0754
G01 X28.9392 Y32.1198
G01 X28.9491 Y32.1422
G01 X28.9580 Y32.1651
G01 X28.9785 Y32.2230
G01 X28.9856 Y32.2464
G01 X29.0007 Y32.3059
G01 X29.0060 Y32.3299
G01 X29.0083 Y32.3419
G01 X29.0174 Y32.4026
G01 X29.0204 Y32.4270
G01 X29.0223 Y32.4514
G01 X29.0247 Y32.5005
G01 X29.0253 Y32.5250
G01 X29.0253 Y41.7949
G01 X29.1154 Y41.8489
G01 X29.1362 Y41.8621
G01 X29.1562 Y41.8762
G01 X29.2745 Y41.9639
G01 X29.2938 Y41.9790
G01 X29.3124 Y41.9950
G01 X29.4215 Y42.0939
G01 X29.4392 Y42.1108
G01 X29.4561 Y42.1286
G01 X29.5550 Y42.2376
G01 X29.5710 Y42.2562
G01 X29.5861 Y42.2756
G01 X29.6810 Y42.4038
G01 X29.6946 Y42.4242
G01 X29.7011 Y42.4346
G01 X29.7768 Y42.5609
G01 X29.7889 Y42.5822
G01 X29.7999 Y42.6041
G01 X29.8628 Y42.7372
G01 X29.8728 Y42.7596
G01 X29.8816 Y42.7825
G01 X29.9312 Y42.9211
G01 X29.9389 Y42.9444
G01 X29.9454 Y42.9681
G01 X29.9840 Y43.1228
G01 X29.9866 Y43.1348
G01 X29.9908 Y43.1590
G01 X30.0124 Y43.3046
G01 X30.0154 Y43.3290
G01 X30.0172 Y43.3535
G01 X30.0244 Y43.5005
G01 X30.0250 Y43.5250
G01 X30.0244 Y43.5495
G01 X30.0172 Y43.6966
G01 X30.0154 Y43.7210
G01 X30.0124 Y43.7454
G01 X29.9908 Y43.8910
G01 X29.9866 Y43.9152
G01 X29.9812 Y43.9391
G01 X29.9454 Y44.0819
G01 X29.9389 Y44.1056
G01 X29.9312 Y44.1289
G01 X29.8816 Y44.2675
G01 X29.8728 Y44.2904
G01 X29.8628 Y44.3128
G01 X29.7999 Y44.4459
G01 X29.7889 Y44.4678
G01 X29.7768 Y44.4892
G01 X29.7011 Y44.6154
G01 X29.6880 Y44.6362
G01 X29.6738 Y44.6562
G01 X29.5861 Y44.7745
G01 X29.5710 Y44.7938
G01 X29.5550 Y44.8124
G01 X29.4561 Y44.9215
G01 X29.4392 Y44.9392
G01 X29.4215 Y44.9561
G01 X29.3124 Y45.0550
G01 X29.2938 Y45.0710
G01 X29.2745 Y45.0861
G01 X29.1562 Y45.1738
G01 X29.1362 Y45.1880
G01 X29.1154 Y45.2011
G01 X28.9892 Y45.2768
G01 X28.9678 Y45.2889
G01 X28.9459 Y45.2999
G01 X28.8128 Y45.3628
G01 X28.7904 Y45.3728
G01 X28.7675 Y45.3816
G01 X28.6289 Y45.4312
G01 X28.6056 Y45.4389
G01 X28.5819 Y45.4454
G01 X28.4391 Y45.4812
G01 X28.4152 Y45.4866
G01 X28.3910 Y45.4908
G01 X28.2454 Y45.5124
G01 X28.2210 Y45.5154
G01 X28.1966 Y45.5172
G01 X28.0495 Y45.5244
G01 X28.0250 Y45.5250
G01 X28.0005 Y45.5244
G01 X27.8535 Y45.5172
G01 X27.8290 Y45.5154
G01 X27.8046 Y45.5124
G01 X27.6590 Y45.4908
G01 X27.6348 Y45.4866
G01 X27.6109 Y45.4812
G01 X27.4681 Y45.4454
G01 X27.4444 Y45.4389
G01 X27.4211 Y45.4312
G01 X27.2825 Y45.3816
G01 X27.2596 Y45.3728
G01 X27.2372 Y45.3628
G01 X27.1041 Y45.2999
G01 X27.0822 Y45.2889
G01 X27.0609 Y45.2768
G01 X26.9346 Y45.2011
G01 X26.9139 Y45.1880
G01 X26.8938 Y45.1738
G01 X26.7756 Y45.0861
G01 X26.7562 Y45.0710
G01 X26.7376 Y45.0550
G01 X26.6286 Y44.9561
G01 X26.6108 Y44.9392
G01 X26.5939 Y44.9215
G01 X26.4950 Y44.8124
G01 X26.4790 Y44.7938
G01 X26.4639 Y44.7745
G01 X26.3762 Y44.6562
G01 X26.3621 Y44.6362
G01 X26.3489 Y44.6154
G01 X26.2733 Y44.4892
G01 X26.2612 Y44.4678
G01 X26.2501 Y44.4459
G01 X26.1872 Y44.3128
G01 X26.1773 Y44.2904
G01 X26.1684 Y44.2675
G01 X26.1188 Y44.1289
G01 X26.1111 Y44.1056
G01 X26.1077 Y44.0938
G01 X26.0688 Y43.9391
G01 X26.0634 Y43.9152
G01 X26.0592 Y43.8910
G01 X26.0376 Y43.7454
G01 X26.0346 Y43.7210
G01 X26.0328 Y43.6966
G01 X26.0256 Y43.5495
G01 X26.0250 Y43.5250
G01 X26.0256 Y43.5005
G01 X26.0328 Y43.3535
G01 X26.0346 Y43.3290
G01 X26.0376 Y43.3046
G01 X26.0592 Y43.1590
G01 X26.0634 Y43.1348
G01 X26.0688 Y43.1109
G01 X26.1046 Y42.9681
G01 X26.1111 Y42.9444
G01 X26.1188 Y42.9211
G01 X26.1727 Y42.7710
G01 X26.1821 Y42.7484
G01 X26.1872 Y42.7372
G01 X26.2501 Y42.6041
G01 X26.2612 Y42.5822
G01 X26.2733 Y42.5609
G01 X26.3489 Y42.4346
G01 X26.3621 Y42.4139
G01 X26.3762 Y42.3938
G01 X26.4639 Y42.2756
G01 X26.4713 Y42.2658
G01 X26.4869 Y42.2468
G01 X26.5939 Y42.1286
G01 X26.6108 Y42.1108
G01 X26.6286 Y42.0939
G01 X26.7376 Y41.9950
G01 X26.7562 Y41.9790
G01 X26.7756 Y41.9639
G01 X26.8938 Y41.8762
G01 X26.9139 Y41.8621
G01 X26.9346 Y41.8489
G01 X27.0248 Y41.7949
G01 X27.0248 Y32.9393
G01 X26.2425 Y32.1570
G01 X26.1702 Y32.1570
G01 X26.2056 Y32.2164
G01 X26.2172 Y32.2381
G01 X26.2561 Y32.3201
G01 X26.2661 Y32.3425
G01 X26.2749 Y32.3654
G01 X26.3013 Y32.4393
G01 X26.3090 Y32.4626
G01 X26.3156 Y32.4863
G01 X26.3347 Y32.5625
G01 X26.3400 Y32.5864
G01 X26.3442 Y32.6106
G01 X26.3557 Y32.6882
G01 X26.3574 Y32.7004
G01 X26.3598 Y32.7248
G01 X26.3644 Y32.8155
G01 X26.3650 Y32.8400
G01 X26.3644 Y32.8645
G01 X26.3606 Y32.9430
G01 X26.3588 Y32.9674
G01 X26.3557 Y32.9918
G01 X26.3442 Y33.0694
G01 X26.3423 Y33.0816
G01 X26.3375 Y33.1056
G01 X26.3156 Y33.1937
G01 X26.3090 Y33.2174
G01 X26.3013 Y33.2407
G01 X26.2706 Y33.3261
G01 X26.2661 Y33.3375
G01 X26.2561 Y33.3599
G01 X26.2225 Y33.4309
G01 X26.2172 Y33.4419
G01 X26.2056 Y33.4636
G01 X26.1526 Y33.5520
G01 X26.1390 Y33.5724
G01 X26.1053 Y33.6181
G01 X26.1051 Y35.4573
G01 X26.1023 Y35.5186
G01 X26.1004 Y35.5431
G01 X26.0974 Y35.5674
G01 X26.0883 Y35.6281
G01 X26.0835 Y35.6522
G01 X26.0687 Y35.7117
G01 X26.0622 Y35.7354
G01 X26.0545 Y35.7587
G01 X26.0337 Y35.8164
G01 X26.0243 Y35.8391
G01 X25.9982 Y35.8946
G01 X25.9872 Y35.9165
G01 X25.9812 Y35.9273
G01 X25.9498 Y35.9800
G01 X25.9367 Y36.0007
G01 X25.9297 Y36.0108
G01 X25.8859 Y36.0700
G01 X25.8703 Y36.0890
G01 X25.8622 Y36.0981
G01 X25.8292 Y36.1345
G01 X25.8123 Y36.1523
G01 X24.8323 Y37.1323
G01 X24.8145 Y37.1492
G01 X24.7781 Y37.1822
G01 X24.7596 Y37.1982
G01 X24.7500 Y37.2059
G01 X24.6908 Y37.2497
G01 X24.6704 Y37.2634
G01 X24.6600 Y37.2698
G01 X24.6179 Y37.2951
G01 X24.5965 Y37.3072
G01 X24.5746 Y37.3182
G01 X24.5302 Y37.3392
G01 X24.5191 Y37.3443
G01 X24.4964 Y37.3537
G01 X24.4271 Y37.3785
G01 X24.4036 Y37.3856
G01 X24.3917 Y37.3887
G01 X24.3441 Y37.4007
G01 X24.3202 Y37.4060
G01 X24.2960 Y37.4102
G01 X24.2353 Y37.4191
G01 X24.2231 Y37.4204
G01 X24.1986 Y37.4223
G01 X24.1495 Y37.4247
G01 X24.1250 Y37.4253
G01 X23.6593 Y37.4253
G01 X23.6352 Y37.4469
G01 X23.6162 Y37.4624
G01 X23.5868 Y37.4845
G01 X23.5667 Y37.4986
G01 X23.5460 Y37.5117
G01 X23.5143 Y37.5305
G01 X23.5036 Y37.5365
G01 X23.4816 Y37.5475
G01 X23.4483 Y37.5631
G01 X23.4256 Y37.5725
G01 X23.3910 Y37.5850
G01 X23.3677 Y37.5927
G01 X23.3441 Y37.5993
G01 X23.3083 Y37.6081
G01 X23.2843 Y37.6128
G01 X23.2479 Y37.6184
G01 X23.2235 Y37.6214
G01 X23.2113 Y37.6225
G01 X23.1745 Y37.6244
G01 X23.1500 Y37.6250
G01 X21.9000 Y37.6250
G01 X21.8877 Y37.6249
G01 X21.8510 Y37.6232
G01 X21.8265 Y37.6214
G01 X21.8143 Y37.6200
G01 X21.7779 Y37.6148
G01 X21.7537 Y37.6106
G01 X21.7417 Y37.6081
G01 X21.7060 Y37.5993
G01 X21.6823 Y37.5927
G01 X21.6590 Y37.5850
G01 X21.6244 Y37.5725
G01 X21.6017 Y37.5631
G01 X21.5684 Y37.5475
G01 X21.5465 Y37.5365
G01 X21.5251 Y37.5244
G01 X21.4936 Y37.5053
G01 X21.4732 Y37.4917
G01 X21.4436 Y37.4699
G01 X21.4242 Y37.4548
G01 X21.4148 Y37.4469
G01 X21.3875 Y37.4223
G01 X21.3697 Y37.4053
G01 X21.3528 Y37.3876
G01 X21.3282 Y37.3602
G01 X21.3126 Y37.3412
G01 X21.2905 Y37.3118
G01 X21.2764 Y37.2917
G01 X21.2633 Y37.2710
G01 X21.2445 Y37.2393
G01 X21.2329 Y37.2177
G01 X21.2170 Y37.1845
G01 X21.2071 Y37.1620
G01 X21.1983 Y37.1391
G01 X21.1860 Y37.1044
G01 X21.1823 Y37.0927
G01 X21.1758 Y37.0691
G01 X21.1670 Y37.0333
G01 X21.1622 Y37.0093
G01 X21.1566 Y36.9729
G01 X21.1536 Y36.9485
G01 X21.1526 Y36.9363
G01 X21.1506 Y36.8995
G01 X21.1500 Y36.8750
G01 X21.1500 Y36.0750
G01 X21.1506 Y36.0505
G01 X21.1526 Y36.0137
G01 X21.1536 Y36.0015
G01 X21.1550 Y35.9893
G01 X21.1602 Y35.9529
G01 X21.1644 Y35.9287
G01 X21.1670 Y35.9167
G01 X21.1758 Y35.8810
G01 X21.1823 Y35.8573
G01 X21.1860 Y35.8456
G01 X21.1983 Y35.8109
G01 X21.2071 Y35.7880
G01 X21.2170 Y35.7656
G01 X21.2329 Y35.7324
G01 X21.2386 Y35.7215
G01 X21.2445 Y35.7107
G01 X21.2633 Y35.6791
G01 X21.2764 Y35.6583
G01 X21.2905 Y35.6383
G01 X21.3126 Y35.6088
G01 X21.3203 Y35.5992
G01 X21.3282 Y35.5898
G01 X21.3528 Y35.5625
G01 X21.3697 Y35.5447
G01 X21.3875 Y35.5278
G01 X21.4148 Y35.5032
G01 X21.4242 Y35.4953
G01 X21.4338 Y35.4876
G01 X21.4633 Y35.4655
G01 X21.4833 Y35.4514
G01 X21.5041 Y35.4383
G01 X21.5357 Y35.4195
G01 X21.5574 Y35.4079
G01 X21.5906 Y35.3920
G01 X21.6017 Y35.3869
G01 X21.6244 Y35.3775
G01 X21.6590 Y35.3650
G01 X21.6823 Y35.3573
G01 X21.7060 Y35.3508
G01 X21.7417 Y35.3420
G01 X21.7658 Y35.3372
G01 X21.8021 Y35.3316
G01 X21.8143 Y35.3300
G01 X21.8387 Y35.3276
G01 X21.8755 Y35.3256
G01 X21.9000 Y35.3250
G01 X23.1500 Y35.3250
G01 X23.1623 Y35.3252
G01 X23.1991 Y35.3268
G01 X23.2235 Y35.3286
G01 X23.2357 Y35.3300
G01 X23.2843 Y35.3372
G01 X23.2963 Y35.3394
G01 X23.3203 Y35.3448
G01 X23.3559 Y35.3539
G01 X23.3677 Y35.3573
G01 X23.3794 Y35.3610
G01 X23.4141 Y35.3733
G01 X23.4370 Y35.3821
G01 X23.4483 Y35.3869
G01 X23.4927 Y35.4079
G01 X23.5036 Y35.4136
G01 X23.5234 Y35.4248
G01 X23.7107 Y35.4248
G01 X24.1048 Y35.0307
G01 X24.1048 Y33.7149
G01 X24.0680 Y33.6741
G01 X24.0524 Y33.6551
G01 X23.9910 Y33.5724
G01 X23.9774 Y33.5520
G01 X23.9710 Y33.5415
G01 X23.9306 Y33.4742
G01 X23.9244 Y33.4636
G01 X23.9129 Y33.4419
G01 X23.8688 Y33.3488
G01 X23.8640 Y33.3375
G01 X23.8551 Y33.3146
G01 X23.8287 Y33.2407
G01 X23.8210 Y33.2174
G01 X23.8144 Y33.1937
G01 X23.7950 Y33.1161
G01 X23.7756 Y33.1937
G01 X23.7690 Y33.2174
G01 X23.7613 Y33.2407
G01 X23.7349 Y33.3146
G01 X23.7261 Y33.3375
G01 X23.7161 Y33.3599
G01 X23.6825 Y33.4309
G01 X23.6715 Y33.4528
G01 X23.6594 Y33.4742
G01 X23.6191 Y33.5415
G01 X23.6059 Y33.5623
G01 X23.5918 Y33.5823
G01 X23.5450 Y33.6454
G01 X23.5299 Y33.6647
G01 X23.5139 Y33.6833
G01 X23.4612 Y33.7415
G01 X23.4443 Y33.7593
G01 X23.4265 Y33.7762
G01 X23.3683 Y33.8289
G01 X23.3497 Y33.8449
G01 X23.3304 Y33.8600
G01 X23.2673 Y33.9068
G01 X23.2473 Y33.9209
G01 X23.2265 Y33.9341
G01 X23.1592 Y33.9744
G01 X23.1378 Y33.9865
G01 X23.1159 Y33.9975
G01 X23.0449 Y34.0311
G01 X23.0225 Y34.0411
G01 X22.9996 Y34.0499
G01 X22.9257 Y34.0763
G01 X22.9024 Y34.0840
G01 X22.8787 Y34.0906
G01 X22.7906 Y34.1125
G01 X22.7786 Y34.1150
G01 X22.7544 Y34.1192
G01 X22.6768 Y34.1307
G01 X22.6524 Y34.1338
G01 X22.6280 Y34.1356
G01 X22.5495 Y34.1394
G01 X22.5250 Y34.1400
G01 X22.5005 Y34.1394
G01 X22.4221 Y34.1356
G01 X22.3976 Y34.1338
G01 X22.3732 Y34.1307
G01 X22.2956 Y34.1192
G01 X22.2714 Y34.1150
G01 X22.2475 Y34.1097
G01 X22.1713 Y34.0906
G01 X22.1476 Y34.0840
G01 X22.1243 Y34.0763
G01 X22.0504 Y34.0499
G01 X22.0275 Y34.0411
G01 X22.0051 Y34.0311
G01 X21.9341 Y33.9975
G01 X21.9122 Y33.9865
G01 X21.8908 Y33.9744
G01 X21.8131 Y33.9276
G01 X21.7927 Y33.9140
G01 X21.7827 Y33.9068
G01 X21.7196 Y33.8600
G01 X21.7003 Y33.8449
G01 X21.6817 Y33.8289
G01 X21.6235 Y33.7762
G01 X21.6058 Y33.7593
G01 X21.5889 Y33.7415
G01 X21.5361 Y33.6833
G01 X21.5201 Y33.6647
G01 X21.5050 Y33.6454
G01 X21.4510 Y33.5724
G01 X21.4374 Y33.5520
G01 X21.4310 Y33.5415
G01 X21.3906 Y33.4742
G01 X21.3785 Y33.4528
G01 X21.3675 Y33.4309
G01 X21.3288 Y33.3488
G01 X21.3240 Y33.3375
G01 X21.3151 Y33.3146
G01 X21.2847 Y33.2291
G01 X21.2776 Y33.2056
G01 X21.2744 Y33.1937
G01 X21.2550 Y33.1161
G01 X21.2356 Y33.1937
G01 X21.2290 Y33.2174
G01 X21.2213 Y33.2407
G01 X21.1949 Y33.3146
G01 X21.1861 Y33.3375
G01 X21.1812 Y33.3488
G01 X21.1372 Y33.4419
G01 X21.1256 Y33.4636
G01 X21.1194 Y33.4742
G01 X21.0791 Y33.5415
G01 X21.0659 Y33.5623
G01 X21.0590 Y33.5724
G01 X20.9976 Y33.6551
G01 X20.9820 Y33.6741
G01 X20.9573 Y33.7016
G01 X20.9491 Y33.7228
G01 X20.9443 Y33.7341
G01 X20.9182 Y33.7896
G01 X20.9072 Y33.8115
G01 X20.8951 Y33.8329
G01 X20.8634 Y33.8854
G01 X20.8497 Y33.9058
G01 X20.8426 Y33.9158
G01 X20.8133 Y33.9552
G01 X20.7982 Y33.9746
G01 X20.7822 Y33.9931
G01 X20.7492 Y34.0295
G01 X20.7409 Y34.0385
G01 X20.7235 Y34.0559
G01 X20.6781 Y34.0972
G01 X20.6596 Y34.1132
G01 X20.6402 Y34.1283
G01 X20.5908 Y34.1647
G01 X20.5807 Y34.1717
G01 X20.5600 Y34.1848
G01 X20.5179 Y34.2101
G01 X20.4965 Y34.2222
G01 X20.4746 Y34.2332
G01 X20.4302 Y34.2542
G01 X20.4191 Y34.2593
G01 X20.3964 Y34.2687
G01 X20.3271 Y34.2935
G01 X20.3154 Y34.2972
G01 X20.2917 Y34.3037
G01 X20.2322 Y34.3185
G01 X20.2081 Y34.3233
G01 X20.1960 Y34.3252
G01 X20.1353 Y34.3341
G01 X20.1108 Y34.3365
G01 X20.0495 Y34.3397
G01 X20.0250 Y34.3403
G01 X18.6243 Y34.3403
G01 X18.0253 Y34.9393
G01 X18.0253 Y35.4259
G01 X18.0564 Y35.4447
G01 X18.0667 Y35.4514
G01 X18.0768 Y35.4584
G01 X18.1065 Y35.4802
G01 X18.1162 Y35.4876
G01 X18.1352 Y35.5032
G01 X18.1626 Y35.5278
G01 X18.1716 Y35.5361
G01 X18.1889 Y35.5535
G01 X18.2219 Y35.5898
G01 X18.2374 Y35.6088
G01 X18.2667 Y35.6482
G01 X18.2803 Y35.6686
G01 X18.2867 Y35.6791
G01 X18.3055 Y35.7107
G01 X18.3115 Y35.7215
G01 X18.3171 Y35.7324
G01 X18.3330 Y35.7656
G01 X18.3429 Y35.7880
G01 X18.3518 Y35.8109
G01 X18.3640 Y35.8456
G01 X18.3677 Y35.8573
G01 X18.3711 Y35.8691
G01 X18.3802 Y35.9047
G01 X18.3856 Y35.9287
G01 X18.3898 Y35.9529
G01 X18.3950 Y35.9893
G01 X18.3964 Y36.0015
G01 X18.3982 Y36.0260
G01 X18.3999 Y36.0627
G01 X18.4000 Y36.8750
G01 X18.3999 Y36.8873
G01 X18.3982 Y36.9241
G01 X18.3964 Y36.9485
G01 X18.3934 Y36.9729
G01 X18.3878 Y37.0093
G01 X18.3831 Y37.0333
G01 X18.3743 Y37.0691
G01 X18.3677 Y37.0927
G01 X18.3600 Y37.1160
G01 X18.3475 Y37.1506
G01 X18.3429 Y37.1620
G01 X18.3330 Y37.1845
G01 X18.3171 Y37.2177
G01 X18.3055 Y37.2393
G01 X18.2867 Y37.2710
G01 X18.2736 Y37.2917
G01 X18.2595 Y37.3118
G01 X18.2374 Y37.3412
G01 X18.2219 Y37.3602
G01 X18.1973 Y37.3876
G01 X18.1803 Y37.4053
G01 X18.1626 Y37.4223
G01 X18.1352 Y37.4469
G01 X18.1162 Y37.4624
G01 X18.0868 Y37.4845
G01 X18.0667 Y37.4986
G01 X18.0460 Y37.5117
G01 X18.0143 Y37.5305
G01 X17.9927 Y37.5421
G01 X17.9595 Y37.5580
G01 X17.9483 Y37.5631
G01 X17.9256 Y37.5725
G01 X17.8910 Y37.5850
G01 X17.8677 Y37.5927
G01 X17.8441 Y37.5993
G01 X17.8083 Y37.6081
G01 X17.7963 Y37.6106
G01 X17.7722 Y37.6148
G01 X17.7357 Y37.6200
G01 X17.7235 Y37.6214
G01 X17.6991 Y37.6232
G01 X17.6623 Y37.6249
G01 X16.4000 Y37.6250
G01 X16.3877 Y37.6249
G01 X16.3510 Y37.6232
G01 X16.3265 Y37.6214
G01 X16.3143 Y37.6200
G01 X16.2779 Y37.6148
G01 X16.2537 Y37.6106
G01 X16.2417 Y37.6081
G01 X16.2060 Y37.5993
G01 X16.1823 Y37.5927
G01 X16.1706 Y37.5890
G01 X16.1359 Y37.5768
G01 X16.1130 Y37.5679
G01 X16.1017 Y37.5631
G01 X16.0684 Y37.5475
G01 X16.0465 Y37.5365
G01 X16.0357 Y37.5305
G01 X16.0041 Y37.5117
G01 X15.9833 Y37.4986
G01 X15.9633 Y37.4845
G01 X15.9338 Y37.4624
G01 X15.9242 Y37.4548
G01 X15.9148 Y37.4469
G01 X15.8875 Y37.4223
G01 X15.8697 Y37.4053
G01 X15.8528 Y37.3876
G01 X15.8282 Y37.3602
G01 X15.8203 Y37.3508
G01 X15.8052 Y37.3315
G01 X15.7834 Y37.3018
G01 X15.7697 Y37.2814
G01 X15.7507 Y37.2499
G01 X15.7386 Y37.2286
G01 X15.7275 Y37.2066
G01 X15.7119 Y37.1733
G01 X15.7071 Y37.1620
G01 X15.6983 Y37.1391
G01 X15.6860 Y37.1044
G01 X15.6789 Y37.0809
G01 X15.6698 Y37.0453
G01 X15.6644 Y37.0213
G01 X15.6602 Y36.9972
G01 X15.6550 Y36.9607
G01 X15.6526 Y36.9363
G01 X15.6518 Y36.9241
G01 X15.6502 Y36.8873
G01 X15.6500 Y36.8750
G01 X15.6500 Y36.0750
G01 X15.6506 Y36.0505
G01 X15.6526 Y36.0137
G01 X15.6536 Y36.0015
G01 X15.6550 Y35.9893
G01 X15.6602 Y35.9529
G01 X15.6622 Y35.9408
G01 X15.6670 Y35.9167
G01 X15.6789 Y35.8691
G01 X15.6823 Y35.8573
G01 X15.6900 Y35.8340
G01 X15.7025 Y35.7994
G01 X15.7071 Y35.7880
G01 X15.7119 Y35.7767
G01 X15.7275 Y35.7434
G01 X15.7329 Y35.7324
G01 X15.7445 Y35.7107
G01 X15.7697 Y35.6686
G01 X15.7764 Y35.6583
G01 X15.7905 Y35.6383
G01 X15.8126 Y35.6088
G01 X15.8203 Y35.5992
G01 X15.8282 Y35.5898
G01 X15.8528 Y35.5625
G01 X15.8697 Y35.5447
G01 X15.8785 Y35.5361
G01 X15.9148 Y35.5032
G01 X15.9338 Y35.4876
G01 X15.9436 Y35.4802
G01 X15.9732 Y35.4584
G01 X15.9833 Y35.4514
G01 X15.9936 Y35.4447
G01 X16.0248 Y35.4259
G00 Z2.0000
G00 X15.6500 Y36.7387
G01 F60.00
G01 Z-0.0600
G01 F120.00
G01 X15.6269 Y36.7013
G01 X15.4944 Y36.4976
G01 X15.3570 Y36.2972
G01 X15.2146 Y36.1003
G01 X15.0675 Y35.9070
G01 X14.9157 Y35.7173
G01 X14.7593 Y35.5313
G01 X14.5983 Y35.3493
G01 X14.4329 Y35.1713
G01 X14.2632 Y34.9974
G01 X14.0893 Y34.8277
G01 X13.9113 Y34.6623
G01 X13.7293 Y34.5014
G01 X13.5434 Y34.3449
G01 X13.3537 Y34.1931
G01 X13.1603 Y34.0460
G01 X12.9634 Y33.9037
G01 X12.7630 Y33.7662
G01 X12.5594 Y33.6337
G01 X12.3525 Y33.5062
G01 X12.1426 Y33.3839
G01 X11.9297 Y33.2667
G01 X11.7140 Y33.1548
G01 X11.4957 Y33.0483
G01 X11.2748 Y32.9471
G01 X11.0515 Y32.8513
G01 X10.8259 Y32.7611
G01 X10.5981 Y32.6765
G01 X10.3683 Y32.5974
G01 X10.1367 Y32.5240
G01 X9.9033 Y32.4564
G01 X9.6684 Y32.3944
G01 X9.4320 Y32.3383
G01 X9.1943 Y32.2880
G01 X8.9554 Y32.2435
G01 X8.7155 Y32.2049
G01 X8.4748 Y32.1722
G01 X8.2333 Y32.1454
G01 X7.9912 Y32.1246
G01 X7.7487 Y32.1097
G01 X7.5058 Y32.1007
G01 X7.2629 Y32.0977
G01 X7.0199 Y32.1007
G01 X6.7771 Y32.1097
G01 X6.5346 Y32.1246
G01 X6.2925 Y32.1454
G01 X6.0510 Y32.1722
G01 X5.8103 Y32.2049
G01 X5.5704 Y32.2435
G01 X5.3315 Y32.2880
G01 X5.0938 Y32.3383
G01 X4.8574 Y32.3944
G01 X4.6224 Y32.4564
G01 X4.3891 Y32.5240
G01 X4.1574 Y32.5974
G01 X3.9277 Y32.6765
G01 X3.6999 Y32.7611
G01 X3.4743 Y32.8513
G01 X3.2510 Y32.9471
G01 X3.0301 Y33.0483
G01 X2.8117 Y33.1548
G01 X2.5961 Y33.2667
G01 X2.3832 Y33.3839
G01 X2.1733 Y33.5062
G01 X1.9664 Y33.6337
G01 X1.7627 Y33.7662
G01 X1.5624 Y33.9037
G01 X1.3655 Y34.0460
G01 X1.1721 Y34.1931
G01 X0.9824 Y34.3449
G01 X0.7965 Y34.5014
G01 X0.6145 Y34.6623
G01 X0.4364 Y34.8277
G01 X0.2625 Y34.9974
G01 X0.0928 Y35.1713
G01 X-0.0725 Y35.3493
G01 X-0.2335 Y35.5313
G01 X-0.3899 Y35.7173
G01 X-0.5000 Y35.8548
G01 X-0.5000 Y36.8774
G01 X-0.4698 Y36.8309
G01 X-0.3406 Y36.6427
G01 X-0.2069 Y36.4577
G01 X-0.0687 Y36.2761
G01 X0.0739 Y36.0979
G01 X0.2208 Y35.9232
G01 X0.3720 Y35.7523
G01 X0.5274 Y35.5850
G01 X0.6868 Y35.4217
G01 X0.8502 Y35.2623
G01 X1.0174 Y35.1069
G01 X1.1884 Y34.9557
G01 X1.3630 Y34.8088
G01 X1.5412 Y34.6661
G01 X1.7229 Y34.5279
G01 X1.9079 Y34.3942
G01 X2.0961 Y34.2651
G01 X2.2874 Y34.1406
G01 X2.4817 Y34.0209
G01 X2.6789 Y33.9059
G01 X2.8789 Y33.7959
G01 X3.0815 Y33.6908
G01 X3.2866 Y33.5906
G01 X3.4941 Y33.4956
G01 X3.7039 Y33.4057
G01 X3.9159 Y33.3209
G01 X4.1298 Y33.2414
G01 X4.3457 Y33.1671
G01 X4.5632 Y33.0982
G01 X4.7825 Y33.0346
G01 X5.0032 Y32.9765
G01 X5.2252 Y32.9237
G01 X5.4486 Y32.8764
G01 X5.6729 Y32.8347
G01 X5.8983 Y32.7984
G01 X6.1245 Y32.7677
G01 X6.3513 Y32.7425
G01 X6.5787 Y32.7229
G01 X6.8066 Y32.7090
G01 X7.0347 Y32.7006
G01 X7.2629 Y32.6977
G01 X7.4911 Y32.7006
G01 X7.7192 Y32.7090
G01 X7.9470 Y32.7229
G01 X8.1745 Y32.7425
G01 X8.4013 Y32.7677
G01 X8.6275 Y32.7984
G01 X8.8528 Y32.8347
G01 X9.0772 Y32.8764
G01 X9.3005 Y32.9237
G01 X9.5226 Y32.9765
G01 X9.7433 Y33.0346
G01 X9.9625 Y33.0982
G01 X10.1801 Y33.1671
G01 X10.3960 Y33.2414
G01 X10.6099 Y33.3209
G01 X10.8218 Y33.4057
G01 X11.0316 Y33.4956
G01 X11.2392 Y33.5906
G01 X11.4443 Y33.6908
G01 X11.6469 Y33.7959
G01 X11.8468 Y33.9059
G01 X12.0440 Y34.0209
G01 X12.2384 Y34.1406
G01 X12.4297 Y34.2651
G01 X12.6179 Y34.3942
G01 X12.8029 Y34.5279
G01 X12.9845 Y34.6661
G01 X13.1627 Y34.8088
G01 X13.3374 Y34.9557
G01 X13.5084 Y35.1069
G01 X13.6756 Y35.2623
G01 X13.8390 Y35.4217
G01 X13.9984 Y35.5850
G01 X14.1537 Y35.7523
G01 X14.3049 Y35.9232
G01 X14.4519 Y36.0979
G01 X14.5945 Y36.2761
G01 X14.7327 Y36.4577
G01 X14.8664 Y36.6427
G01 X14.9956 Y36.8309
G01 X15.1200 Y37.0223
G01 X15.2398 Y37.2166
G01 X15.3547 Y37.4138
G01 X15.4648 Y37.6138
G01 X15.5699 Y37.8164
G01 X15.6700 Y38.0215
G01 X15.7650 Y38.2290
G01 X15.8550 Y38.4388
G01 X15.9053 Y38.5648
G00 Z2.0000
G00 X16.4956 Y38.4250
G01 F60.00
G01 Z-0.0600
G01 F120.00
G01 X16.4093 Y38.2092
G01 X16.3136 Y37.9859
G01 X16.2124 Y37.7650
G01 X16.1170 Y37.5695
G00 Z2.0000
G00 X16.8082 Y37.6250
G01 F60.00
G01 Z-0.0600
G01 F120.00
G01 X16.8621 Y37.7427
G01 X16.9636 Y37.9796
G01 X17.0593 Y38.2189
G01 X17.1359 Y38.4250
G00 Z2.0000
G00 X17.7751 Y38.4357
G01 F60.00
G01 Z-0.0600
G01 F120.00
G01 X17.7140 Y38.2583
G01 X17.6191 Y38.0029
G01 X17.5180 Y37.7500
G01 X17.4644 Y37.6250
G00 Z2.0000
G00 X18.0638 Y37.5005
G01 F60.00
G01 Z-0.0600
G01 F120.00
G01 X18.0723 Y37.5204
G01 X18.1789 Y37.7870
G01 X18.2790 Y38.0561
G01 X18.3724 Y38.3277
G01 X18.4591 Y38.6014
G01 X18.5391 Y38.8772
G01 X18.6123 Y39.1549
G01 X18.6786 Y39.4343
G01 X18.7381 Y39.7152
G01 X18.7906 Y39.9975
G01 X18.8363 Y40.2810
G01 X18.8749 Y40.5655
G01 X18.9066 Y40.8509
G01 X18.9312 Y41.1370
G01 X18.9488 Y41.4237
G01 X18.9594 Y41.7106
G01 X18.9602 Y41.7788
G01 X19.5629 Y41.9977
G01 X19.5592 Y42.2996
G01 X19.5481 Y42.6013
G01 X19.5296 Y42.9026
G01 X19.5037 Y43.2034
G01 X19.4704 Y43.5034
G01 X19.4298 Y43.8025
G01 X19.3818 Y44.1006
G01 X19.3266 Y44.3974
G01 X19.2640 Y44.6927
G01 X19.1943 Y44.9864
G01 X19.1173 Y45.2783
G01 X19.0333 Y45.5683
G01 X18.9421 Y45.8560
G01 X18.8439 Y46.1415
G01 X18.7387 Y46.4245
G01 X18.6266 Y46.7048
G01 X18.5077 Y46.9822
G01 X18.3820 Y47.2567
G01 X18.2496 Y47.5280
G01 X18.1105 Y47.7959
G01 X17.9650 Y48.0604
G01 X17.8130 Y48.3212
G01 X17.6546 Y48.5782
G01 X17.4900 Y48.8313
G01 X17.3192 Y49.0802
G01 X17.1423 Y49.3249
G01 X16.9902 Y49.5248
G01 X17.7381 Y49.5248
G01 X17.8097 Y49.4257
G01 X17.9888 Y49.1646
G01 X18.1615 Y48.8992
G01 X18.3276 Y48.6297
G01 X18.4870 Y48.3561
G01 X18.6397 Y48.0788
G01 X18.7855 Y47.7977
G01 X18.9244 Y47.5132
G01 X19.0562 Y47.2254
G01 X19.1809 Y46.9344
G01 X19.2985 Y46.6404
G01 X19.4088 Y46.3436
G01 X19.5118 Y46.0442
G01 X19.6074 Y45.7424
G01 X19.6956 Y45.4383
G01 X19.7763 Y45.1322
G01 X19.8494 Y44.8242
G01 X19.9150 Y44.5144
G01 X19.9730 Y44.2032
G01 X20.0233 Y43.8906
G01 X20.0659 Y43.5768
G01 X20.1008 Y43.2622
G01 X20.1279 Y42.9467
G01 X20.1474 Y42.6307
G01 X20.1590 Y42.3143
G01 X20.1629 Y41.9977
G01 X20.1590 Y41.6812
G01 X20.1474 Y41.3648
G01 X20.1279 Y41.0488
G01 X20.1008 Y40.7333
G01 X20.0659 Y40.4187
G01 X20.0233 Y40.1049
G01 X19.9730 Y39.7923
G01 X19.9150 Y39.4811
G01 X19.8494 Y39.1713
G01 X19.7763 Y38.8633
G01 X19.6956 Y38.5572
G01 X19.6074 Y38.2531
G01 X19.5118 Y37.9513
G01 X19.4088 Y37.6519
G01 X19.2985 Y37.3551
G01 X19.1809 Y37.0611
G01 X19.0562 Y36.7701
G01 X18.9244 Y36.4823
G01 X18.7855 Y36.1978
G01 X18.6397 Y35.9167
G01 X18.4870 Y35.6394
G01 X18.3276 Y35.3658
G01 X18.1615 Y35.0963
G01 X18.0459 Y34.9187
G01 X18.4793 Y34.4853
G01 X18.4877 Y34.4976
G01 X18.6684 Y34.7753
G01 X18.8422 Y35.0574
G01 X19.0091 Y35.3436
G01 X19.1688 Y35.6339
G01 X19.3214 Y35.9280
G01 X19.4667 Y36.2258
G01 X19.6047 Y36.5270
G01 X19.7353 Y36.8315
G01 X19.8583 Y37.1392
G01 X19.9737 Y37.4497
G01 X20.0815 Y37.7630
G01 X20.1816 Y38.0789
G01 X20.2739 Y38.3971
G01 X20.3583 Y38.7175
G01 X20.4349 Y39.0399
G01 X20.5035 Y39.3640
G01 X20.5641 Y39.6898
G01 X20.6168 Y40.0169
G01 X20.6614 Y40.3452
G01 X20.6979 Y40.6745
G01 X20.7263 Y41.0046
G01 X20.7466 Y41.3353
G01 X20.7588 Y41.6664
G01 X20.7629 Y41.9977
G01 X20.7588 Y42.3291
G01 X20.7482 Y42.6167
G00 Z2.0000
G00 X21.3617 Y41.9030
G01 F60.00
G01 Z-0.0600
G01 F120.00
G01 X21.3586 Y41.6517
G01 X21.3459 Y41.3059
G01 X21.3247 Y40.9605
G01 X21.2950 Y40.6157
G01 X21.2689 Y40.3800
G00 Z2.0000
G00 X21.1500 Y39.5588
G01 F60.00
G01 Z-0.0600
G01 F120.00
G01 X21.0920 Y39.2470
G01 X21.0203 Y38.9084
G01 X20.9403 Y38.5717
G01 X20.8521 Y38.2371
G01 X20.7557 Y37.9047
G01 X20.6512 Y37.5748
G01 X20.5387 Y37.2476
G01 X20.4181 Y36.9232
G01 X20.2896 Y36.6019
G01 X20.1532 Y36.2838
G01 X20.0091 Y35.9692
G01 X19.8574 Y35.6582
G01 X19.6980 Y35.3511
G01 X19.5311 Y35.0479
G01 X19.3569 Y34.7489
G01 X19.1753 Y34.4543
G01 X19.1011 Y34.3403
G01 X19.8098 Y34.3403
G01 X19.8715 Y34.4404
G01 X20.0532 Y34.7521
G01 X20.2271 Y35.0682
G01 X20.3933 Y35.3885
G01 X20.5515 Y35.7127
G01 X20.7018 Y36.0407
G01 X20.8439 Y36.3723
G01 X20.9779 Y36.7073
G01 X21.1036 Y37.0455
G01 X21.2210 Y37.3866
G01 X21.3299 Y37.7306
G01 X21.4304 Y38.0771
G01 X21.5224 Y38.4259
G01 X21.5435 Y38.5152
G00 Z2.0000
G00 X22.1388 Y38.4250
G01 F60.00
G01 Z-0.0600
G01 F120.00
G01 X22.1044 Y38.2802
G01 X22.0087 Y37.9170
G01 X21.9240 Y37.6250
G00 Z2.0000
G00 X22.5486 Y37.6250
G01 F60.00
G01 Z-0.0600
G01 F120.00
G01 X22.5869 Y37.7570
G01 X22.6864 Y38.1344
G01 X22.7554 Y38.4250
G00 Z2.0000
G00 X23.3785 Y38.4607
G01 F60.00
G01 Z-0.0600
G01 F120.00
G01 X23.3620 Y38.3826
G01 X23.2684 Y37.9886
G01 X23.1724 Y37.6245
G00 Z2.0000
G00 X23.7401 Y37.4253
G01 F60.00
G01 Z-0.0600
G01 F120.00
G01 X23.7435 Y37.4370
G01 X23.8504 Y37.8428
G01 X23.9474 Y38.2511
G01 X24.0343 Y38.6617
G01 X24.1111 Y39.0743
G01 X24.1778 Y39.4887
G01 X24.2343 Y39.9045
G01 X24.2806 Y40.3217
G01 X24.3166 Y40.7398
G01 X24.3423 Y41.1587
G01 X24.3577 Y41.5781
G01 X24.3629 Y41.9977
G01 X24.3577 Y42.4174
G01 X24.3475 Y42.6962
G01 X24.9629 Y41.9977
G01 X24.9576 Y42.4321
G01 X24.9416 Y42.8662
G01 X24.9149 Y43.2998
G01 X24.8777 Y43.7327
G01 X24.8298 Y44.1644
G01 X24.7713 Y44.5949
G01 X24.7023 Y45.0238
G01 X24.6228 Y45.4508
G01 X24.5328 Y45.8758
G01 X24.4324 Y46.2985
G01 X24.3217 Y46.7186
G01 X24.2007 Y47.1358
G01 X24.0695 Y47.5499
G01 X23.9282 Y47.9607
G01 X23.7769 Y48.3679
G01 X23.6156 Y48.7712
G01 X23.5293 Y48.9724
G00 Z2.0000
G00 X23.1342 Y49.8304
G01 F60.00
G01 Z-0.0600
G01 F120.00
G01 X23.0730 Y49.9559
G01 X22.8729 Y50.3415
G01 X22.6634 Y50.7220
G01 X22.4447 Y51.0974
G01 X22.2168 Y51.4672
G01 X21.9799 Y51.8313
G01 X21.7341 Y52.1896
G01 X21.4797 Y52.5416
G01 X21.2166 Y52.8873
G01 X20.9452 Y53.2265
G01 X20.6655 Y53.5589
G01 X20.3777 Y53.8843
G01 X20.0821 Y54.2026
G01 X19.7787 Y54.5135
G01 X19.4678 Y54.8169
G01 X19.1495 Y55.1126
G01 X18.8241 Y55.4003
G01 X18.4917 Y55.6800
G01 X18.1525 Y55.9515
G01 X17.8068 Y56.2145
G01 X17.4547 Y56.4690
G01 X17.4095 Y56.5000
G01 X18.4224 Y56.5000
G01 X18.5216 Y56.4245
G01 X18.8723 Y56.1438
G01 X19.2160 Y55.8547
G01 X19.5524 Y55.5572
G01 X19.8815 Y55.2515
G01 X20.2029 Y54.9378
G01 X20.5166 Y54.6163
G01 X20.8223 Y54.2873
G01 X21.1198 Y53.9508
G01 X21.4090 Y53.6071
G01 X21.6896 Y53.2565
G01 X21.9616 Y52.8990
G01 X22.2247 Y52.5350
G01 X22.4788 Y52.1647
G01 X22.7237 Y51.7882
G01 X22.9593 Y51.4058
G01 X23.1855 Y51.0178
G01 X23.4021 Y50.6243
G01 X23.6089 Y50.2256
G01 X23.8059 Y49.8220
G01 X23.9929 Y49.4137
G01 X24.1699 Y49.0009
G01 X24.3367 Y48.5838
G01 X24.4931 Y48.1628
G01 X24.6393 Y47.7381
G01 X24.7749 Y47.3100
G01 X24.9000 Y46.8786
G01 X25.0145 Y46.4443
G01 X25.1182 Y46.0073
G01 X25.2113 Y45.5679
G01 X25.2935 Y45.1264
G01 X25.3648 Y44.6829
G01 X25.4253 Y44.2379
G01 X25.4748 Y43.7915
G01 X25.5133 Y43.3440
G01 X25.5408 Y42.8957
G01 X25.5574 Y42.4469
G01 X25.5629 Y41.9977
G01 X25.5574 Y41.5486
G01 X25.5408 Y41.0998
G01 X25.5133 Y40.6515
G01 X25.4748 Y40.2040
G01 X25.4253 Y39.7576
G01 X25.3648 Y39.3126
G01 X25.2935 Y38.8691
G01 X25.2113 Y38.4276
G01 X25.1182 Y37.9882
G01 X25.0145 Y37.5512
G01 X24.9000 Y37.1169
G01 X24.8882 Y37.0764
G00 Z2.0000
G00 X24.3537 Y37.3983
G01 F60.00
G01 Z-0.0600
G01 F120.00
G01 X24.4324 Y37.6970
G01 X24.5328 Y38.1197
G01 X24.6228 Y38.5447
G01 X24.7023 Y38.9717
G01 X24.7713 Y39.4006
G01 X24.8298 Y39.8311
G01 X24.8777 Y40.2628
G01 X24.9149 Y40.6957
G01 X24.9416 Y41.1293
G01 X24.9576 Y41.5634
G01 X24.9629 Y41.9977
G01 X26.1629 Y41.9977
G01 X26.1572 Y42.4616
G01 X26.1427 Y42.8543
G01 X26.1629 Y41.9977
G01 X26.1572 Y41.5339
G01 X26.1401 Y41.0704
G01 X26.1117 Y40.6074
G01 X26.0719 Y40.1452
G01 X26.0208 Y39.6842
G01 X25.9583 Y39.2245
G01 X25.8846 Y38.7666
G01 X25.7997 Y38.3105
G01 X25.7037 Y37.8567
G01 X25.5965 Y37.4054
G01 X25.4783 Y36.9569
G01 X25.3725 Y36.5921
G00 Z2.0000
G00 X25.8513 Y36.1102
G01 F60.00
G01 Z-0.0600
G01 F120.00
G01 X25.9232 Y36.3372
G01 X26.0565 Y36.7969
G01 X26.1785 Y37.2596
G01 X26.2891 Y37.7253
G01 X26.3882 Y38.1935
G01 X26.4758 Y38.6640
G01 X26.5518 Y39.1365
G01 X26.6162 Y39.6107
G01 X26.6690 Y40.0864
G01 X26.7101 Y40.5632
G01 X26.7394 Y41.0409
G01 X26.7570 Y41.5192
G01 X26.7626 Y41.9739
G00 Z2.0000
G00 X26.0643 Y43.9190
G01 F60.00
G01 Z-0.0600
G01 F120.00
G01 X26.0208 Y44.3113
G01 X25.9583 Y44.7710
G01 X25.8846 Y45.2289
G01 X25.7997 Y45.6850
G01 X25.7037 Y46.1388
G01 X25.5965 Y46.5901
G01 X25.4783 Y47.0386
G01 X25.3491 Y47.4841
G01 X25.2090 Y47.9263
G01 X25.0581 Y48.3650
G01 X24.8965 Y48.7998
G01 X24.7242 Y49.2305
G01 X24.5415 Y49.6568
G01 X24.3483 Y50.0785
G01 X24.1448 Y50.4954
G01 X23.9312 Y50.9071
G01 X23.7075 Y51.3135
G01 X23.4740 Y51.7143
G01 X23.2306 Y52.1092
G01 X22.9777 Y52.4980
G01 X22.7152 Y52.8805
G01 X22.4435 Y53.2565
G01 X22.1626 Y53.6256
G01 X21.8728 Y53.9878
G01 X21.5741 Y54.3427
G01 X21.2669 Y54.6902
G01 X20.9512 Y55.0301
G01 X20.6272 Y55.3621
G01 X20.2952 Y55.6860
G01 X19.9554 Y56.0017
G01 X19.6079 Y56.3090
G01 X19.3809 Y56.5000
G01 X20.2976 Y56.5000
G01 X20.3583 Y56.4463
G01 X20.7089 Y56.1206
G01 X21.0515 Y55.7863
G01 X21.3857 Y55.4438
G01 X21.7114 Y55.0931
G01 X22.0285 Y54.7346
G01 X22.3366 Y54.3684
G01 X22.6356 Y53.9948
G01 X22.9254 Y53.6139
G01 X23.2058 Y53.2260
G01 X23.4765 Y52.8314
G01 X23.7375 Y52.4302
G01 X23.9886 Y52.0228
G01 X24.2296 Y51.6093
G01 X24.4604 Y51.1900
G01 X24.6808 Y50.7652
G01 X24.8907 Y50.3351
G01 X25.0900 Y49.9000
G01 X25.2785 Y49.4601
G01 X25.4563 Y49.0157
G01 X25.6230 Y48.5671
G01 X25.7787 Y48.1145
G01 X25.9232 Y47.6583
G01 X26.0565 Y47.1986
G01 X26.1785 Y46.7359
G01 X26.2891 Y46.2702
G01 X26.3882 Y45.8020
G01 X26.4758 Y45.3315
G01 X26.5496 Y44.8726
G00 Z2.0000
G00 X27.0897 Y45.2927
G01 F60.00
G01 Z-0.0600
G01 F120.00
G01 X27.0670 Y45.4341
G01 X26.9767 Y45.9191
G01 X26.8745 Y46.4017
G01 X26.7605 Y46.8817
G01 X26.6348 Y47.3587
G01 X26.4974 Y47.8325
G01 X26.3484 Y48.3028
G01 X26.1879 Y48.7692
G01 X26.0160 Y49.2316
G01 X25.8329 Y49.6897
G01 X25.6385 Y50.1431
G01 X25.4331 Y50.5916
G01 X25.2167 Y51.0349
G01 X24.9895 Y51.4728
G01 X24.7516 Y51.9050
G01 X24.5032 Y52.3312
G01 X24.2444 Y52.7512
G01 X23.9754 Y53.1647
G01 X23.6963 Y53.5715
G01 X23.4074 Y53.9713
G01 X23.1087 Y54.3639
G01 X22.8004 Y54.7491
G01 X22.4828 Y55.1265
G01 X22.1560 Y55.4961
G01 X21.8203 Y55.8575
G01 X21.4757 Y56.2106
G01 X21.1791 Y56.5000
G01 X22.0316 Y56.5000
G01 X22.2548 Y56.2712
G01 X22.6006 Y55.8990
G01 X22.9371 Y55.5184
G01 X23.2642 Y55.1297
G01 X23.5817 Y54.7330
G01 X23.8893 Y54.3287
G01 X24.1869 Y53.9170
G01 X24.4743 Y53.4981
G01 X24.7514 Y53.0722
G01 X25.0179 Y52.6397
G01 X25.2737 Y52.2007
G01 X25.5187 Y51.7557
G01 X25.7526 Y51.3047
G01 X25.9755 Y50.8481
G01 X26.1870 Y50.3862
G01 X26.3872 Y49.9193
G01 X26.5758 Y49.4476
G01 X26.7529 Y48.9714
G01 X26.9181 Y48.4910
G01 X27.0716 Y48.0066
G01 X27.2131 Y47.5187
G01 X27.3425 Y47.0274
G01 X27.4599 Y46.5331
G01 X27.5651 Y46.0361
G01 X27.6581 Y45.5367
G01 X27.6654 Y45.4917
G00 Z2.0000
G00 X28.2703 Y45.5087
G01 F60.00
G01 Z-0.0600
G01 F120.00
G01 X28.2493 Y45.6392
G01 X28.1536 Y46.1532
G01 X28.0453 Y46.6646
G01 X27.9246 Y47.1732
G01 X27.7913 Y47.6787
G01 X27.6457 Y48.1808
G01 X27.4878 Y48.6792
G01 X27.3178 Y49.1735
G01 X27.1356 Y49.6635
G01 X26.9415 Y50.1489
G01 X26.7356 Y50.6294
G01 X26.5179 Y51.1047
G01 X26.2886 Y51.5745
G01 X26.0478 Y52.0385
G01 X25.7957 Y52.4965
G01 X25.5325 Y52.9481
G01 X25.2583 Y53.3932
G01 X24.9732 Y53.8314
G01 X24.6774 Y54.2625
G01 X24.3712 Y54.6861
G01 X24.0547 Y55.1022
G01 X23.7280 Y55.5103
G01 X23.3914 Y55.9103
G01 X23.0452 Y56.3020
G01 X22.8612 Y56.5000
G01 X23.6709 Y56.5000
G01 X23.8458 Y56.3022
G01 X24.1918 Y55.8910
G01 X24.5277 Y55.4713
G01 X24.8531 Y55.0436
G01 X25.1680 Y54.6079
G01 X25.4721 Y54.1647
G01 X25.7652 Y53.7142
G01 X26.0471 Y53.2566
G01 X26.3178 Y52.7922
G01 X26.5770 Y52.3213
G01 X26.8245 Y51.8442
G01 X27.0603 Y51.3612
G01 X27.2841 Y50.8725
G01 X27.4959 Y50.3785
G01 X27.6954 Y49.8795
G01 X27.8827 Y49.3756
G01 X28.0576 Y48.8674
G01 X28.2199 Y48.3550
G01 X28.3696 Y47.8388
G01 X28.5066 Y47.3190
G01 X28.6308 Y46.7961
G01 X28.7421 Y46.2702
G01 X28.8405 Y45.7418
G01 X28.9088 Y45.3175
G00 Z2.0000
G00 X29.5916 Y44.7670
G01 F60.00
G01 Z-0.0600
G01 F120.00
G01 X29.5194 Y45.2992
G01 X29.4316 Y45.8444
G01 X29.3306 Y46.3873
G01 X29.2162 Y46.9275
G01 X29.0886 Y47.4648
G01 X28.9479 Y47.9988
G01 X28.7940 Y48.5292
G01 X28.6273 Y49.0556
G01 X28.4476 Y49.5778
G01 X28.2552 Y50.0954
G01 X28.0502 Y50.6081
G01 X27.8326 Y51.1157
G01 X27.6027 Y51.6177
G01 X27.3604 Y52.1140
G01 X27.1061 Y52.6042
G01 X26.8398 Y53.0880
G01 X26.5618 Y53.5651
G01 X26.2721 Y54.0352
G01 X25.9710 Y54.4981
G01 X25.6585 Y54.9534
G01 X25.3351 Y55.4010
G01 X25.0007 Y55.8405
G01 X24.6556 Y56.2716
G01 X24.4634 Y56.5000
G01 X25.2413 Y56.5000
G01 X25.4737 Y56.2096
G01 X25.8170 Y55.7584
G01 X26.1491 Y55.2989
G01 X26.4698 Y54.8314
G01 X26.7790 Y54.3562
G01 X27.0764 Y53.8735
G01 X27.3619 Y53.3837
G01 X27.6353 Y52.8870
G01 X27.8964 Y52.3838
G01 X28.1450 Y51.8743
G01 X28.3811 Y51.3588
G01 X28.6045 Y50.8377
G01 X28.8150 Y50.3113
G01 X29.0126 Y49.7799
G01 X29.1970 Y49.2438
G01 X29.3682 Y48.7033
G01 X29.5261 Y48.1588
G01 X29.6706 Y47.6106
G01 X29.8016 Y47.0590
G01 X29.9190 Y46.5043
G01 X30.0228 Y45.9470
G01 X30.1129 Y45.3872
G01 X30.1892 Y44.8254
G01 X30.2517 Y44.2619
G01 X30.3003 Y43.6971
G01 X30.3351 Y43.1312
G01 X30.3559 Y42.5647
G01 X30.3629 Y41.9977
G01 X30.3559 Y41.4308
G01 X30.3351 Y40.8643
G01 X30.3003 Y40.2984
G01 X30.2517 Y39.7336
G01 X30.1892 Y39.1701
G01 X30.1129 Y38.6083
G01 X30.0228 Y38.0485
G01 X29.9190 Y37.4912
G01 X29.8016 Y36.9365
G01 X29.6706 Y36.3849
G01 X29.5261 Y35.8367
G01 X29.3682 Y35.2922
G01 X29.1970 Y34.7517
G01 X29.0253 Y34.2525
G01 X29.0253 Y32.6165
G01 X29.1588 Y32.9282
G01 X29.3748 Y33.4682
G01 X29.5775 Y34.0135
G01 X29.7667 Y34.5635
G01 X29.9424 Y35.1180
G01 X30.1044 Y35.6767
G01 X30.2526 Y36.2391
G01 X30.3870 Y36.8051
G01 X30.5075 Y37.3741
G01 X30.6140 Y37.9460
G01 X30.7064 Y38.5202
G01 X30.7847 Y39.0966
G01 X30.8488 Y39.6747
G01 X30.8987 Y40.2543
G01 X30.9343 Y40.8348
G01 X30.9558 Y41.4161
G01 X30.9629 Y41.9977
G01 X30.9558 Y42.5794
G01 X30.9343 Y43.1607
G01 X30.8987 Y43.7412
G01 X30.8488 Y44.3208
G01 X30.7847 Y44.8989
G01 X30.7064 Y45.4753
G01 X30.6140 Y46.0495
G01 X30.5075 Y46.6214
G01 X30.3870 Y47.1904
G01 X30.2526 Y47.7564
G01 X30.1044 Y48.3188
G01 X29.9424 Y48.8775
G01 X29.7667 Y49.4320
G01 X29.5775 Y49.9820
G01 X29.3748 Y50.5273
G01 X29.1588 Y51.0673
G01 X28.9297 Y51.6020
G01 X28.6874 Y52.1308
G01 X28.4323 Y52.6535
G01 X28.1644 Y53.1699
G01 X27.8840 Y53.6794
G01 X27.5911 Y54.1820
G01 X27.2859 Y54.6772
G01 X26.9687 Y55.1648
G01 X26.6397 Y55.6444
G01 X26.2989 Y56.1158
G01 X26.0066 Y56.5000
G01 X26.7605 Y56.5000
G01 X26.7808 Y56.4732
G01 X27.1302 Y55.9899
G01 X27.4676 Y55.4981
G01 X27.7928 Y54.9982
G01 X28.1057 Y54.4904
G01 X28.4060 Y53.9752
G01 X28.6936 Y53.4527
G01 X28.9682 Y52.9233
G01 X29.2298 Y52.3873
G01 X29.4782 Y51.8451
G01 X29.7132 Y51.2970
G01 X29.9346 Y50.7432
G01 X30.1424 Y50.1842
G01 X30.3364 Y49.6202
G01 X30.5165 Y49.0517
G01 X30.6826 Y48.4789
G01 X30.8347 Y47.9022
G01 X30.9725 Y47.3219
G01 X31.0960 Y46.7384
G01 X31.2051 Y46.1521
G01 X31.2999 Y45.5633
G01 X31.3801 Y44.9723
G01 X31.4459 Y44.3796
G01 X31.4970 Y43.7854
G01 X31.5336 Y43.1901
G01 X31.5556 Y42.5941
G01 X31.5629 Y41.9977
G01 X31.5556 Y41.4014
G01 X31.5336 Y40.8054
G01 X31.4970 Y40.2101
G01 X31.4459 Y39.6159
G01 X31.3801 Y39.0232
G01 X31.2999 Y38.4322
G01 X31.2051 Y37.8434
G01 X31.0960 Y37.2571
G01 X30.9725 Y36.6736
G01 X30.8347 Y36.0933
G01 X30.6826 Y35.5166
G01 X30.5165 Y34.9438
G01 X30.3364 Y34.3753
G01 X30.1424 Y33.8113
G01 X29.9346 Y33.2523
G01 X29.7132 Y32.6985
G01 X29.4782 Y32.1504
G01 X29.2298 Y31.6082
G01 X28.9682 Y31.0722
G01 X28.6936 Y30.5428
G01 X28.4060 Y30.0203
G01 X28.1057 Y29.5051
G01 X27.7928 Y28.9973
G01 X27.4676 Y28.4974
G01 X27.1302 Y28.0056
G01 X26.7808 Y27.5223
G01 X26.7639 Y27.5000
G01 X27.5050 Y27.5000
G01 X27.6208 Y27.6601
G01 X27.9665 Y28.1641
G01 X28.2997 Y28.6763
G01 X28.6203 Y29.1966
G01 X28.9281 Y29.7246
G01 X29.2227 Y30.2600
G01 X29.5042 Y30.8024
G01 X29.7722 Y31.3516
G01 X30.0267 Y31.9072
G01 X30.2675 Y32.4689
G01 X30.4944 Y33.0364
G01 X30.7073 Y33.6092
G01 X30.9061 Y34.1871
G01 X31.0907 Y34.7697
G01 X31.2609 Y35.3566
G01 X31.4167 Y35.9475
G01 X31.5579 Y36.5421
G01 X31.6844 Y37.1400
G01 X31.7963 Y37.7408
G01 X31.8934 Y38.3442
G01 X31.9756 Y38.9497
G01 X32.0430 Y39.5571
G01 X32.0954 Y40.1660
G01 X32.1329 Y40.7760
G01 X32.1554 Y41.3867
G01 X32.1629 Y41.9977
G01 X32.1554 Y42.6088
G01 X32.1329 Y43.2195
G01 X32.0954 Y43.8295
G01 X32.0430 Y44.4384
G01 X31.9756 Y45.0458
G01 X31.8934 Y45.6513
G01 X31.7963 Y46.2547
G01 X31.6844 Y46.8555
G01 X31.5579 Y47.4534
G01 X31.4167 Y48.0480
G01 X31.2609 Y48.6389
G01 X31.0907 Y49.2258
G01 X30.9061 Y49.8084
G01 X30.7073 Y50.3863
G01 X30.4944 Y50.9591
G01 X30.2675 Y51.5266
G01 X30.0267 Y52.0883
G01 X29.7722 Y52.6439
G01 X29.5042 Y53.1931
G01 X29.2227 Y53.7355
G01 X28.9281 Y54.2709
G01 X28.6203 Y54.7989
G01 X28.2997 Y55.3192
G01 X27.9665 Y55.8314
G01 X27.6208 Y56.3354
G01 X27.5018 Y56.5000
G01 X28.2354 Y56.5000
G01 X28.4654 Y56.1648
G01 X28.8067 Y55.6402
G01 X29.1350 Y55.1074
G01 X29.4501 Y54.5667
G01 X29.7519 Y54.0184
G01 X30.0401 Y53.4628
G01 X30.3146 Y52.9004
G01 X30.5752 Y52.3314
G01 X30.8218 Y51.7562
G01 X31.0542 Y51.1751
G01 X31.2723 Y50.5884
G01 X31.4759 Y49.9966
G01 X31.6649 Y49.4000
G01 X31.8392 Y48.7989
G01 X31.9987 Y48.1937
G01 X32.1433 Y47.5848
G01 X32.2729 Y46.9726
G01 X32.3875 Y46.3573
G01 X32.4869 Y45.7394
G01 X32.5711 Y45.1192
G01 X32.6401 Y44.4972
G01 X32.6938 Y43.8736
G01 X32.7322 Y43.2490
G01 X32.7552 Y42.6236
G01 X32.7629 Y41.9977
G01 X32.7552 Y41.3719
G01 X32.7322 Y40.7465
G01 X32.6938 Y40.1219
G01 X32.6401 Y39.4983
G01 X32.5711 Y38.8763
G01 X32.4869 Y38.2561
G01 X32.3875 Y37.6382
G01 X32.2729 Y37.0229
G01 X32.1433 Y36.4107
G01 X31.9987 Y35.8018
G01 X31.8392 Y35.1966
G01 X31.6649 Y34.5955
G01 X31.4759 Y33.9989
G01 X31.2723 Y33.4071
G01 X31.0542 Y32.8204
G01 X30.8218 Y32.2393
G01 X30.5752 Y31.6641
G01 X30.3146 Y31.0951
G01 X30.0401 Y30.5327
G01 X29.7519 Y29.9771
G01 X29.4501 Y29.4288
G01 X29.1350 Y28.8881
G01 X28.8067 Y28.3553
G01 X28.4654 Y27.8307
G01 X28.2385 Y27.5000
G01 X28.9660 Y27.5000
G01 X29.3136 Y28.0343
G01 X29.6496 Y28.5797
G01 X29.9722 Y29.1331
G01 X30.2810 Y29.6943
G01 X30.5760 Y30.2629
G01 X30.8570 Y30.8386
G01 X31.1238 Y31.4210
G01 X31.3761 Y32.0097
G01 X31.6140 Y32.6045
G01 X31.8372 Y33.2049
G01 X32.0456 Y33.8107
G01 X32.2390 Y34.4213
G01 X32.4174 Y35.0365
G01 X32.5807 Y35.6560
G01 X32.7287 Y36.2792
G01 X32.8614 Y36.9059
G01 X32.9786 Y37.5356
G01 X33.0804 Y38.1681
G01 X33.1666 Y38.8028
G01 X33.2372 Y39.4395
G01 X33.2922 Y40.0777
G01 X33.3315 Y40.7171
G01 X33.3550 Y41.3572
G01 X33.3629 Y41.9977
G01 X33.3550 Y42.6383
G01 X33.3315 Y43.2784
G01 X33.2922 Y43.9178
G01 X33.2372 Y44.5560
G01 X33.1666 Y45.1927
G01 X33.0804 Y45.8274
G01 X32.9786 Y46.4599
G01 X32.8614 Y47.0896
G01 X32.7287 Y47.7163
G01 X32.5807 Y48.3395
G01 X32.4174 Y48.9590
G01 X32.2390 Y49.5742
G01 X32.0456 Y50.1848
G01 X31.8372 Y50.7906
G01 X31.6140 Y51.3910
G01 X31.3761 Y51.9858
G01 X31.1238 Y52.5745
G01 X30.8570 Y53.1569
G01 X30.5760 Y53.7326
G01 X30.2810 Y54.3012
G01 X29.9722 Y54.8624
G01 X29.6496 Y55.4158
G01 X29.3136 Y55.9612
G01 X28.9630 Y56.5000
G01 X29.6788 Y56.5000
G01 X29.8205 Y56.2822
G01 X30.1642 Y55.7243
G01 X30.4942 Y55.1581
G01 X30.8102 Y54.5840
G01 X31.1120 Y54.0024
G01 X31.3994 Y53.4135
G01 X31.6723 Y52.8177
G01 X31.9305 Y52.2154
G01 X32.1738 Y51.6069
G01 X32.4021 Y50.9927
G01 X32.6153 Y50.3731
G01 X32.8132 Y49.7484
G01 X32.9957 Y49.1190
G01 X33.1627 Y48.4853
G01 X33.3141 Y47.8478
G01 X33.4499 Y47.2067
G01 X33.5698 Y46.5624
G01 X33.6739 Y45.9155
G01 X33.7621 Y45.2661
G01 X33.8343 Y44.6148
G01 X33.8905 Y43.9619
G01 X33.9307 Y43.3079
G01 X33.9548 Y42.6530
G01 X33.9629 Y41.9977
G01 X33.9548 Y41.3425
G01 X33.9307 Y40.6876
G01 X33.8905 Y40.0336
G01 X33.8343 Y39.3807
G01 X33.7621 Y38.7294
G01 X33.6739 Y38.0800
G01 X33.5698 Y37.4331
G01 X33.4499 Y36.7888
G01 X33.3141 Y36.1477
G01 X33.1627 Y35.5102
G01 X32.9957 Y34.8765
G01 X32.8132 Y34.2471
G01 X32.6153 Y33.6224
G01 X32.4021 Y33.0028
G01 X32.1738 Y32.3886
G01 X31.9305 Y31.7801
G01 X31.6723 Y31.1778
G01 X31.3994 Y30.5820
G01 X31.1120 Y29.9931
G01 X30.8102 Y29.4115
G01 X30.4942 Y28.8374
G01 X30.1642 Y28.2712
G01 X29.8205 Y27.7133
G01 X29.6817 Y27.5000
G01 X30.3937 Y27.5000
G01 X30.6789 Y27.9627
G01 X31.0163 Y28.5416
G01 X31.3393 Y29.1286
G01 X31.6479 Y29.7234
G01 X31.9418 Y30.3255
G01 X32.2208 Y30.9347
G01 X32.4848 Y31.5505
G01 X32.7336 Y32.1726
G01 X32.9670 Y32.8007
G01 X33.1850 Y33.4342
G01 X33.3874 Y34.0730
G01 X33.5740 Y34.7165
G01 X33.7447 Y35.3644
G01 X33.8996 Y36.0163
G01 X34.0383 Y36.6718
G01 X34.1610 Y37.3305
G01 X34.2674 Y37.9920
G01 X34.3576 Y38.6559
G01 X34.4314 Y39.3219
G01 X34.4889 Y39.9894
G01 X34.5300 Y40.6582
G01 X34.5547 Y41.3278
G01 X34.5629 Y41.9977
G01 X34.5547 Y42.6677
G01 X34.5300 Y43.3373
G01 X34.4889 Y44.0061
G01 X34.4314 Y44.6736
G01 X34.3576 Y45.3396
G01 X34.2674 Y46.0035
G01 X34.1610 Y46.6650
G01 X34.0383 Y47.3237
G01 X33.8996 Y47.9792
G01 X33.7447 Y48.6311
G01 X33.5740 Y49.2790
G01 X33.3874 Y49.9225
G01 X33.1850 Y50.5613
G01 X32.9670 Y51.1948
G01 X32.7336 Y51.8229
G01 X32.4848 Y52.4450
G01 X32.2208 Y53.0608
G01 X31.9418 Y53.6700
G01 X31.6479 Y54.2721
G01 X31.3393 Y54.8669
G01 X31.0163 Y55.4539
G01 X30.6789 Y56.0328
G01 X30.3910 Y56.5000
G01 X31.0957 Y56.5000
G01 X31.1935 Y56.3412
G01 X31.5383 Y55.7496
G01 X31.8685 Y55.1497
G01 X32.1838 Y54.5419
G01 X32.4842 Y53.9265
G01 X32.7693 Y53.3040
G01 X33.0391 Y52.6746
G01 X33.2934 Y52.0388
G01 X33.5320 Y51.3970
G01 X33.7547 Y50.7495
G01 X33.9615 Y50.0967
G01 X34.1522 Y49.4390
G01 X34.3268 Y48.7769
G01 X34.4850 Y48.1107
G01 X34.6268 Y47.4408
G01 X34.7521 Y46.7676
G01 X34.8609 Y46.0915
G01 X34.9531 Y45.4130
G01 X35.0285 Y44.7324
G01 X35.0873 Y44.0502
G01 X35.1293 Y43.3667
G01 X35.1545 Y42.6825
G01 X35.1629 Y41.9977
G01 X35.1545 Y41.3130
G01 X35.1293 Y40.6288
G01 X35.0873 Y39.9453
G01 X35.0285 Y39.2631
G01 X34.9531 Y38.5825
G01 X34.8609 Y37.9040
G01 X34.7521 Y37.2279
G01 X34.6268 Y36.5547
G01 X34.4850 Y35.8848
G01 X34.3268 Y35.2186
G01 X34.1522 Y34.5565
G01 X33.9615 Y33.8988
G01 X33.7547 Y33.2460
G01 X33.5320 Y32.5985
G01 X33.2934 Y31.9567
G01 X33.0391 Y31.3209
G01 X32.7693 Y30.6915
G01 X32.4842 Y30.0690
G01 X32.1838 Y29.4536
G01 X31.8685 Y28.8458
G01 X31.5383 Y28.2459
G01 X31.1935 Y27.6543
G01 X31.0985 Y27.5000
G01 X31.7980 Y27.5000
G01 X32.0604 Y27.9502
G01 X32.3976 Y28.5629
G01 X32.7198 Y29.1838
G01 X33.0266 Y29.8124
G01 X33.3179 Y30.4484
G01 X33.5935 Y31.0913
G01 X33.8532 Y31.7407
G01 X34.0969 Y32.3964
G01 X34.3244 Y33.0578
G01 X34.5357 Y33.7246
G01 X34.7305 Y34.3964
G01 X34.9088 Y35.0728
G01 X35.0704 Y35.7534
G01 X35.2153 Y36.4377
G01 X35.3433 Y37.1253
G01 X35.4544 Y37.8159
G01 X35.5486 Y38.5090
G01 X35.6257 Y39.2043
G01 X35.6857 Y39.9012
G01 X35.7286 Y40.5993
G01 X35.7543 Y41.2983
G01 X35.7629 Y41.9977
G01 X35.7543 Y42.6972
G01 X35.7286 Y43.3962
G01 X35.6857 Y44.0943
G01 X35.6257 Y44.7912
G01 X35.5486 Y45.4865
G01 X35.4544 Y46.1796
G01 X35.3433 Y46.8702
G01 X35.2153 Y47.5578
G01 X35.0704 Y48.2421
G01 X34.9088 Y48.9227
G01 X34.7305 Y49.5991
G01 X34.5357 Y50.2709
G01 X34.3244 Y50.9377
G01 X34.0969 Y51.5991
G01 X33.8532 Y52.2548
G01 X33.5935 Y52.9042
G01 X33.3179 Y53.5471
G01 X33.0266 Y54.1831
G01 X32.7198 Y54.8117
G01 X32.3976 Y55.4326
G01 X32.0604 Y56.0453
G01 X31.7954 Y56.5000
G01 X32.4898 Y56.5000
G01 X32.5824 Y56.3411
G01 X32.9268 Y55.7154
G01 X33.2557 Y55.0814
G01 X33.5690 Y54.4396
G01 X33.8664 Y53.7903
G01 X34.1478 Y53.1338
G01 X34.4130 Y52.4707
G01 X34.6618 Y51.8012
G01 X34.8942 Y51.1259
G01 X35.1099 Y50.4450
G01 X35.3088 Y49.7591
G01 X35.4908 Y49.0685
G01 X35.6558 Y48.3736
G01 X35.8037 Y47.6749
G01 X35.9345 Y46.9727
G01 X36.0479 Y46.2676
G01 X36.1440 Y45.5599
G01 X36.2228 Y44.8500
G01 X36.2840 Y44.1385
G01 X36.3278 Y43.4256
G01 X36.3541 Y42.7119
G01 X36.3629 Y41.9977
G01 X36.3541 Y41.2836
G01 X36.3278 Y40.5699
G01 X36.2840 Y39.8570
G01 X36.2228 Y39.1455
G01 X36.1440 Y38.4356
G01 X36.0479 Y37.7279
G01 X35.9345 Y37.0228
G01 X35.8037 Y36.3206
G01 X35.6558 Y35.6219
G01 X35.4908 Y34.9270
G01 X35.3088 Y34.2364
G01 X35.1099 Y33.5505
G01 X34.8942 Y32.8696
G01 X34.6618 Y32.1943
G01 X34.4130 Y31.5248
G01 X34.1478 Y30.8617
G01 X33.8664 Y30.2052
G01 X33.5690 Y29.5559
G01 X33.2557 Y28.9141
G01 X32.9268 Y28.2801
G01 X32.5824 Y27.6544
G01 X32.4924 Y27.5000
G01 X33.1823 Y27.5000
G01 X33.4560 Y27.9973
G01 X33.7917 Y28.6443
G01 X34.1114 Y29.2994
G01 X34.4149 Y29.9621
G01 X34.7021 Y30.6321
G01 X34.9728 Y31.3089
G01 X35.2267 Y31.9921
G01 X35.4639 Y32.6814
G01 X35.6840 Y33.3763
G01 X35.8870 Y34.0764
G01 X36.0728 Y34.7812
G01 X36.2412 Y35.4904
G01 X36.3922 Y36.2036
G01 X36.5256 Y36.9202
G01 X36.6414 Y37.6399
G01 X36.7395 Y38.3622
G01 X36.8199 Y39.0866
G01 X36.8824 Y39.8129
G01 X36.9271 Y40.5404
G01 X36.9539 Y41.2689
G01 X36.9629 Y41.9977
G01 X36.9539 Y42.7266
G01 X36.9271 Y43.4551
G01 X36.8824 Y44.1826
G01 X36.8199 Y44.9089
G01 X36.7395 Y45.6333
G01 X36.6414 Y46.3556
G01 X36.5256 Y47.0753
G01 X36.3922 Y47.7919
G01 X36.2412 Y48.5051
G01 X36.0728 Y49.2143
G01 X35.8870 Y49.9191
G01 X35.6840 Y50.6192
G01 X35.4639 Y51.3141
G01 X35.2267 Y52.0034
G01 X34.9728 Y52.6866
G01 X34.7021 Y53.3634
G01 X34.4149 Y54.0334
G01 X34.1114 Y54.6961
G01 X33.7917 Y55.3512
G01 X33.4560 Y55.9982
G01 X33.1798 Y56.5000
G01 X33.8646 Y56.5000
G01 X33.9851 Y56.2811
G01 X34.3276 Y55.6210
G01 X34.6538 Y54.9527
G01 X34.9634 Y54.2766
G01 X35.2564 Y53.5931
G01 X35.5326 Y52.9026
G01 X35.7917 Y52.2055
G01 X36.0336 Y51.5023
G01 X36.2582 Y50.7934
G01 X36.4653 Y50.0791
G01 X36.6548 Y49.3600
G01 X36.8267 Y48.6365
G01 X36.9807 Y47.9090
G01 X37.1168 Y47.1779
G01 X37.2349 Y46.4437
G01 X37.3350 Y45.7068
G01 X37.4170 Y44.9677
G01 X37.4808 Y44.2268
G01 X37.5264 Y43.4845
G01 X37.5538 Y42.7413
G01 X37.5629 Y41.9977
G01 X37.5538 Y41.2542
G01 X37.5264 Y40.5110
G01 X37.4808 Y39.7687
G01 X37.4170 Y39.0278
G01 X37.3350 Y38.2887
G01 X37.2349 Y37.5518
G01 X37.1168 Y36.8176
G01 X36.9807 Y36.0865
G01 X36.8267 Y35.3590
G01 X36.6548 Y34.6355
G01 X36.4653 Y33.9164
G01 X36.2582 Y33.2021
G01 X36.0336 Y32.4932
G01 X35.7917 Y31.7900
G01 X35.5326 Y31.0929
G01 X35.2564 Y30.4024
G01 X34.9634 Y29.7189
G01 X34.6538 Y29.0428
G01 X34.3276 Y28.3745
G01 X33.9851 Y27.7144
G01 X33.8671 Y27.5000
G01 X34.5498 Y27.5000
G01 X34.8635 Y28.1048
G01 X35.1962 Y28.7863
G01 X35.5120 Y29.4758
G01 X35.8108 Y30.1728
G01 X36.0924 Y30.8770
G01 X36.3566 Y31.5879
G01 X36.6033 Y32.3050
G01 X36.8323 Y33.0280
G01 X37.0436 Y33.7563
G01 X37.2369 Y34.4897
G01 X37.4121 Y35.2275
G01 X37.5692 Y35.9695
G01 X37.7080 Y36.7150
G01 X37.8284 Y37.4638
G01 X37.9305 Y38.2153
G01 X38.0141 Y38.9690
G01 X38.0792 Y39.7246
G01 X38.1257 Y40.4816
G01 X38.1536 Y41.2394
G01 X38.1629 Y41.9977
G01 X38.1536 Y42.7561
G01 X38.1257 Y43.5139
G01 X38.0792 Y44.2709
G01 X38.0141 Y45.0265
G01 X37.9305 Y45.7802
G01 X37.8284 Y46.5317
G01 X37.7080 Y47.2805
G01 X37.5692 Y48.0260
G01 X37.4121 Y48.7680
G01 X37.2369 Y49.5058
G01 X37.0436 Y50.2392
G01 X36.8323 Y50.9675
G01 X36.6033 Y51.6905
G01 X36.3566 Y52.4076
G01 X36.0924 Y53.1185
G01 X35.8108 Y53.8227
G01 X35.5120 Y54.5197
G01 X35.1962 Y55.2092
G01 X34.8635 Y55.8907
G01 X34.5474 Y56.5000
G01 X35.2233 Y56.5000
G01 X35.3995 Y56.1605
G01 X35.7386 Y55.4657
G01 X36.0605 Y54.7629
G01 X36.3651 Y54.0523
G01 X36.6522 Y53.3344
G01 X36.9215 Y52.6098
G01 X37.1730 Y51.8787
G01 X37.4065 Y51.1417
G01 X37.6218 Y50.3992
G01 X37.8189 Y49.6516
G01 X37.9975 Y48.8994
G01 X38.1576 Y48.1431
G01 X38.2991 Y47.3830
G01 X38.4220 Y46.6198
G01 X38.5260 Y45.8537
G01 X38.6112 Y45.0853
G01 X38.6775 Y44.3150
G01 X38.7249 Y43.5434
G01 X38.7534 Y42.7708
G01 X38.7629 Y41.9977
G01 X38.7534 Y41.2247
G01 X38.7249 Y40.4521
G01 X38.6775 Y39.6805
G01 X38.6112 Y38.9102
G01 X38.5260 Y38.1418
G01 X38.4220 Y37.3757
G01 X38.2991 Y36.6125
G01 X38.1576 Y35.8524
G01 X37.9975 Y35.0961
G01 X37.8189 Y34.3439
G01 X37.6218 Y33.5963
G01 X37.4065 Y32.8538
G01 X37.1730 Y32.1168
G01 X36.9215 Y31.3857
G01 X36.6522 Y30.6611
G01 X36.3651 Y29.9432
G01 X36.0605 Y29.2326
G01 X35.7386 Y28.5298
G01 X35.3995 Y27.8350
G01 X35.2257 Y27.5000
G01 X35.9015 Y27.5000
G01 X35.9354 Y27.5652
G01 X36.2809 Y28.2732
G01 X36.6090 Y28.9895
G01 X36.9194 Y29.7136
G01 X37.2120 Y30.4451
G01 X37.4865 Y31.1836
G01 X37.7427 Y31.9286
G01 X37.9807 Y32.6796
G01 X38.2001 Y33.4363
G01 X38.4009 Y34.1981
G01 X38.5829 Y34.9646
G01 X38.7461 Y35.7354
G01 X38.8903 Y36.5099
G01 X39.0155 Y37.2877
G01 X39.1215 Y38.0684
G01 X39.2083 Y38.8514
G01 X39.2759 Y39.6363
G01 X39.3242 Y40.4227
G01 X39.3532 Y41.2100
G01 X39.3629 Y41.9977
G01 X39.3532 Y42.7855
G01 X39.3242 Y43.5728
G01 X39.2759 Y44.3592
G01 X39.2083 Y45.1441
G01 X39.1215 Y45.9271
G01 X39.0155 Y46.7078
G01 X38.8903 Y47.4856
G01 X38.7461 Y48.2601
G01 X38.5829 Y49.0309
G01 X38.4009 Y49.7974
G01 X38.2001 Y50.5592
G01 X37.9807 Y51.3159
G01 X37.7427 Y52.0669
G01 X37.4865 Y52.8119
G01 X37.2120 Y53.5504
G01 X36.9194 Y54.2819
G01 X36.6090 Y55.0060
G01 X36.2809 Y55.7223
G01 X35.9354 Y56.4303
G01 X35.8992 Y56.5000
G01 X36.5690 Y56.5000
G01 X36.8233 Y55.9788
G01 X37.1576 Y55.2491
G01 X37.4738 Y54.5115
G01 X37.7718 Y53.7663
G01 X38.0514 Y53.0140
G01 X38.3125 Y52.2551
G01 X38.5548 Y51.4901
G01 X38.7784 Y50.7193
G01 X38.9829 Y49.9432
G01 X39.1684 Y49.1624
G01 X39.3346 Y48.3772
G01 X39.4815 Y47.5882
G01 X39.6090 Y46.7958
G01 X39.7170 Y46.0006
G01 X39.8054 Y45.2029
G01 X39.8743 Y44.4033
G01 X39.9235 Y43.6023
G01 X39.9530 Y42.8002
G01 X39.9629 Y41.9977
G01 X39.9530 Y41.1953
G01 X39.9235 Y40.3932
G01 X39.8743 Y39.5922
G01 X39.8054 Y38.7926
G01 X39.7170 Y37.9949
G01 X39.6090 Y37.1997
G01 X39.4815 Y36.4073
G01 X39.3346 Y35.6183
G01 X39.1684 Y34.8331
G01 X38.9829 Y34.0523
G01 X38.7784 Y33.2762
G01 X38.5548 Y32.5054
G01 X38.3125 Y31.7404
G01 X38.0514 Y30.9815
G01 X37.7718 Y30.2292
G01 X37.4738 Y29.4840
G01 X37.1576 Y28.7464
G01 X36.8233 Y28.0167
G01 X36.5712 Y27.5000
G01 X37.2388 Y27.5000
G01 X37.3657 Y27.7602
G01 X37.7061 Y28.5032
G01 X38.0281 Y29.2544
G01 X38.3316 Y30.0132
G01 X38.6163 Y30.7793
G01 X38.8822 Y31.5521
G01 X39.1290 Y32.3313
G01 X39.3566 Y33.1162
G01 X39.5649 Y33.9065
G01 X39.7538 Y34.7017
G01 X39.9230 Y35.5012
G01 X40.0726 Y36.3047
G01 X40.2025 Y37.1116
G01 X40.3125 Y37.9215
G01 X40.4025 Y38.7338
G01 X40.4727 Y39.5480
G01 X40.5228 Y40.3638
G01 X40.5529 Y41.1805
G01 X40.5629 Y41.9977
G01 X40.5529 Y42.8150
G01 X40.5228 Y43.6317
G01 X40.4727 Y44.4474
G01 X40.4025 Y45.2617
G01 X40.3125 Y46.0740
G01 X40.2025 Y46.8839
G01 X40.0726 Y47.6908
G01 X39.9230 Y48.4943
G01 X39.7538 Y49.2938
G01 X39.5649 Y50.0890
G01 X39.3566 Y50.8793
G01 X39.1290 Y51.6642
G01 X38.8822 Y52.4434
G01 X38.6163 Y53.2162
G01 X38.3316 Y53.9823
G01 X38.0281 Y54.7411
G01 X37.7061 Y55.4923
G01 X37.3657 Y56.2353
G01 X37.2366 Y56.5000
G01 X37.9042 Y56.5000
G01 X38.2546 Y55.7354
G01 X38.5824 Y54.9707
G01 X38.8913 Y54.1982
G01 X39.1812 Y53.4183
G01 X39.4519 Y52.6316
G01 X39.7032 Y51.8384
G01 X39.9349 Y51.0393
G01 X40.1470 Y50.2348
G01 X40.3392 Y49.4253
G01 X40.5115 Y48.6113
G01 X40.6638 Y47.7934
G01 X40.7960 Y46.9719
G01 X40.9079 Y46.1475
G01 X40.9997 Y45.3205
G01 X41.0710 Y44.4916
G01 X41.1221 Y43.6611
G01 X41.1527 Y42.8297
G01 X41.1629 Y41.9977
G01 X41.1527 Y41.1658
G01 X41.1221 Y40.3344
G01 X41.0710 Y39.5039
G01 X40.9997 Y38.6750
G01 X40.9079 Y37.8480
G01 X40.7960 Y37.0236
G01 X40.6638 Y36.2021
G01 X40.5115 Y35.3842
G01 X40.3392 Y34.5702
G01 X40.1470 Y33.7607
G01 X39.9349 Y32.9562
G01 X39.7032 Y32.1571
G01 X39.4519 Y31.3639
G01 X39.1812 Y30.5772
G01 X38.8913 Y29.7973
G01 X38.5824 Y29.0248
G01 X38.2546 Y28.2601
G01 X37.9064 Y27.5000
G01 X38.5664 Y27.5000
G01 X38.8031 Y28.0169
G01 X39.1367 Y28.7952
G01 X39.4511 Y29.5814
G01 X39.7462 Y30.3751
G01 X40.0216 Y31.1757
G01 X40.2773 Y31.9829
G01 X40.5132 Y32.7962
G01 X40.7290 Y33.6149
G01 X40.9246 Y34.4388
G01 X41.1000 Y35.2671
G01 X41.2550 Y36.0996
G01 X41.3895 Y36.9355
G01 X41.5034 Y37.7746
G01 X41.5968 Y38.6162
G01 X41.6694 Y39.4598
G01 X41.7213 Y40.3049
G01 X41.7525 Y41.1511
G01 X41.7629 Y41.9977
G01 X41.7525 Y42.8444
G01 X41.7213 Y43.6906
G01 X41.6694 Y44.5357
G01 X41.5968 Y45.3793
G01 X41.5034 Y46.2209
G01 X41.3895 Y47.0600
G01 X41.2550 Y47.8959
G01 X41.1000 Y48.7284
G01 X40.9246 Y49.5567
G01 X40.7290 Y50.3806
G01 X40.5132 Y51.1993
G01 X40.2773 Y52.0126
G01 X40.0216 Y52.8198
G01 X39.7462 Y53.6204
G01 X39.4511 Y54.4141
G01 X39.1367 Y55.2003
G01 X38.8031 Y55.9786
G01 X38.5643 Y56.5000
G01 X39.2242 Y56.5000
G01 X39.3517 Y56.2217
G01 X39.6911 Y55.4299
G01 X40.0109 Y54.6301
G01 X40.3111 Y53.8226
G01 X40.5913 Y53.0080
G01 X40.8515 Y52.1867
G01 X41.0914 Y51.3594
G01 X41.3110 Y50.5264
G01 X41.5100 Y49.6882
G01 X41.6885 Y48.8454
G01 X41.8461 Y47.9985
G01 X41.9830 Y47.1480
G01 X42.0989 Y46.2944
G01 X42.1939 Y45.4382
G01 X42.2678 Y44.5799
G01 X42.3206 Y43.7200
G01 X42.3523 Y42.8591
G01 X42.3629 Y41.9977
G01 X42.3523 Y41.1364
G01 X42.3206 Y40.2755
G01 X42.2678 Y39.4156
G01 X42.1939 Y38.5573
G01 X42.0989 Y37.7011
G01 X41.9830 Y36.8475
G01 X41.8461 Y35.9970
G01 X41.6885 Y35.1501
G01 X41.5100 Y34.3073
G01 X41.3110 Y33.4691
G01 X41.0914 Y32.6361
G01 X40.8515 Y31.8088
G01 X40.5913 Y30.9875
G01 X40.3111 Y30.1729
G01 X40.0109 Y29.3654
G01 X39.6911 Y28.5656
G01 X39.3517 Y27.7738
G01 X39.2263 Y27.5000
G01 X39.8861 Y27.5000
G01 X39.9002 Y27.5306
G01 X40.2454 Y28.3360
G01 X40.5707 Y29.1495
G01 X40.8760 Y29.9708
G01 X41.1610 Y30.7993
G01 X41.4257 Y31.6346
G01 X41.6697 Y32.4761
G01 X41.8930 Y33.3234
G01 X42.0955 Y34.1758
G01 X42.2769 Y35.0330
G01 X42.4373 Y35.8944
G01 X42.5765 Y36.7595
G01 X42.6944 Y37.6277
G01 X42.7910 Y38.4985
G01 X42.8662 Y39.3715
G01 X42.9199 Y40.2460
G01 X42.9521 Y41.1216
G01 X42.9629 Y41.9977
G01 X42.9521 Y42.8739
G01 X42.9199 Y43.7495
G01 X42.8662 Y44.6240
G01 X42.7910 Y45.4970
G01 X42.6944 Y46.3678
G01 X42.5765 Y47.2360
G01 X42.4373 Y48.1011
G01 X42.2769 Y48.9625
G01 X42.0955 Y49.8197
G01 X41.8930 Y50.6721
G01 X41.6697 Y51.5194
G01 X41.4257 Y52.3609
G01 X41.1610 Y53.1962
G01 X40.8760 Y54.0247
G01 X40.5707 Y54.8460
G01 X40.2454 Y55.6595
G01 X39.9002 Y56.4649
G01 X39.8841 Y56.5000
G01 X40.5379 Y56.5000
G01 X40.7997 Y55.8892
G01 X41.1305 Y55.0619
G01 X41.4409 Y54.2269
G01 X41.7308 Y53.3844
G01 X41.9998 Y52.5351
G01 X42.2480 Y51.6794
G01 X42.4750 Y50.8179
G01 X42.6809 Y49.9511
G01 X42.8654 Y49.0795
G01 X43.0285 Y48.2037
G01 X43.1700 Y47.3241
G01 X43.2899 Y46.4413
G01 X43.3881 Y45.5558
G01 X43.4645 Y44.6681
G01 X43.5000 Y44.0909
G01 X43.5000 Y39.9046
G01 X43.4645 Y39.3274
G01 X43.3881 Y38.4397
G01 X43.2899 Y37.5542
G01 X43.1700 Y36.6714
G01 X43.0285 Y35.7918
G01 X42.8654 Y34.9160
G01 X42.6809 Y34.0444
G01 X42.4750 Y33.1776
G01 X42.2480 Y32.3161
G01 X41.9998 Y31.4604
G01 X41.7308 Y30.6111
G01 X41.4409 Y29.7686
G01 X41.1305 Y28.9336
G01 X40.7997 Y28.1063
G01 X40.5398 Y27.5000
G01 X41.1926 Y27.5000
G01 X41.3540 Y27.8767
G01 X41.6903 Y28.7176
G01 X42.0059 Y29.5665
G01 X42.3005 Y30.4229
G01 X42.5740 Y31.2862
G01 X42.8262 Y32.1560
G01 X43.0570 Y33.0318
G01 X43.2663 Y33.9129
G01 X43.4539 Y34.7989
G01 X43.5000 Y35.0467
G01 X43.5000 Y32.3584
G01 X43.4045 Y31.9960
G01 X43.1482 Y31.1121
G01 X42.8702 Y30.2347
G01 X42.5708 Y29.3644
G01 X42.2501 Y28.5017
G01 X41.9084 Y27.6471
G01 X41.8453 Y27.5000
G01 X42.4957 Y27.5000
G01 X42.8099 Y28.2857
G01 X43.1357 Y29.1622
G01 X43.4399 Y30.0465
G01 X43.5000 Y30.2361
G01 X43.5000 Y28.4203
G01 X43.3697 Y28.0698
G01 X43.1418 Y27.5000
G00 Z2.0000
G00 X28.5999 Y31.6853
G01 F60.00
G01 Z-0.0600
G01 F120.00
G01 X28.4323 Y31.3420
G01 X28.1644 Y30.8256
G01 X27.8840 Y30.3161
G01 X27.5911 Y29.8135
G01 X27.2859 Y29.3183
G01 X26.9687 Y28.8307
G01 X26.6397 Y28.3511
G01 X26.2989 Y27.8797
G01 X26.0100 Y27.5000
G01 X25.2449 Y27.5000
G01 X25.4737 Y27.7859
G01 X25.8170 Y28.2371
G01 X26.1491 Y28.6966
G01 X26.4698 Y29.1641
G01 X26.7790 Y29.6393
G01 X27.0764 Y30.1220
G01 X27.1847 Y30.3077
G00 Z2.0000
G00 X26.3930 Y30.1565
G01 F60.00
G01 Z-0.0600
G01 F120.00
G01 X26.2721 Y29.9603
G01 X25.9710 Y29.4974
G01 X25.6585 Y29.0421
G01 X25.3351 Y28.5945
G01 X25.0007 Y28.1550
G01 X24.6556 Y27.7239
G01 X24.4672 Y27.5000
G01 X23.6749 Y27.5000
G01 X23.8458 Y27.6933
G01 X24.1918 Y28.1045
G01 X24.5277 Y28.5242
G01 X24.8531 Y28.9519
G01 X25.1680 Y29.3876
G01 X25.4721 Y29.8308
G01 X25.6840 Y30.1565
G00 Z2.0000
G00 X24.9680 Y30.1565
G01 F60.00
G01 Z-0.0600
G01 F120.00
G01 X24.6774 Y29.7330
G01 X24.3712 Y29.3094
G01 X24.0547 Y28.8933
G01 X23.7280 Y28.4852
G01 X23.3914 Y28.0852
G01 X23.0452 Y27.6935
G01 X22.8654 Y27.5000
G01 X22.0360 Y27.5000
G01 X22.2548 Y27.7243
G01 X22.6006 Y28.0965
G01 X22.9371 Y28.4771
G01 X23.2642 Y28.8658
G01 X23.5817 Y29.2625
G01 X23.8893 Y29.6668
G01 X24.1869 Y30.0785
G01 X24.2404 Y30.1565
G01 X23.5030 Y30.1565
G01 X23.4074 Y30.0242
G01 X23.1087 Y29.6316
G01 X22.8004 Y29.2464
G01 X22.4828 Y28.8690
G01 X22.1560 Y28.4994
G01 X21.8203 Y28.1380
G01 X21.4757 Y27.7849
G01 X21.1838 Y27.5000
G01 X20.3026 Y27.5000
G01 X20.3583 Y27.5492
G01 X20.7089 Y27.8749
G01 X21.0515 Y28.2092
G01 X21.3857 Y28.5517
G01 X21.7114 Y28.9024
G01 X22.0285 Y29.2609
G01 X22.3366 Y29.6271
G01 X22.6356 Y30.0007
G01 X22.7542 Y30.1565
G00 Z2.0000
G00 X21.9919 Y30.1565
G01 F60.00
G01 Z-0.0600
G01 F120.00
G01 X21.8728 Y30.0077
G01 X21.5741 Y29.6528
G01 X21.2669 Y29.3053
G01 X20.9512 Y28.9654
G01 X20.6272 Y28.6334
G01 X20.2952 Y28.3095
G01 X19.9554 Y27.9938
G01 X19.6079 Y27.6865
G01 X19.3862 Y27.5000
G01 X18.4283 Y27.5000
G01 X18.5216 Y27.5710
G01 X18.8723 Y27.8517
G01 X19.2160 Y28.1408
G01 X19.5524 Y28.4383
G01 X19.8815 Y28.7440
G01 X20.2029 Y29.0577
G01 X20.5166 Y29.3792
G01 X20.8223 Y29.7082
G01 X21.1198 Y30.0447
G01 X21.2139 Y30.1565
G00 Z2.0000
G00 X20.4179 Y30.1565
G01 F60.00
G01 Z-0.0600
G01 F120.00
G01 X20.3777 Y30.1112
G01 X20.0821 Y29.7929
G01 X19.7787 Y29.4820
G01 X19.4678 Y29.1786
G01 X19.1495 Y28.8829
G01 X18.8241 Y28.5952
G01 X18.4917 Y28.3155
G01 X18.1525 Y28.0440
G01 X17.8068 Y27.7810
G01 X17.4547 Y27.5265
G01 X17.4161 Y27.5000
G01 X16.3290 Y27.5000
G01 X16.4114 Y27.5508
G01 X16.7631 Y27.7796
G01 X17.1092 Y28.0170
G01 X17.4493 Y28.2629
G01 X17.7834 Y28.5170
G01 X18.1110 Y28.7793
G01 X18.4321 Y29.0495
G01 X18.7465 Y29.3275
G01 X19.0540 Y29.6131
G01 X19.3544 Y29.9062
G01 X19.6475 Y30.2066
G01 X19.7898 Y30.3598
G00 Z2.0000
G00 X19.3585 Y30.7770
G01 F60.00
G01 Z-0.0600
G01 F120.00
G01 X19.2130 Y30.6203
G01 X18.9302 Y30.3305
G01 X18.6403 Y30.0477
G01 X18.3436 Y29.7721
G01 X18.0402 Y29.5038
G01 X17.7304 Y29.2431
G01 X17.4142 Y28.9900
G01 X17.0919 Y28.7448
G01 X16.7637 Y28.5076
G01 X16.4298 Y28.2785
G01 X16.0904 Y28.0577
G01 X15.7456 Y27.8452
G01 X15.3957 Y27.6413
G01 X15.1390 Y27.5000
G01 X13.7896 Y27.5000
G01 X14.0610 Y27.6243
G01 X14.4117 Y27.7955
G01 X14.7581 Y27.9752
G01 X15.1000 Y28.1634
G01 X15.4371 Y28.3599
G01 X15.7694 Y28.5646
G01 X16.0965 Y28.7774
G01 X16.4182 Y28.9982
G01 X16.7345 Y29.2268
G01 X17.0451 Y29.4630
G01 X17.3497 Y29.7069
G01 X17.6483 Y29.9581
G01 X17.9407 Y30.2166
G01 X18.2266 Y30.4822
G01 X18.5059 Y30.7548
G01 X18.7784 Y31.0341
G01 X19.0457 Y31.3218
G00 Z2.0000
G00 X18.9223 Y32.0923
G01 F60.00
G01 Z-0.0600
G01 F120.00
G01 X18.8482 Y32.0042
G01 X18.5994 Y31.7229
G01 X18.3439 Y31.4478
G01 X18.0816 Y31.1790
G01 X17.8129 Y30.9168
G01 X17.5377 Y30.6612
G01 X17.2564 Y30.4125
G01 X16.9691 Y30.1707
G01 X16.6759 Y29.9360
G01 X16.3771 Y29.7087
G01 X16.0728 Y29.4887
G01 X15.7631 Y29.2763
G01 X15.4484 Y29.0715
G01 X15.1287 Y28.8745
G01 X14.8042 Y28.6854
G01 X14.4753 Y28.5044
G01 X14.1419 Y28.3314
G01 X13.8045 Y28.1667
G01 X13.4631 Y28.0103
G01 X13.1179 Y27.8624
G01 X12.7693 Y27.7230
G01 X12.4173 Y27.5921
G01 X12.1495 Y27.5000
G01 X9.6880 Y27.5000
G01 X9.7760 Y27.5142
G01 X10.1307 Y27.5802
G01 X10.4837 Y27.6549
G01 X10.8347 Y27.7383
G01 X11.1836 Y27.8302
G01 X11.5301 Y27.9307
G01 X11.8740 Y28.0397
G01 X12.2152 Y28.1571
G01 X12.5533 Y28.2828
G01 X12.8883 Y28.4167
G01 X13.2199 Y28.5589
G01 X13.5480 Y28.7091
G01 X13.8722 Y28.8674
G01 X14.1924 Y29.0335
G01 X14.5085 Y29.2075
G01 X14.8202 Y29.3891
G01 X15.1274 Y29.5784
G01 X15.4298 Y29.7751
G01 X15.7273 Y29.9793
G01 X16.0197 Y30.1906
G01 X16.3068 Y30.4091
G01 X16.5885 Y30.6345
G01 X16.8645 Y30.8668
G01 X17.1348 Y31.1058
G01 X17.3991 Y31.3513
G01 X17.6574 Y31.6033
G01 X17.9093 Y31.8615
G01 X18.1549 Y32.1258
G01 X18.3440 Y32.3398
G00 Z2.0000
G00 X20.4515 Y34.2441
G01 F60.00
G01 Z-0.0600
G01 F120.00
G01 X20.5752 Y34.4564
G01 X20.7563 Y34.7854
G01 X20.9292 Y35.1187
G01 X21.0939 Y35.4562
G01 X21.2265 Y35.7456
G00 Z2.0000
G00 X21.7056 Y35.3509
G01 F60.00
G01 Z-0.0600
G01 F120.00
G01 X21.6363 Y35.1996
G01 X21.4652 Y34.8489
G01 X21.2854 Y34.5025
G01 X21.0973 Y34.1607
G01 X20.9006 Y33.8233
G01 X21.4043 Y33.4970
G01 X21.2300 Y33.2141
G00 Z2.0000
G00 X21.4261 Y33.5334
G01 F60.00
G01 Z-0.0600
G01 F120.00
G01 X21.6193 Y33.8649
G01 X21.8146 Y34.2197
G01 X22.0011 Y34.5792
G01 X22.1787 Y34.9431
G01 X22.3474 Y35.3113
G01 X22.3532 Y35.3250
G01 X23.0060 Y35.3250
G01 X22.8959 Y35.0681
G01 X22.7211 Y34.6866
G01 X22.5370 Y34.3094
G01 X22.4475 Y34.1368
G00 Z2.0000
G00 X23.0639 Y34.0221
G01 F60.00
G01 Z-0.0600
G01 F120.00
G01 X23.0730 Y34.0396
G01 X23.2635 Y34.4300
G01 X23.4444 Y34.8250
G01 X23.6156 Y35.2243
G01 X23.6957 Y35.4248
G01 X24.1048 Y34.8427
G01 X23.9929 Y34.5818
G01 X23.8059 Y34.1735
G01 X23.6089 Y33.7699
G01 X23.5446 Y33.6459
G00 Z2.0000
G00 X23.9599 Y32.1570
G01 F60.00
G01 Z-0.0600
G01 F120.00
G01 X23.6302 Y32.1570
G01 X23.6656 Y32.2164
G01 X23.6772 Y32.2381
G01 X23.7161 Y32.3201
G01 X23.7261 Y32.3425
G01 X23.7349 Y32.3654
G01 X23.7613 Y32.4393
G01 X23.7690 Y32.4626
G01 X23.7756 Y32.4863
G01 X23.7950 Y32.5640
G01 X23.8144 Y32.4863
G01 X23.8210 Y32.4626
G01 X23.8287 Y32.4393
G01 X23.8551 Y32.3654
G01 X23.8640 Y32.3425
G01 X23.8739 Y32.3201
G01 X23.9129 Y32.2381
G01 X23.9244 Y32.2164
G01 X23.9599 Y32.1570
G00 Z2.0000
G00 X26.3093 Y32.4634
G01 F60.00
G01 Z-0.0600
G01 F120.00
G01 X26.5179 Y32.8908
G01 X26.7356 Y33.3661
G01 X26.9415 Y33.8466
G01 X27.0248 Y34.0547
G01 X26.1573 Y33.5444
G01 X26.1870 Y33.6093
G01 X26.3872 Y34.0762
G01 X26.5758 Y34.5479
G01 X26.7529 Y35.0241
G01 X26.9181 Y35.5045
G01 X27.0248 Y35.8411
G01 X26.1053 Y35.0039
G01 X26.1879 Y35.2263
G01 X26.3484 Y35.6927
G01 X26.4974 Y36.1630
G01 X26.6348 Y36.6368
G01 X26.7605 Y37.1138
G01 X26.8745 Y37.5938
G01 X26.9767 Y38.0764
G01 X27.0248 Y38.3347
G00 Z2.0000
G00 X29.0253 Y39.5610
G01 F60.00
G01 Z-0.0600
G01 F120.00
G01 X29.0574 Y39.8512
G01 X29.1036 Y40.3867
G01 X29.1365 Y40.9232
G01 X29.1563 Y41.4603
G01 X29.1614 Y41.8801
G01 X29.7629 Y41.9977
G01 X29.7564 Y42.5269
G01 X29.7629 Y41.9977
G01 X29.7561 Y41.4456
G01 X29.7358 Y40.8937
G01 X29.7019 Y40.3425
G01 X29.6545 Y39.7924
G01 X29.5937 Y39.2435
G01 X29.5194 Y38.6963
G01 X29.4316 Y38.1511
G01 X29.3306 Y37.6082
G01 X29.2162 Y37.0680
G01 X29.0886 Y36.5307
G01 X29.0253 Y36.2904
G00 Z2.0000
G00 X23.6931 Y40.4921
G01 F60.00
G01 Z-0.0600
G01 F120.00
G01 X23.7182 Y40.7839
G01 X23.7430 Y41.1881
G01 X23.7579 Y41.5928
G01 X23.7623 Y41.9519
G00 Z2.0000
G00 X24.1471 Y44.6977
G01 F60.00
G01 Z-0.0600
G01 F120.00
G01 X24.1111 Y44.9212
G01 X24.0343 Y45.3338
G01 X23.9474 Y45.7444
G01 X23.8504 Y46.1527
G01 X23.7435 Y46.5585
G01 X23.6266 Y46.9616
G01 X23.5293 Y47.2686
G00 Z2.0000
G00 X21.5288 Y47.5263
G01 F60.00
G01 Z-0.0600
G01 F120.00
G01 X21.3982 Y47.8528
G01 X21.2503 Y48.1979
G01 X21.0939 Y48.5393
G01 X20.9292 Y48.8768
G01 X20.7563 Y49.2101
G01 X20.5831 Y49.5248
G01 X19.8892 Y49.5248
G01 X20.0532 Y49.2434
G01 X20.2271 Y48.9273
G01 X20.3933 Y48.6070
G01 X20.5515 Y48.2828
G01 X20.7018 Y47.9548
G01 X20.8439 Y47.6232
G01 X20.9779 Y47.2882
G01 X21.1036 Y46.9500
G01 X21.2210 Y46.6089
G01 X21.3299 Y46.2649
G01 X21.4304 Y45.9184
G01 X21.5224 Y45.5696
G01 X21.5288 Y45.5423
G01 X21.0634 Y44.8834
G01 X21.0203 Y45.0871
G01 X20.9403 Y45.4238
G01 X20.8521 Y45.7584
G01 X20.7557 Y46.0908
G01 X20.6512 Y46.4207
G01 X20.5387 Y46.7479
G01 X20.4181 Y47.0723
G01 X20.2896 Y47.3936
G01 X20.1532 Y47.7117
G01 X20.0091 Y48.0263
G01 X19.8574 Y48.3373
G01 X19.6980 Y48.6444
G01 X19.5311 Y48.9476
G01 X19.3569 Y49.2466
G01 X19.1855 Y49.5248
G01 X18.4693 Y49.5248
G01 X18.4877 Y49.4979
G01 X18.6684 Y49.2202
G01 X18.8422 Y48.9381
G01 X19.0091 Y48.6519
G01 X19.1688 Y48.3616
G01 X19.3214 Y48.0675
G01 X19.4667 Y47.7697
G01 X19.6047 Y47.4685
G01 X19.7353 Y47.1640
G01 X19.8583 Y46.8563
G01 X19.9737 Y46.5458
G01 X20.0815 Y46.2325
G01 X20.1816 Y45.9166
G01 X20.2739 Y45.5984
G01 X20.3583 Y45.2780
G01 X20.4349 Y44.9556
G01 X20.5035 Y44.6315
G01 X20.5641 Y44.3057
G01 X20.6035 Y44.0613
G01 X19.5629 Y41.9977
G01 X19.5592 Y41.6959
G01 X19.5481 Y41.3942
G01 X19.5296 Y41.0929
G01 X19.5037 Y40.7921
G01 X19.4704 Y40.4921
G01 X19.4298 Y40.1930
G01 X19.3818 Y39.8949
G01 X19.3266 Y39.5981
G01 X19.2640 Y39.3028
G01 X19.1943 Y39.0091
G01 X19.1173 Y38.7172
G01 X19.0333 Y38.4272
G01 X18.9421 Y38.1395
G01 X18.8439 Y37.8540
G01 X18.7387 Y37.5710
G01 X18.6266 Y37.2907
G01 X18.5077 Y37.0133
G01 X18.4000 Y36.7782
G00 Z2.0000
G00 X15.2562 Y38.5648
G01 F60.00
G01 Z-0.0600
G01 F120.00
G01 X15.2165 Y38.4722
G01 X15.1276 Y38.2780
G01 X15.0339 Y38.0861
G01 X14.9356 Y37.8966
G01 X14.8326 Y37.7095
G01 X14.7251 Y37.5251
G01 X14.6131 Y37.3433
G01 X14.4967 Y37.1643
G01 X14.3759 Y36.9882
G01 X14.2508 Y36.8152
G01 X14.1215 Y36.6452
G01 X13.9881 Y36.4785
G01 X13.8506 Y36.3151
G01 X13.7092 Y36.1552
G01 X13.5638 Y35.9987
G01 X13.4147 Y35.8459
G01 X13.2619 Y35.6968
G01 X13.1055 Y35.5515
G01 X12.9455 Y35.4100
G01 X12.7821 Y35.2726
G01 X12.6154 Y35.1391
G01 X12.4455 Y35.0098
G01 X12.2724 Y34.8848
G01 X12.0964 Y34.7640
G01 X11.9174 Y34.6475
G01 X11.7356 Y34.5355
G01 X11.5511 Y34.4280
G01 X11.3640 Y34.3250
G01 X11.1745 Y34.2267
G01 X10.9826 Y34.1330
G01 X10.7885 Y34.0441
G01 X10.5922 Y33.9600
G01 X10.3940 Y33.8807
G01 X10.1938 Y33.8063
G01 X9.9919 Y33.7369
G01 X9.7884 Y33.6724
G01 X9.5833 Y33.6129
G01 X9.3768 Y33.5585
G01 X9.1691 Y33.5091
G01 X8.9602 Y33.4649
G01 X8.7503 Y33.4258
G01 X8.5394 Y33.3919
G01 X8.3279 Y33.3632
G01 X8.1156 Y33.3396
G01 X7.9029 Y33.3213
G01 X7.6898 Y33.3082
G01 X7.4764 Y33.3004
G01 X7.2629 Y33.2977
G01 X7.0494 Y33.3004
G01 X6.8360 Y33.3082
G01 X6.6229 Y33.3213
G01 X6.4101 Y33.3396
G01 X6.1979 Y33.3632
G01 X5.9863 Y33.3919
G01 X5.7755 Y33.4258
G01 X5.5656 Y33.4649
G01 X5.3567 Y33.5091
G01 X5.1490 Y33.5585
G01 X4.9425 Y33.6129
G01 X4.7374 Y33.6724
G01 X4.5339 Y33.7369
G01 X4.3319 Y33.8063
G01 X4.1318 Y33.8807
G01 X3.9335 Y33.9600
G01 X3.7373 Y34.0441
G01 X3.5432 Y34.1330
G01 X3.3513 Y34.2267
G01 X3.1617 Y34.3250
G01 X2.9747 Y34.4280
G01 X2.7902 Y34.5355
G01 X2.6084 Y34.6475
G01 X2.4294 Y34.7640
G01 X2.2534 Y34.8848
G01 X2.0803 Y35.0098
G01 X1.9104 Y35.1391
G01 X1.7437 Y35.2726
G01 X1.5803 Y35.4100
G01 X1.4203 Y35.5515
G01 X1.2639 Y35.6968
G01 X1.1111 Y35.8459
G01 X0.9619 Y35.9987
G01 X0.8166 Y36.1552
G01 X0.6752 Y36.3151
G01 X0.5377 Y36.4785
G01 X0.4043 Y36.6452
G01 X0.2750 Y36.8152
G01 X0.1499 Y36.9882
G01 X0.0291 Y37.1643
G01 X-0.0873 Y37.3433
G01 X-0.1993 Y37.5251
G01 X-0.3069 Y37.7095
G01 X-0.4098 Y37.8966
G01 X-0.5000 Y38.0704
G01 X-0.5000 Y39.6867
G01 X-0.4883 Y39.6464
G01 X-0.4283 Y39.4569
G01 X-0.3636 Y39.2689
G01 X-0.2944 Y39.0826
G01 X-0.2205 Y38.8980
G01 X-0.1422 Y38.7153
G01 X-0.0594 Y38.5346
G01 X0.0278 Y38.3559
G01 X0.1193 Y38.1794
G01 X0.2152 Y38.0053
G01 X0.3153 Y37.8335
G01 X0.4196 Y37.6643
G01 X0.5280 Y37.4976
G01 X0.6405 Y37.3337
G01 X0.7569 Y37.1726
G01 X0.8773 Y37.0144
G01 X1.0015 Y36.8592
G01 X1.1295 Y36.7070
G01 X1.2612 Y36.5581
G01 X1.3965 Y36.4125
G01 X1.5353 Y36.2702
G01 X1.6776 Y36.1313
G01 X1.8233 Y35.9960
G01 X1.9722 Y35.8644
G01 X2.1243 Y35.7364
G01 X2.2795 Y35.6121
G01 X2.4377 Y35.4918
G01 X2.5988 Y35.3753
G01 X2.7628 Y35.2628
G01 X2.9294 Y35.1544
G01 X3.0987 Y35.0501
G01 X3.2704 Y34.9500
G01 X3.4446 Y34.8542
G01 X3.6210 Y34.7626
G01 X3.7997 Y34.6754
G01 X3.9804 Y34.5927
G01 X4.1632 Y34.5143
G01 X4.3477 Y34.4405
G01 X4.5341 Y34.3712
G01 X4.7221 Y34.3066
G01 X4.9116 Y34.2465
G01 X5.1025 Y34.1912
G01 X5.2948 Y34.1405
G01 X5.4882 Y34.0946
G01 X5.6827 Y34.0534
G01 X5.8781 Y34.0170
G01 X6.0744 Y33.9854
G01 X6.2714 Y33.9587
G01 X6.4690 Y33.9368
G01 X6.6670 Y33.9197
G01 X6.8654 Y33.9075
G01 X7.0641 Y33.9002
G01 X7.2629 Y33.8977
G01 X7.4617 Y33.9002
G01 X7.6603 Y33.9075
G01 X7.8588 Y33.9197
G01 X8.0568 Y33.9368
G01 X8.2544 Y33.9587
G01 X8.4514 Y33.9854
G01 X8.6477 Y34.0170
G01 X8.8431 Y34.0534
G01 X9.0376 Y34.0946
G01 X9.2310 Y34.1405
G01 X9.4233 Y34.1912
G01 X9.6142 Y34.2465
G01 X9.8037 Y34.3066
G01 X9.9917 Y34.3712
G01 X10.1780 Y34.4405
G01 X10.3626 Y34.5143
G01 X10.5453 Y34.5927
G01 X10.7261 Y34.6754
G01 X10.9047 Y34.7626
G01 X11.0812 Y34.8542
G01 X11.2554 Y34.9500
G01 X11.4271 Y35.0501
G01 X11.5964 Y35.1544
G01 X11.7630 Y35.2628
G01 X11.9269 Y35.3753
G01 X12.0881 Y35.4918
G01 X12.2463 Y35.6121
G01 X12.4015 Y35.7364
G01 X12.5536 Y35.8644
G01 X12.7025 Y35.9960
G01 X12.8482 Y36.1313
G01 X12.9905 Y36.2702
G01 X13.1293 Y36.4125
G01 X13.2646 Y36.5581
G01 X13.3963 Y36.7070
G01 X13.5243 Y36.8592
G01 X13.6485 Y37.0144
G01 X13.7689 Y37.1726
G01 X13.8853 Y37.3337
G01 X13.9978 Y37.4976
G01 X14.1062 Y37.6643
G01 X14.2105 Y37.8335
G01 X14.3106 Y38.0053
G01 X14.4065 Y38.1794
G01 X14.4980 Y38.3559
G01 X14.5852 Y38.5346
G01 X14.5990 Y38.5648
G01 X13.9305 Y38.5648
G01 X13.8773 Y38.4623
G01 X13.7885 Y38.3010
G01 X13.6959 Y38.1420
G01 X13.5993 Y37.9853
G01 X13.4989 Y37.8310
G01 X13.3948 Y37.6792
G01 X13.2869 Y37.5300
G01 X13.1755 Y37.3835
G01 X13.0605 Y37.2398
G01 X12.9420 Y37.0990
G01 X12.8200 Y36.9611
G01 X12.6947 Y36.8262
G01 X12.5662 Y36.6944
G01 X12.4344 Y36.5659
G01 X12.2996 Y36.4406
G01 X12.1617 Y36.3187
G01 X12.0208 Y36.2002
G01 X11.8771 Y36.0852
G01 X11.7306 Y35.9737
G01 X11.5815 Y35.8659
G01 X11.4297 Y35.7617
G01 X11.2754 Y35.6613
G01 X11.1187 Y35.5648
G01 X10.9596 Y35.4721
G01 X10.7984 Y35.3833
G01 X10.6350 Y35.2986
G01 X10.4696 Y35.2178
G01 X10.3022 Y35.1412
G01 X10.1330 Y35.0687
G01 X9.9621 Y35.0003
G01 X9.7896 Y34.9362
G01 X9.6155 Y34.8763
G01 X9.4400 Y34.8207
G01 X9.2632 Y34.7694
G01 X9.0852 Y34.7225
G01 X8.9062 Y34.6800
G01 X8.7261 Y34.6419
G01 X8.5451 Y34.6082
G01 X8.3634 Y34.5789
G01 X8.1810 Y34.5542
G01 X7.9980 Y34.5339
G01 X7.8146 Y34.5181
G01 X7.6309 Y34.5068
G01 X7.4470 Y34.5000
G01 X7.2629 Y34.4977
G01 X7.0788 Y34.5000
G01 X6.8949 Y34.5068
G01 X6.7112 Y34.5181
G01 X6.5278 Y34.5339
G01 X6.3448 Y34.5542
G01 X6.1624 Y34.5789
G01 X5.9807 Y34.6082
G01 X5.7997 Y34.6419
G01 X5.6196 Y34.6800
G01 X5.4405 Y34.7225
G01 X5.2625 Y34.7694
G01 X5.0858 Y34.8207
G01 X4.9103 Y34.8763
G01 X4.7362 Y34.9362
G01 X4.5637 Y35.0003
G01 X4.3928 Y35.0687
G01 X4.2236 Y35.1412
G01 X4.0562 Y35.2178
G01 X3.8908 Y35.2986
G01 X3.7274 Y35.3833
G01 X3.5662 Y35.4721
G01 X3.4071 Y35.5648
G01 X3.2504 Y35.6613
G01 X3.0961 Y35.7617
G01 X2.9443 Y35.8659
G01 X2.7951 Y35.9737
G01 X2.6487 Y36.0852
G01 X2.5049 Y36.2002
G01 X2.3641 Y36.3187
G01 X2.2262 Y36.4406
G01 X2.0913 Y36.5659
G01 X1.9596 Y36.6944
G01 X1.8310 Y36.8262
G01 X1.7058 Y36.9611
G01 X1.5838 Y37.0990
G01 X1.4653 Y37.2398
G01 X1.3503 Y37.3835
G01 X1.2388 Y37.5300
G01 X1.1310 Y37.6792
G01 X1.0269 Y37.8310
G01 X0.9265 Y37.9853
G01 X0.8299 Y38.1420
G01 X0.7372 Y38.3010
G01 X0.6485 Y38.4623
G01 X0.5637 Y38.6257
G01 X0.4830 Y38.7911
G01 X0.4063 Y38.9584
G01 X0.3338 Y39.1276
G01 X0.2654 Y39.2985
G01 X0.2013 Y39.4711
G01 X0.1414 Y39.6451
G01 X0.0858 Y39.8206
G01 X0.0346 Y39.9974
G01 X-0.0123 Y40.1754
G01 X-0.0549 Y40.3545
G01 X-0.0930 Y40.5346
G01 X-0.1267 Y40.7155
G01 X-0.1559 Y40.8973
G01 X-0.1807 Y41.0797
G01 X-0.2010 Y41.2626
G01 X-0.2168 Y41.4460
G01 X-0.2281 Y41.6297
G01 X-0.2348 Y41.8137
G01 X-0.2371 Y41.9977
G01 X-0.2348 Y42.1818
G01 X-0.2281 Y42.3658
G01 X-0.2168 Y42.5495
G01 X-0.2010 Y42.7329
G01 X-0.1807 Y42.9158
G01 X-0.1559 Y43.0982
G01 X-0.1267 Y43.2800
G01 X-0.0930 Y43.4609
G01 X-0.0549 Y43.6410
G01 X-0.0123 Y43.8201
G01 X0.0346 Y43.9981
G01 X0.0858 Y44.1749
G01 X0.1414 Y44.3504
G01 X0.2013 Y44.5244
G01 X0.2654 Y44.6970
G01 X0.3338 Y44.8679
G01 X0.4063 Y45.0371
G01 X0.4830 Y45.2044
G01 X0.5637 Y45.3698
G01 X0.6485 Y45.5332
G01 X0.7372 Y45.6945
G01 X0.8299 Y45.8535
G01 X0.9265 Y46.0102
G01 X1.0269 Y46.1645
G01 X1.1310 Y46.3163
G01 X1.2388 Y46.4655
G01 X1.3503 Y46.6120
G01 X1.4653 Y46.7557
G01 X1.5838 Y46.8965
G01 X1.7058 Y47.0344
G01 X1.8310 Y47.1693
G01 X1.9596 Y47.3011
G01 X2.0913 Y47.4296
G01 X2.2262 Y47.5549
G01 X2.3641 Y47.6768
G01 X2.5049 Y47.7953
G01 X2.6487 Y47.9103
G01 X2.7951 Y48.0218
G01 X2.9443 Y48.1296
G01 X3.0961 Y48.2338
G01 X3.2504 Y48.3342
G01 X3.4071 Y48.4307
G01 X3.5662 Y48.5234
G01 X3.7274 Y48.6122
G01 X3.8908 Y48.6969
G01 X4.0562 Y48.7777
G01 X4.2236 Y48.8543
G01 X4.3928 Y48.9268
G01 X4.5637 Y48.9952
G01 X4.7362 Y49.0593
G01 X4.9103 Y49.1192
G01 X5.0858 Y49.1748
G01 X5.2625 Y49.2261
G01 X5.4405 Y49.2730
G01 X5.6196 Y49.3155
G01 X5.7997 Y49.3536
G01 X5.9807 Y49.3873
G01 X6.1624 Y49.4166
G01 X6.3448 Y49.4413
G01 X6.5278 Y49.4616
G01 X6.7112 Y49.4774
G01 X6.8949 Y49.4887
G01 X7.0788 Y49.4955
G01 X7.2629 Y49.4977
G01 X7.4470 Y49.4955
G01 X7.6309 Y49.4887
G01 X7.8146 Y49.4774
G01 X7.8337 Y49.4758
G00 Z2.0000
G00 X8.7451 Y49.3496
G01 F60.00
G01 Z-0.0600
G01 F120.00
G01 X8.9062 Y49.3155
G01 X9.0852 Y49.2730
G01 X9.2632 Y49.2261
G01 X9.4400 Y49.1748
G01 X9.6155 Y49.1192
G01 X9.7896 Y49.0593
G01 X9.9621 Y48.9952
G01 X10.1330 Y48.9268
G01 X10.3022 Y48.8543
G01 X10.4696 Y48.7777
G01 X10.6350 Y48.6969
G01 X10.7320 Y48.6466
G00 Z2.0000
G00 X11.1751 Y49.0896
G01 F60.00
G01 Z-0.0600
G01 F120.00
G01 X11.0812 Y49.1413
G01 X10.9047 Y49.2329
G01 X10.7261 Y49.3201
G01 X10.5453 Y49.4028
G01 X10.3626 Y49.4812
G01 X10.1780 Y49.5550
G01 X9.9917 Y49.6243
G01 X9.8037 Y49.6889
G01 X9.6142 Y49.7490
G01 X9.4233 Y49.8043
G01 X9.2310 Y49.8550
G01 X9.0376 Y49.9009
G01 X8.8431 Y49.9421
G01 X8.6477 Y49.9785
G01 X8.4514 Y50.0101
G01 X8.2544 Y50.0368
G01 X8.0568 Y50.0587
G01 X7.8588 Y50.0758
G01 X7.6603 Y50.0880
G01 X7.4617 Y50.0953
G01 X7.2629 Y50.0977
G01 X7.0641 Y50.0953
G01 X6.8654 Y50.0880
G01 X6.6670 Y50.0758
G01 X6.4690 Y50.0587
G01 X6.2714 Y50.0368
G01 X6.0744 Y50.0101
G01 X5.8781 Y49.9785
G01 X5.6827 Y49.9421
G01 X5.4882 Y49.9009
G01 X5.2948 Y49.8550
G01 X5.1025 Y49.8043
G01 X4.9116 Y49.7490
G01 X4.7221 Y49.6889
G01 X4.5341 Y49.6243
G01 X4.3477 Y49.5550
G01 X4.1632 Y49.4812
G01 X3.9804 Y49.4028
G01 X3.7997 Y49.3201
G01 X3.6210 Y49.2329
G01 X3.4446 Y49.1413
G01 X3.2704 Y49.0455
G01 X3.0987 Y48.9454
G01 X2.9294 Y48.8411
G01 X2.7628 Y48.7327
G01 X2.5988 Y48.6202
G01 X2.4377 Y48.5037
G01 X2.2795 Y48.3834
G01 X2.1243 Y48.2591
G01 X1.9722 Y48.1311
G01 X1.8233 Y47.9995
G01 X1.6776 Y47.8642
G01 X1.5353 Y47.7253
G01 X1.3965 Y47.5830
G01 X1.2612 Y47.4374
G01 X1.1295 Y47.2884
G01 X1.0015 Y47.1363
G01 X0.8773 Y46.9811
G01 X0.7569 Y46.8229
G01 X0.6405 Y46.6618
G01 X0.5280 Y46.4979
G01 X0.4196 Y46.3312
G01 X0.3153 Y46.1620
G01 X0.2152 Y45.9902
G01 X0.1193 Y45.8161
G01 X0.0278 Y45.6396
G01 X-0.0594 Y45.4609
G01 X-0.1422 Y45.2802
G01 X-0.2205 Y45.0975
G01 X-0.2944 Y44.9129
G01 X-0.3636 Y44.7266
G01 X-0.4283 Y44.5386
G01 X-0.4883 Y44.3491
G01 X-0.5000 Y44.3088
G01 X-0.5000 Y45.9251
G01 X-0.4098 Y46.0989
G01 X-0.3069 Y46.2860
G01 X-0.1993 Y46.4704
G01 X-0.0873 Y46.6522
G01 X0.0291 Y46.8312
G01 X0.1499 Y47.0073
G01 X0.2750 Y47.1803
G01 X0.4043 Y47.3503
G01 X0.5377 Y47.5170
G01 X0.6752 Y47.6804
G01 X0.8166 Y47.8403
G01 X0.9619 Y47.9968
G01 X1.1111 Y48.1496
G01 X1.2639 Y48.2987
G01 X1.4203 Y48.4440
G01 X1.5803 Y48.5855
G01 X1.7437 Y48.7229
G01 X1.9104 Y48.8564
G01 X2.0803 Y48.9857
G01 X2.2534 Y49.1107
G01 X2.4294 Y49.2315
G01 X2.6084 Y49.3480
G01 X2.7902 Y49.4600
G01 X2.9747 Y49.5675
G01 X3.1617 Y49.6705
G01 X3.3513 Y49.7688
G01 X3.5432 Y49.8625
G01 X3.7373 Y49.9514
G01 X3.9335 Y50.0355
G01 X4.1318 Y50.1148
G01 X4.3319 Y50.1892
G01 X4.5339 Y50.2586
G01 X4.7374 Y50.3231
G01 X4.9425 Y50.3826
G01 X5.1490 Y50.4370
G01 X5.3567 Y50.4864
G01 X5.5656 Y50.5306
G01 X5.7755 Y50.5697
G01 X5.9863 Y50.6036
G01 X6.1979 Y50.6323
G01 X6.4101 Y50.6559
G01 X6.6229 Y50.6742
G01 X6.8360 Y50.6873
G01 X7.0494 Y50.6951
G01 X7.2629 Y50.6977
G01 X7.4764 Y50.6951
G01 X7.6898 Y50.6873
G01 X7.9029 Y50.6742
G01 X8.1156 Y50.6559
G01 X8.3279 Y50.6323
G01 X8.5394 Y50.6036
G01 X8.7503 Y50.5697
G01 X8.9602 Y50.5306
G01 X9.1691 Y50.4864
G01 X9.3768 Y50.4370
G01 X9.5833 Y50.3826
G01 X9.7884 Y50.3231
G01 X9.9919 Y50.2586
G01 X10.1938 Y50.1892
G01 X10.3940 Y50.1148
G01 X10.5922 Y50.0355
G01 X10.7885 Y49.9514
G01 X10.9826 Y49.8625
G01 X11.1745 Y49.7688
G01 X11.3640 Y49.6705
G01 X11.5511 Y49.5675
G01 X11.6154 Y49.5300
G01 X12.0540 Y49.9685
G01 X12.0440 Y49.9746
G01 X11.8468 Y50.0896
G01 X11.6469 Y50.1996
G01 X11.4443 Y50.3047
G01 X11.2392 Y50.4049
G01 X11.0316 Y50.4999
G01 X10.8218 Y50.5898
G01 X10.6099 Y50.6746
G01 X10.3960 Y50.7541
G01 X10.1801 Y50.8284
G01 X9.9625 Y50.8973
G01 X9.7433 Y50.9609
G01 X9.5226 Y51.0190
G01 X9.3005 Y51.0718
G01 X9.0772 Y51.1191
G01 X8.8528 Y51.1608
G01 X8.6275 Y51.1971
G01 X8.4013 Y51.2278
G01 X8.1745 Y51.2530
G01 X7.9470 Y51.2726
G01 X7.7192 Y51.2865
G01 X7.4911 Y51.2949
G01 X7.2629 Y51.2977
G01 X7.0347 Y51.2949
G01 X6.8066 Y51.2865
G01 X6.5787 Y51.2726
G01 X6.3513 Y51.2530
G01 X6.1245 Y51.2278
G01 X5.8983 Y51.1971
G01 X5.6729 Y51.1608
G01 X5.4486 Y51.1191
G01 X5.2252 Y51.0718
G01 X5.0032 Y51.0190
G01 X4.7825 Y50.9609
G01 X4.5632 Y50.8973
G01 X4.3457 Y50.8284
G01 X4.1298 Y50.7541
G01 X3.9159 Y50.6746
G01 X3.7039 Y50.5898
G01 X3.4941 Y50.4999
G01 X3.2866 Y50.4049
G01 X3.0815 Y50.3047
G01 X2.8789 Y50.1996
G01 X2.6789 Y50.0896
G01 X2.4817 Y49.9746
G01 X2.2874 Y49.8549
G01 X2.0961 Y49.7304
G01 X1.9079 Y49.6013
G01 X1.7229 Y49.4676
G01 X1.5412 Y49.3294
G01 X1.3630 Y49.1867
G01 X1.1884 Y49.0398
G01 X1.0174 Y48.8886
G01 X0.8502 Y48.7332
G01 X0.6868 Y48.5738
G01 X0.5274 Y48.4105
G01 X0.3720 Y48.2432
G01 X0.2208 Y48.0723
G01 X0.0739 Y47.8976
G01 X-0.0687 Y47.7194
G01 X-0.2069 Y47.5378
G01 X-0.3406 Y47.3528
G01 X-0.4698 Y47.1646
G01 X-0.5000 Y47.1181
G01 X-0.5000 Y48.1407
G01 X-0.3899 Y48.2782
G01 X-0.2335 Y48.4642
G01 X-0.0725 Y48.6462
G01 X0.0928 Y48.8242
G01 X0.2625 Y48.9981
G01 X0.4364 Y49.1678
G01 X0.6145 Y49.3332
G01 X0.7965 Y49.4941
G01 X0.9824 Y49.6506
G01 X1.1721 Y49.8024
G01 X1.3655 Y49.9495
G01 X1.5624 Y50.0918
G01 X1.7627 Y50.2293
G01 X1.9664 Y50.3618
G01 X2.1733 Y50.4893
G01 X2.3832 Y50.6116
G01 X2.5961 Y50.7288
G01 X2.8117 Y50.8407
G01 X3.0301 Y50.9472
G01 X3.2510 Y51.0484
G01 X3.4743 Y51.1442
G01 X3.6999 Y51.2344
G01 X3.9277 Y51.3190
G01 X4.1574 Y51.3981
G01 X4.3891 Y51.4715
G01 X4.6224 Y51.5391
G01 X4.8574 Y51.6011
G01 X5.0938 Y51.6572
G01 X5.3315 Y51.7075
G01 X5.5704 Y51.7520
G01 X5.8103 Y51.7906
G01 X6.0510 Y51.8233
G01 X6.2925 Y51.8501
G01 X6.5346 Y51.8709
G01 X6.7771 Y51.8858
G01 X7.0199 Y51.8948
G01 X7.2629 Y51.8977
G01 X7.5058 Y51.8948
G01 X7.7487 Y51.8858
G01 X7.9912 Y51.8709
G01 X8.2333 Y51.8501
G01 X8.4748 Y51.8233
G01 X8.7155 Y51.7906
G01 X8.9554 Y51.7520
G01 X9.1943 Y51.7075
G01 X9.4320 Y51.6572
G01 X9.6684 Y51.6011
G01 X9.9033 Y51.5391
G01 X10.1367 Y51.4715
G01 X10.3683 Y51.3981
G01 X10.5981 Y51.3190
G01 X10.8259 Y51.2344
G01 X11.0515 Y51.1442
G01 X11.2748 Y51.0484
G01 X11.4957 Y50.9472
G01 X11.7140 Y50.8407
G01 X11.9297 Y50.7288
G01 X12.1426 Y50.6116
G01 X12.3525 Y50.4893
G01 X12.4900 Y50.4046
G00 Z2.0000
G00 X12.9251 Y50.8396
G01 F60.00
G01 Z-0.0600
G01 F120.00
G01 X12.8804 Y50.8687
G01 X12.6610 Y51.0039
G01 X12.4383 Y51.1337
G01 X12.2126 Y51.2579
G01 X11.9838 Y51.3766
G01 X11.7522 Y51.4896
G01 X11.5179 Y51.5970
G01 X11.2811 Y51.6985
G01 X11.0418 Y51.7942
G01 X10.8002 Y51.8840
G01 X10.5565 Y51.9678
G01 X10.3109 Y52.0456
G01 X10.0634 Y52.1174
G01 X9.8142 Y52.1831
G01 X9.5635 Y52.2426
G01 X9.3113 Y52.2960
G01 X9.0580 Y52.3432
G01 X8.8036 Y52.3841
G01 X8.5482 Y52.4188
G01 X8.2921 Y52.4472
G01 X8.0353 Y52.4693
G01 X7.7781 Y52.4851
G01 X7.5206 Y52.4946
G01 X7.2629 Y52.4977
G01 X7.0052 Y52.4946
G01 X6.7477 Y52.4851
G01 X6.4905 Y52.4693
G01 X6.2337 Y52.4472
G01 X5.9776 Y52.4188
G01 X5.7222 Y52.3841
G01 X5.4678 Y52.3432
G01 X5.2144 Y52.2960
G01 X4.9623 Y52.2426
G01 X4.7116 Y52.1831
G01 X4.4624 Y52.1174
G01 X4.2149 Y52.0456
G01 X3.9692 Y51.9678
G01 X3.7255 Y51.8840
G01 X3.4840 Y51.7942
G01 X3.2447 Y51.6985
G01 X3.0079 Y51.5970
G01 X2.7736 Y51.4896
G01 X2.5420 Y51.3766
G01 X2.3132 Y51.2579
G01 X2.0875 Y51.1337
G01 X1.8648 Y51.0039
G01 X1.6454 Y50.8687
G01 X1.4294 Y50.7282
G01 X1.2169 Y50.5824
G01 X1.0080 Y50.4314
G01 X0.8030 Y50.2754
G01 X0.6018 Y50.1144
G01 X0.4046 Y49.9484
G01 X0.2115 Y49.7777
G01 X0.0227 Y49.6023
G01 X-0.1617 Y49.4224
G01 X-0.3417 Y49.2379
G01 X-0.5000 Y49.0675
G01 X-0.5000 Y49.9305
G01 X-0.3910 Y50.0369
G01 X-0.1914 Y50.2223
G01 X0.0127 Y50.4028
G01 X0.2211 Y50.5782
G01 X0.4338 Y50.7484
G01 X0.6506 Y50.9134
G01 X0.8714 Y51.0729
G01 X1.0961 Y51.2271
G01 X1.3244 Y51.3756
G01 X1.5564 Y51.5185
G01 X1.7917 Y51.6557
G01 X2.0304 Y51.7871
G01 X2.2722 Y51.9125
G01 X2.5170 Y52.0320
G01 X2.7647 Y52.1455
G01 X3.0151 Y52.2528
G01 X3.2681 Y52.3540
G01 X3.5234 Y52.4489
G01 X3.7810 Y52.5375
G01 X4.0407 Y52.6198
G01 X4.3024 Y52.6957
G01 X4.5658 Y52.7651
G01 X4.8309 Y52.8280
G01 X5.0974 Y52.8845
G01 X5.3652 Y52.9343
G01 X5.6342 Y52.9776
G01 X5.9041 Y53.0143
G01 X6.1749 Y53.0443
G01 X6.4463 Y53.0677
G01 X6.7182 Y53.0844
G01 X6.9905 Y53.0944
G01 X7.2629 Y53.0977
G01 X7.5353 Y53.0944
G01 X7.8075 Y53.0844
G01 X8.0795 Y53.0677
G01 X8.3509 Y53.0443
G01 X8.6216 Y53.0143
G01 X8.8916 Y52.9776
G01 X9.1606 Y52.9343
G01 X9.4284 Y52.8845
G01 X9.6949 Y52.8280
G01 X9.9600 Y52.7651
G01 X10.2234 Y52.6957
G01 X10.4851 Y52.6198
G01 X10.7448 Y52.5375
G01 X11.0024 Y52.4489
G01 X11.2577 Y52.3540
G01 X11.5107 Y52.2528
G01 X11.7611 Y52.1455
G01 X12.0088 Y52.0320
G01 X12.2536 Y51.9125
G01 X12.4954 Y51.7871
G01 X12.7341 Y51.6557
G01 X12.9694 Y51.5185
G01 X13.2014 Y51.3756
G01 X13.3606 Y51.2720
G00 Z2.0000
G00 X14.0527 Y51.5253
G01 F60.00
G01 Z-0.0600
G01 F120.00
G01 X13.9998 Y51.5635
G01 X13.7631 Y51.7259
G01 X13.5224 Y51.8825
G01 X13.2779 Y52.0332
G01 X13.0298 Y52.1778
G01 X12.7782 Y52.3162
G01 X12.5233 Y52.4485
G01 X12.2653 Y52.5744
G01 X12.0042 Y52.6940
G01 X11.7403 Y52.8071
G01 X11.4737 Y52.9138
G01 X11.2045 Y53.0138
G01 X10.9330 Y53.1072
G01 X10.6592 Y53.1940
G01 X10.3834 Y53.2739
G01 X10.1058 Y53.3471
G01 X9.8264 Y53.4135
G01 X9.5454 Y53.4729
G01 X9.2631 Y53.5255
G01 X8.9796 Y53.5711
G01 X8.6951 Y53.6098
G01 X8.4097 Y53.6414
G01 X8.1236 Y53.6660
G01 X7.8370 Y53.6837
G01 X7.5500 Y53.6942
G01 X7.2629 Y53.6977
G01 X6.9758 Y53.6942
G01 X6.6888 Y53.6837
G01 X6.4022 Y53.6660
G01 X6.1161 Y53.6414
G01 X5.8307 Y53.6098
G01 X5.5461 Y53.5711
G01 X5.2626 Y53.5255
G01 X4.9803 Y53.4729
G01 X4.6994 Y53.4135
G01 X4.4200 Y53.3471
G01 X4.1424 Y53.2739
G01 X3.8666 Y53.1940
G01 X3.5928 Y53.1072
G01 X3.3213 Y53.0138
G01 X3.0521 Y52.9138
G01 X2.7855 Y52.8071
G01 X2.5216 Y52.6940
G01 X2.2605 Y52.5744
G01 X2.0024 Y52.4485
G01 X1.7475 Y52.3162
G01 X1.4960 Y52.1778
G01 X1.2479 Y52.0332
G01 X1.0034 Y51.8825
G01 X0.7627 Y51.7259
G01 X0.5259 Y51.5635
G01 X0.2932 Y51.3953
G01 X0.0647 Y51.2214
G01 X-0.1595 Y51.0420
G01 X-0.3792 Y50.8571
G01 X-0.5000 Y50.7503
G01 X-0.5000 Y51.5379
G01 X-0.3045 Y51.6944
G01 X-0.0642 Y51.8772
G01 X0.1805 Y52.0540
G01 X0.4294 Y52.2248
G01 X0.6824 Y52.3894
G01 X0.9394 Y52.5478
G01 X1.2002 Y52.6998
G01 X1.4647 Y52.8454
G01 X1.7327 Y52.9844
G01 X2.0040 Y53.1168
G01 X2.2784 Y53.2425
G01 X2.5559 Y53.3615
G01 X2.8362 Y53.4736
G01 X3.1191 Y53.5787
G01 X3.4046 Y53.6769
G01 X3.6924 Y53.7681
G01 X3.9823 Y53.8522
G01 X4.2742 Y53.9291
G01 X4.5679 Y53.9989
G01 X4.8633 Y54.0614
G01 X5.1601 Y54.1167
G01 X5.4581 Y54.1646
G01 X5.7572 Y54.2052
G01 X6.0573 Y54.2385
G01 X6.3580 Y54.2644
G01 X6.6594 Y54.2829
G01 X6.9610 Y54.2940
G01 X7.2629 Y54.2977
G01 X7.5647 Y54.2940
G01 X7.8664 Y54.2829
G01 X8.1677 Y54.2644
G01 X8.4685 Y54.2385
G01 X8.7685 Y54.2052
G01 X9.0677 Y54.1646
G01 X9.3657 Y54.1167
G01 X9.6625 Y54.0614
G01 X9.9578 Y53.9989
G01 X10.2515 Y53.9291
G01 X10.5435 Y53.8522
G01 X10.8334 Y53.7681
G01 X11.1212 Y53.6769
G01 X11.4066 Y53.5787
G01 X11.6896 Y53.4736
G01 X11.9699 Y53.3615
G01 X12.2474 Y53.2425
G01 X12.5218 Y53.1168
G01 X12.7931 Y52.9844
G01 X13.0611 Y52.8454
G01 X13.3255 Y52.6998
G01 X13.5864 Y52.5478
G01 X13.8434 Y52.3894
G01 X14.0964 Y52.2248
G01 X14.3453 Y52.0540
G01 X14.5900 Y51.8772
G01 X14.8302 Y51.6944
G01 X15.0416 Y51.5253
G00 Z2.0000
G00 X15.9591 Y51.5253
G01 F60.00
G01 Z-0.0600
G01 F120.00
G01 X15.9260 Y51.5560
G01 X15.6888 Y51.7657
G01 X15.4466 Y51.9696
G01 X15.1994 Y52.1674
G01 X14.9474 Y52.3591
G01 X14.6908 Y52.5446
G01 X14.4297 Y52.7237
G01 X14.1644 Y52.8964
G01 X13.8948 Y53.0624
G01 X13.6213 Y53.2219
G01 X13.3439 Y53.3745
G01 X13.0629 Y53.5203
G01 X12.7784 Y53.6592
G01 X12.4905 Y53.7911
G01 X12.1995 Y53.9158
G01 X11.9055 Y54.0334
G01 X11.6088 Y54.1437
G01 X11.3094 Y54.2467
G01 X11.0076 Y54.3423
G01 X10.7035 Y54.4305
G01 X10.3973 Y54.5112
G01 X10.0893 Y54.5843
G01 X9.7796 Y54.6499
G01 X9.4683 Y54.7078
G01 X9.1557 Y54.7581
G01 X8.8420 Y54.8007
G01 X8.5273 Y54.8356
G01 X8.2119 Y54.8628
G01 X7.8959 Y54.8822
G01 X7.5795 Y54.8939
G01 X7.2629 Y54.8977
G01 X6.9463 Y54.8939
G01 X6.6299 Y54.8822
G01 X6.3139 Y54.8628
G01 X5.9985 Y54.8356
G01 X5.6838 Y54.8007
G01 X5.3701 Y54.7581
G01 X5.0575 Y54.7078
G01 X4.7462 Y54.6499
G01 X4.4365 Y54.5843
G01 X4.1284 Y54.5112
G01 X3.8223 Y54.4305
G01 X3.5182 Y54.3423
G01 X3.2164 Y54.2467
G01 X2.9170 Y54.1437
G01 X2.6202 Y54.0334
G01 X2.3263 Y53.9158
G01 X2.0353 Y53.7911
G01 X1.7474 Y53.6592
G01 X1.4629 Y53.5203
G01 X1.1819 Y53.3745
G01 X0.9045 Y53.2219
G01 X0.6310 Y53.0624
G01 X0.3614 Y52.8964
G01 X0.0960 Y52.7237
G01 X-0.1650 Y52.5446
G01 X-0.4216 Y52.3591
G01 X-0.5000 Y52.2995
G01 X-0.5000 Y53.0424
G01 X-0.2373 Y53.2226
G01 X0.0404 Y53.4033
G01 X0.3225 Y53.5771
G01 X0.6088 Y53.7439
G01 X0.8990 Y53.9037
G01 X1.1931 Y54.0563
G01 X1.4909 Y54.2016
G01 X1.7921 Y54.3396
G01 X2.0967 Y54.4701
G01 X2.4043 Y54.5932
G01 X2.7149 Y54.7086
G01 X3.0282 Y54.8164
G01 X3.3440 Y54.9164
G01 X3.6623 Y55.0087
G01 X3.9827 Y55.0932
G01 X4.3050 Y55.1697
G01 X4.6292 Y55.2384
G01 X4.9549 Y55.2990
G01 X5.2820 Y55.3516
G01 X5.6103 Y55.3962
G01 X5.9397 Y55.4327
G01 X6.2698 Y55.4612
G01 X6.6005 Y55.4815
G01 X6.9316 Y55.4937
G01 X7.2629 Y55.4977
G01 X7.5942 Y55.4937
G01 X7.9253 Y55.4815
G01 X8.2560 Y55.4612
G01 X8.5861 Y55.4327
G01 X8.9154 Y55.3962
G01 X9.2438 Y55.3516
G01 X9.5709 Y55.2990
G01 X9.8966 Y55.2384
G01 X10.2208 Y55.1697
G01 X10.5431 Y55.0932
G01 X10.8635 Y55.0087
G01 X11.1817 Y54.9164
G01 X11.4976 Y54.8164
G01 X11.8109 Y54.7086
G01 X12.1215 Y54.5932
G01 X12.4291 Y54.4701
G01 X12.7336 Y54.3396
G01 X13.0349 Y54.2016
G01 X13.3326 Y54.0563
G01 X13.6267 Y53.9037
G01 X13.9170 Y53.7439
G01 X14.2033 Y53.5771
G01 X14.4854 Y53.4033
G01 X14.7631 Y53.2226
G01 X15.0363 Y53.0351
G01 X15.3048 Y52.8411
G01 X15.5685 Y52.6404
G01 X15.8272 Y52.4334
G01 X16.0807 Y52.2201
G01 X16.3289 Y52.0006
G01 X16.5717 Y51.7751
G01 X16.8088 Y51.5437
G01 X16.8268 Y51.5253
G00 Z2.0000
G00 X17.6559 Y51.5253
G01 F60.00
G01 Z-0.0600
G01 F120.00
G01 X17.4748 Y51.7203
