(G-CODE GENERATED BY FLATCAM v2024.4 - www.flatcam.org - Version Date: 2024/04/15)

(Name: DRILL_1MM.drl_cnc)
(Type: G-code from Geometry)
(Units: MM)

(Created on Wednesday, 12 November 2025 at 21:19)


G01 F300.00

M5
G00 Z55.0000
T1
G00 X0.0000 Y0.0000                
(MSG, Change to Tool Dia = 1.0000 ||| Total drills for tool T1 = 46)
M0
G00 Z55.0000
		
G01 F300.00
M03
G00 X10.0250 Y54.6950
G01 Z-2.2000
G01 Z0
G00 Z2.0000
G00 X39.5500 Y17.6950
G01 Z-2.2000
G01 Z0
G00 Z2.0000
G00 X39.5500 Y20.1950
G01 Z-2.2000
G01 Z0
G00 Z2.0000
G00 X39.5500 Y34.6950
G01 Z-2.2000
G01 Z0
G00 Z2.0000
G00 X39.5500 Y37.1950
G01 Z-2.2000
G01 Z0
G00 Z2.0000
G00 X39.5250 Y26.1950
G01 Z-2.2000
G01 Z0
G00 Z2.0000
G00 X39.5250 Y28.6950
G01 Z-2.2000
G01 Z0
G00 Z2.0000
G00 X39.5250 Y43.1950
G01 Z-2.2000
G01 Z0
G00 Z2.0000
G00 X39.5250 Y45.6950
G01 Z-2.2000
G01 Z0
G00 Z2.0000
G00 X33.0250 Y8.9750
G01 Z-2.2000
G01 Z0
G00 Z2.0000
G00 X33.0250 Y11.5150
G01 Z-2.2000
G01 Z0
G00 Z2.0000
G00 X33.0250 Y14.0550
G01 Z-2.2000
G01 Z0
G00 Z2.0000
G00 X33.0250 Y16.5950
G01 Z-2.2000
G01 Z0
G00 Z2.0000
G00 X33.0250 Y19.1350
G01 Z-2.2000
G01 Z0
G00 Z2.0000
G00 X33.0250 Y21.6750
G01 Z-2.2000
G01 Z0
G00 Z2.0000
G00 X33.0250 Y24.2150
G01 Z-2.2000
G01 Z0
G00 Z2.0000
G00 X33.0250 Y26.7550
G01 Z-2.2000
G01 Z0
G00 Z2.0000
G00 X33.0250 Y29.2950
G01 Z-2.2000
G01 Z0
G00 Z2.0000
G00 X33.0250 Y31.8350
G01 Z-2.2000
G01 Z0
G00 Z2.0000
G00 X33.0250 Y34.3750
G01 Z-2.2000
G01 Z0
G00 Z2.0000
G00 X33.0250 Y36.9150
G01 Z-2.2000
G01 Z0
G00 Z2.0000
G00 X33.0250 Y39.4550
G01 Z-2.2000
G01 Z0
G00 Z2.0000
G00 X33.0250 Y41.9950
G01 Z-2.2000
G01 Z0
G00 Z2.0000
G00 X33.0250 Y44.5350
G01 Z-2.2000
G01 Z0
G00 Z2.0000
G00 X33.0250 Y47.0750
G01 Z-2.2000
G01 Z0
G00 Z2.0000
G00 X33.0250 Y49.6150
G01 Z-2.2000
G01 Z0
G00 Z2.0000
G00 X33.0250 Y52.1550
G01 Z-2.2000
G01 Z0
G00 Z2.0000
G00 X33.0250 Y54.6950
G01 Z-2.2000
G01 Z0
G00 Z2.0000
G00 X10.0250 Y8.9750
G01 Z-2.2000
G01 Z0
G00 Z2.0000
G00 X10.0250 Y11.5150
G01 Z-2.2000
G01 Z0
G00 Z2.0000
G00 X10.0250 Y14.0550
G01 Z-2.2000
G01 Z0
G00 Z2.0000
G00 X10.0250 Y16.5950
G01 Z-2.2000
G01 Z0
G00 Z2.0000
G00 X10.0250 Y19.1350
G01 Z-2.2000
G01 Z0
G00 Z2.0000
G00 X10.0250 Y21.6750
G01 Z-2.2000
G01 Z0
G00 Z2.0000
G00 X10.0250 Y24.2150
G01 Z-2.2000
G01 Z0
G00 Z2.0000
G00 X10.0250 Y26.7550
G01 Z-2.2000
G01 Z0
G00 Z2.0000
G00 X10.0250 Y29.2950
G01 Z-2.2000
G01 Z0
G00 Z2.0000
G00 X10.0250 Y31.8350
G01 Z-2.2000
G01 Z0
G00 Z2.0000
G00 X10.0250 Y34.3750
G01 Z-2.2000
G01 Z0
G00 Z2.0000
G00 X10.0250 Y36.9150
G01 Z-2.2000
G01 Z0
G00 Z2.0000
G00 X10.0250 Y39.4550
G01 Z-2.2000
G01 Z0
G00 Z2.0000
G00 X10.0250 Y41.9950
G01 Z-2.2000
G01 Z0
G00 Z2.0000
G00 X10.0250 Y44.5350
G01 Z-2.2000
G01 Z0
G00 Z2.0000
G00 X10.0250 Y47.0750
G01 Z-2.2000
G01 Z0
G00 Z2.0000
G00 X10.0250 Y49.6150
G01 Z-2.2000
G01 Z0
G00 Z2.0000
G00 X10.0250 Y52.1550
G01 Z-2.2000
G01 Z0
G00 Z2.0000
M05
G00 Z0.50


