(G-CODE GENERATED BY FLATCAM v2024.4 - www.flatcam.org - Version Date: 2024/04/15)

(Name: DRILL_3_2MM.drl_cnc)
(Type: G-code from Geometry)
(Units: MM)

(Created on Wednesday, 12 November 2025 at 21:20)


G01 F60.00

M5
G00 Z15.0000
T1
G00 X0.0000 Y0.0000                
(MSG, Change to Tool Dia = 3.2000 ||| Total drills for tool T1 = 4)
M0
G00 Z15.0000
		
G01 F60.00
M03
G00 X5.0250 Y60.5250
G01 Z-2.2000
G01 Z0
G00 Z2.0000
G00 X38.0250 Y4.5250
G01 Z-2.2000
G01 Z0
G00 Z2.0000
G00 X38.0250 Y60.5250
G01 Z-2.2000
G01 Z0
G00 Z2.0000
G00 X5.0250 Y4.5250
G01 Z-2.2000
G01 Z0
G00 Z2.0000
M05
G00 Z55.00


