(G-CODE GENERATED BY FLATCAM v2024.4 - www.flatcam.org - Version Date: 2024/04/15)

(Name: FRONT_CU.gbr_iso_combined_cnc)
(Type: G-code from Geometry)
(Units: MM)

(Created on Wednesday, 12 November 2025 at 21:16)


G01 F360.00

M5
G00 Z15.0000
G00 X0.0000 Y0.0000
T1
(MSG, Change to Tool Dia = 0.1176)
M0
G00 Z15.0000
		
M03 S10000
G01 F360.00
G00 X8.8606 Y8.9669
G01 F240.00
G01 Z-0.0499
G01 F360.00
G01 X8.8660 Y8.8609
G01 X8.8828 Y8.7478
G01 X8.9105 Y8.6369
G01 X8.9490 Y8.5293
G01 X8.9979 Y8.4260
G01 X9.0566 Y8.3280
G01 X9.1247 Y8.2362
G01 X9.2015 Y8.1515
G01 X9.2862 Y8.0747
G01 X9.3780 Y8.0066
G01 X9.4760 Y7.9479
G01 X9.5793 Y7.8990
G01 X9.6869 Y7.8605
G01 X9.7978 Y7.8328
G01 X9.9109 Y7.8160
G01 X10.0250 Y7.8104
G01 X10.1392 Y7.8160
G01 X10.2522 Y7.8328
G01 X10.3631 Y7.8605
G01 X10.4707 Y7.8990
G01 X10.5740 Y7.9479
G01 X10.6721 Y8.0066
G01 X10.7639 Y8.0747
G01 X10.8485 Y8.1515
G01 X10.9253 Y8.2362
G01 X10.9934 Y8.3280
G01 X11.0521 Y8.4260
G01 X11.1010 Y8.5293
G01 X11.1395 Y8.6369
G01 X11.1673 Y8.7478
G01 X11.1840 Y8.8609
G01 X11.1897 Y8.9750
G01 X11.1840 Y9.0892
G01 X11.1673 Y9.2022
G01 X11.1395 Y9.3131
G01 X11.1010 Y9.4207
G01 X11.0521 Y9.5240
G01 X10.9934 Y9.6221
G01 X10.9253 Y9.7139
G01 X10.8485 Y9.7985
G01 X10.7639 Y9.8753
G01 X10.6721 Y9.9434
G01 X10.5740 Y10.0021
G01 X10.4707 Y10.0510
G01 X10.3631 Y10.0895
G01 X10.2522 Y10.1173
G01 X10.1392 Y10.1340
G01 X10.0250 Y10.1397
G01 X9.9109 Y10.1340
G01 X9.7978 Y10.1173
G01 X9.6869 Y10.0895
G01 X9.5793 Y10.0510
G01 X9.4760 Y10.0021
G01 X9.3780 Y9.9434
G01 X9.2862 Y9.8753
G01 X9.2015 Y9.7985
G01 X9.1247 Y9.7139
G01 X9.0566 Y9.6221
G01 X8.9979 Y9.5240
G01 X8.9490 Y9.4207
G01 X8.9105 Y9.3131
G01 X8.8828 Y9.2022
G01 X8.8660 Y9.0892
G01 X8.8606 Y8.9831
G01 X8.8606 Y8.9669
G00 Z2.0000
G00 X8.9663 Y8.9721
G01 F240.00
G01 Z-0.0499
G01 F360.00
G01 X8.9713 Y8.8712
G01 X8.9866 Y8.7685
G01 X9.0118 Y8.6677
G01 X9.0468 Y8.5698
G01 X9.0912 Y8.4759
G01 X9.1447 Y8.3868
G01 X9.2065 Y8.3033
G01 X9.2763 Y8.2263
G01 X9.3533 Y8.1565
G01 X9.4368 Y8.0947
G01 X9.5259 Y8.0412
G01 X9.6198 Y7.9968
G01 X9.7177 Y7.9618
G01 X9.8185 Y7.9366
G01 X9.9212 Y7.9213
G01 X10.0250 Y7.9162
G01 X10.1288 Y7.9213
G01 X10.2316 Y7.9366
G01 X10.3324 Y7.9618
G01 X10.4302 Y7.9968
G01 X10.5241 Y8.0412
G01 X10.6133 Y8.0947
G01 X10.6967 Y8.1565
G01 X10.7737 Y8.2263
G01 X10.8435 Y8.3033
G01 X10.9054 Y8.3868
G01 X10.9588 Y8.4759
G01 X11.0032 Y8.5698
G01 X11.0382 Y8.6677
G01 X11.0635 Y8.7685
G01 X11.0787 Y8.8712
G01 X11.0838 Y8.9750
G01 X11.0787 Y9.0788
G01 X11.0635 Y9.1816
G01 X11.0382 Y9.2824
G01 X11.0032 Y9.3802
G01 X10.9588 Y9.4741
G01 X10.9054 Y9.5633
G01 X10.8435 Y9.6467
G01 X10.7737 Y9.7237
G01 X10.6967 Y9.7935
G01 X10.6133 Y9.8554
G01 X10.5241 Y9.9088
G01 X10.4302 Y9.9532
G01 X10.3324 Y9.9882
G01 X10.2316 Y10.0135
G01 X10.1288 Y10.0287
G01 X10.0250 Y10.0338
G01 X9.9212 Y10.0287
G01 X9.8185 Y10.0135
G01 X9.7177 Y9.9882
G01 X9.6198 Y9.9532
G01 X9.5259 Y9.9088
G01 X9.4368 Y9.8554
G01 X9.3533 Y9.7935
G01 X9.2763 Y9.7237
G01 X9.2065 Y9.6467
G01 X9.1447 Y9.5633
G01 X9.0912 Y9.4741
G01 X9.0468 Y9.3802
G01 X9.0118 Y9.2824
G01 X8.9866 Y9.1816
G01 X8.9713 Y9.0788
G01 X8.9663 Y8.9779
G01 X8.9663 Y8.9721
G00 Z2.0000
G00 X8.8606 Y11.5069
G01 F240.00
G01 Z-0.0499
G01 F360.00
G01 X8.8660 Y11.4009
G01 X8.8828 Y11.2878
G01 X8.9105 Y11.1769
G01 X8.9490 Y11.0693
G01 X8.9979 Y10.9660
G01 X9.0566 Y10.8680
G01 X9.1247 Y10.7762
G01 X9.2015 Y10.6915
G01 X9.2862 Y10.6147
G01 X9.3780 Y10.5466
G01 X9.4760 Y10.4879
G01 X9.5793 Y10.4390
G01 X9.6869 Y10.4005
G01 X9.7978 Y10.3728
G01 X9.9109 Y10.3560
G01 X10.0250 Y10.3504
G01 X10.1392 Y10.3560
G01 X10.2522 Y10.3728
G01 X10.3631 Y10.4005
G01 X10.4707 Y10.4390
G01 X10.5740 Y10.4879
G01 X10.6721 Y10.5466
G01 X10.7639 Y10.6147
G01 X10.8485 Y10.6915
G01 X10.9253 Y10.7762
G01 X10.9934 Y10.8680
G01 X11.0521 Y10.9660
G01 X11.1010 Y11.0693
G01 X11.1395 Y11.1769
G01 X11.1673 Y11.2878
G01 X11.1840 Y11.4009
G01 X11.1897 Y11.5150
G01 X11.1840 Y11.6292
G01 X11.1673 Y11.7422
G01 X11.1395 Y11.8531
G01 X11.1010 Y11.9607
G01 X11.0521 Y12.0640
G01 X10.9934 Y12.1621
G01 X10.9253 Y12.2539
G01 X10.8485 Y12.3385
G01 X10.7639 Y12.4153
G01 X10.6721 Y12.4834
G01 X10.5740 Y12.5421
G01 X10.4707 Y12.5910
G01 X10.3631 Y12.6295
G01 X10.2522 Y12.6573
G01 X10.1392 Y12.6740
G01 X10.0250 Y12.6797
G01 X9.9109 Y12.6740
G01 X9.7978 Y12.6573
G01 X9.6869 Y12.6295
G01 X9.5793 Y12.5910
G01 X9.4760 Y12.5421
G01 X9.3780 Y12.4834
G01 X9.2862 Y12.4153
G01 X9.2015 Y12.3385
G01 X9.1247 Y12.2539
G01 X9.0566 Y12.1621
G01 X8.9979 Y12.0640
G01 X8.9490 Y11.9607
G01 X8.9105 Y11.8531
G01 X8.8828 Y11.7422
G01 X8.8660 Y11.6292
G01 X8.8606 Y11.5231
G01 X8.8606 Y11.5069
G00 Z2.0000
G00 X8.9663 Y11.5121
G01 F240.00
G01 Z-0.0499
G01 F360.00
G01 X8.9713 Y11.4112
G01 X8.9866 Y11.3085
G01 X9.0118 Y11.2077
G01 X9.0468 Y11.1098
G01 X9.0912 Y11.0159
G01 X9.1447 Y10.9268
G01 X9.2065 Y10.8433
G01 X9.2763 Y10.7663
G01 X9.3533 Y10.6965
G01 X9.4368 Y10.6347
G01 X9.5259 Y10.5812
G01 X9.6198 Y10.5368
G01 X9.7177 Y10.5018
G01 X9.8185 Y10.4766
G01 X9.9212 Y10.4613
G01 X10.0250 Y10.4562
G01 X10.1288 Y10.4613
G01 X10.2316 Y10.4766
G01 X10.3324 Y10.5018
G01 X10.4302 Y10.5368
G01 X10.5241 Y10.5812
G01 X10.6133 Y10.6347
G01 X10.6967 Y10.6965
G01 X10.7737 Y10.7663
G01 X10.8435 Y10.8433
G01 X10.9054 Y10.9268
G01 X10.9588 Y11.0159
G01 X11.0032 Y11.1098
G01 X11.0382 Y11.2077
G01 X11.0635 Y11.3085
G01 X11.0787 Y11.4112
G01 X11.0838 Y11.5150
G01 X11.0787 Y11.6188
G01 X11.0635 Y11.7216
G01 X11.0382 Y11.8224
G01 X11.0032 Y11.9202
G01 X10.9588 Y12.0141
G01 X10.9054 Y12.1033
G01 X10.8435 Y12.1867
G01 X10.7737 Y12.2637
G01 X10.6967 Y12.3335
G01 X10.6133 Y12.3954
G01 X10.5241 Y12.4488
G01 X10.4302 Y12.4932
G01 X10.3324 Y12.5282
G01 X10.2316 Y12.5535
G01 X10.1288 Y12.5687
G01 X10.0250 Y12.5738
G01 X9.9212 Y12.5687
G01 X9.8185 Y12.5535
G01 X9.7177 Y12.5282
G01 X9.6198 Y12.4932
G01 X9.5259 Y12.4488
G01 X9.4368 Y12.3954
G01 X9.3533 Y12.3335
G01 X9.2763 Y12.2637
G01 X9.2065 Y12.1867
G01 X9.1447 Y12.1033
G01 X9.0912 Y12.0141
G01 X9.0468 Y11.9202
G01 X9.0118 Y11.8224
G01 X8.9866 Y11.7216
G01 X8.9713 Y11.6188
G01 X8.9663 Y11.5179
G01 X8.9663 Y11.5121
G00 Z2.0000
G00 X8.8606 Y14.0469
G01 F240.00
G01 Z-0.0499
G01 F360.00
G01 X8.8660 Y13.9409
G01 X8.8828 Y13.8278
G01 X8.9105 Y13.7169
G01 X8.9490 Y13.6093
G01 X8.9979 Y13.5060
G01 X9.0566 Y13.4080
G01 X9.1247 Y13.3162
G01 X9.2015 Y13.2315
G01 X9.2862 Y13.1547
G01 X9.3780 Y13.0866
G01 X9.4760 Y13.0279
G01 X9.5793 Y12.9790
G01 X9.6869 Y12.9405
G01 X9.7978 Y12.9128
G01 X9.9109 Y12.8960
G01 X10.0250 Y12.8904
G01 X10.1392 Y12.8960
G01 X10.2522 Y12.9128
G01 X10.3631 Y12.9405
G01 X10.4707 Y12.9790
G01 X10.5740 Y13.0279
G01 X10.6721 Y13.0866
G01 X10.7639 Y13.1547
G01 X10.8485 Y13.2315
G01 X10.9253 Y13.3162
G01 X10.9934 Y13.4080
G01 X11.0521 Y13.5060
G01 X11.1010 Y13.6093
G01 X11.1395 Y13.7169
G01 X11.1673 Y13.8278
G01 X11.1840 Y13.9409
G01 X11.1897 Y14.0550
G01 X11.1840 Y14.1692
G01 X11.1673 Y14.2822
G01 X11.1395 Y14.3931
G01 X11.1010 Y14.5007
G01 X11.0521 Y14.6040
G01 X10.9934 Y14.7021
G01 X10.9253 Y14.7939
G01 X10.8485 Y14.8785
G01 X10.7639 Y14.9553
G01 X10.6721 Y15.0234
G01 X10.5740 Y15.0821
G01 X10.4707 Y15.1310
G01 X10.3631 Y15.1695
G01 X10.2522 Y15.1973
G01 X10.1392 Y15.2140
G01 X10.0250 Y15.2197
G01 X9.9109 Y15.2140
G01 X9.7978 Y15.1973
G01 X9.6869 Y15.1695
G01 X9.5793 Y15.1310
G01 X9.4760 Y15.0821
G01 X9.3780 Y15.0234
G01 X9.2862 Y14.9553
G01 X9.2015 Y14.8785
G01 X9.1247 Y14.7939
G01 X9.0566 Y14.7021
G01 X8.9979 Y14.6040
G01 X8.9490 Y14.5007
G01 X8.9105 Y14.3931
G01 X8.8828 Y14.2822
G01 X8.8660 Y14.1692
G01 X8.8606 Y14.0631
G01 X8.8606 Y14.0469
G00 Z2.0000
G00 X8.9663 Y14.0521
G01 F240.00
G01 Z-0.0499
G01 F360.00
G01 X8.9713 Y13.9512
G01 X8.9866 Y13.8485
G01 X9.0118 Y13.7477
G01 X9.0468 Y13.6498
G01 X9.0912 Y13.5559
G01 X9.1447 Y13.4668
G01 X9.2065 Y13.3833
G01 X9.2763 Y13.3063
G01 X9.3533 Y13.2365
G01 X9.4368 Y13.1747
G01 X9.5259 Y13.1212
G01 X9.6198 Y13.0768
G01 X9.7177 Y13.0418
G01 X9.8185 Y13.0166
G01 X9.9212 Y13.0013
G01 X10.0250 Y12.9962
G01 X10.1288 Y13.0013
G01 X10.2316 Y13.0166
G01 X10.3324 Y13.0418
G01 X10.4302 Y13.0768
G01 X10.5241 Y13.1212
G01 X10.6133 Y13.1747
G01 X10.6967 Y13.2365
G01 X10.7737 Y13.3063
G01 X10.8435 Y13.3833
G01 X10.9054 Y13.4668
G01 X10.9588 Y13.5559
G01 X11.0032 Y13.6498
G01 X11.0382 Y13.7477
G01 X11.0635 Y13.8485
G01 X11.0787 Y13.9512
G01 X11.0838 Y14.0550
G01 X11.0787 Y14.1588
G01 X11.0635 Y14.2616
G01 X11.0382 Y14.3624
G01 X11.0032 Y14.4602
G01 X10.9588 Y14.5541
G01 X10.9054 Y14.6433
G01 X10.8435 Y14.7267
G01 X10.7737 Y14.8037
G01 X10.6967 Y14.8735
G01 X10.6133 Y14.9354
G01 X10.5241 Y14.9888
G01 X10.4302 Y15.0332
G01 X10.3324 Y15.0682
G01 X10.2316 Y15.0935
G01 X10.1288 Y15.1087
G01 X10.0250 Y15.1138
G01 X9.9212 Y15.1087
G01 X9.8185 Y15.0935
G01 X9.7177 Y15.0682
G01 X9.6198 Y15.0332
G01 X9.5259 Y14.9888
G01 X9.4368 Y14.9354
G01 X9.3533 Y14.8735
G01 X9.2763 Y14.8037
G01 X9.2065 Y14.7267
G01 X9.1447 Y14.6433
G01 X9.0912 Y14.5541
G01 X9.0468 Y14.4602
G01 X9.0118 Y14.3624
G01 X8.9866 Y14.2616
G01 X8.9713 Y14.1588
G01 X8.9663 Y14.0579
G01 X8.9663 Y14.0521
G00 Z2.0000
G00 X8.8606 Y16.5869
G01 F240.00
G01 Z-0.0499
G01 F360.00
G01 X8.8660 Y16.4809
G01 X8.8828 Y16.3678
G01 X8.9105 Y16.2569
G01 X8.9490 Y16.1493
G01 X8.9979 Y16.0460
G01 X9.0566 Y15.9480
G01 X9.1247 Y15.8562
G01 X9.2015 Y15.7715
G01 X9.2862 Y15.6947
G01 X9.3780 Y15.6266
G01 X9.4760 Y15.5679
G01 X9.5793 Y15.5190
G01 X9.6869 Y15.4805
G01 X9.7978 Y15.4528
G01 X9.9109 Y15.4360
G01 X10.0250 Y15.4304
G01 X10.1392 Y15.4360
G01 X10.2522 Y15.4528
G01 X10.3631 Y15.4805
G01 X10.4707 Y15.5190
G01 X10.5740 Y15.5679
G01 X10.6721 Y15.6266
G01 X10.7639 Y15.6947
G01 X10.8485 Y15.7715
G01 X10.9253 Y15.8562
G01 X10.9934 Y15.9480
G01 X11.0521 Y16.0460
G01 X11.1010 Y16.1493
G01 X11.1395 Y16.2569
G01 X11.1673 Y16.3678
G01 X11.1840 Y16.4809
G01 X11.1897 Y16.5950
G01 X11.1840 Y16.7092
G01 X11.1673 Y16.8222
G01 X11.1395 Y16.9331
G01 X11.1010 Y17.0407
G01 X11.0521 Y17.1440
G01 X10.9934 Y17.2421
G01 X10.9253 Y17.3339
G01 X10.8485 Y17.4185
G01 X10.7639 Y17.4953
G01 X10.6721 Y17.5634
G01 X10.5740 Y17.6221
G01 X10.4707 Y17.6710
G01 X10.3631 Y17.7095
G01 X10.2522 Y17.7373
G01 X10.1392 Y17.7540
G01 X10.0250 Y17.7597
G01 X9.9109 Y17.7540
G01 X9.7978 Y17.7373
G01 X9.6869 Y17.7095
G01 X9.5793 Y17.6710
G01 X9.4760 Y17.6221
G01 X9.3780 Y17.5634
G01 X9.2862 Y17.4953
G01 X9.2015 Y17.4185
G01 X9.1247 Y17.3339
G01 X9.0566 Y17.2421
G01 X8.9979 Y17.1440
G01 X8.9490 Y17.0407
G01 X8.9105 Y16.9331
G01 X8.8828 Y16.8222
G01 X8.8660 Y16.7092
G01 X8.8606 Y16.6031
G01 X8.8606 Y16.5869
G00 Z2.0000
G00 X8.9663 Y16.5921
G01 F240.00
G01 Z-0.0499
G01 F360.00
G01 X8.9713 Y16.4912
G01 X8.9866 Y16.3885
G01 X9.0118 Y16.2877
G01 X9.0468 Y16.1898
G01 X9.0912 Y16.0959
G01 X9.1447 Y16.0068
G01 X9.2065 Y15.9233
G01 X9.2763 Y15.8463
G01 X9.3533 Y15.7765
G01 X9.4368 Y15.7147
G01 X9.5259 Y15.6612
G01 X9.6198 Y15.6168
G01 X9.7177 Y15.5818
G01 X9.8185 Y15.5566
G01 X9.9212 Y15.5413
G01 X10.0250 Y15.5362
G01 X10.1288 Y15.5413
G01 X10.2316 Y15.5566
G01 X10.3324 Y15.5818
G01 X10.4302 Y15.6168
G01 X10.5241 Y15.6612
G01 X10.6133 Y15.7147
G01 X10.6967 Y15.7765
G01 X10.7737 Y15.8463
G01 X10.8435 Y15.9233
G01 X10.9054 Y16.0068
G01 X10.9588 Y16.0959
G01 X11.0032 Y16.1898
G01 X11.0382 Y16.2877
G01 X11.0635 Y16.3885
G01 X11.0787 Y16.4912
G01 X11.0838 Y16.5950
G01 X11.0787 Y16.6988
G01 X11.0635 Y16.8016
G01 X11.0382 Y16.9024
G01 X11.0032 Y17.0002
G01 X10.9588 Y17.0941
G01 X10.9054 Y17.1833
G01 X10.8435 Y17.2667
G01 X10.7737 Y17.3437
G01 X10.6967 Y17.4135
G01 X10.6133 Y17.4754
G01 X10.5241 Y17.5288
G01 X10.4302 Y17.5732
G01 X10.3324 Y17.6082
G01 X10.2316 Y17.6335
G01 X10.1288 Y17.6487
G01 X10.0250 Y17.6538
G01 X9.9212 Y17.6487
G01 X9.8185 Y17.6335
G01 X9.7177 Y17.6082
G01 X9.6198 Y17.5732
G01 X9.5259 Y17.5288
G01 X9.4368 Y17.4754
G01 X9.3533 Y17.4135
G01 X9.2763 Y17.3437
G01 X9.2065 Y17.2667
G01 X9.1447 Y17.1833
G01 X9.0912 Y17.0941
G01 X9.0468 Y17.0002
G01 X9.0118 Y16.9024
G01 X8.9866 Y16.8016
G01 X8.9713 Y16.6988
G01 X8.9663 Y16.5979
G01 X8.9663 Y16.5921
G00 Z2.0000
G00 X8.8606 Y19.1269
G01 F240.00
G01 Z-0.0499
G01 F360.00
G01 X8.8660 Y19.0209
G01 X8.8828 Y18.9078
G01 X8.9105 Y18.7969
G01 X8.9490 Y18.6893
G01 X8.9979 Y18.5860
G01 X9.0566 Y18.4880
G01 X9.1247 Y18.3962
G01 X9.2015 Y18.3115
G01 X9.2862 Y18.2347
G01 X9.3780 Y18.1666
G01 X9.4760 Y18.1079
G01 X9.5793 Y18.0590
G01 X9.6869 Y18.0205
G01 X9.7978 Y17.9928
G01 X9.9109 Y17.9760
G01 X10.0250 Y17.9704
G01 X10.1392 Y17.9760
G01 X10.2522 Y17.9928
G01 X10.3631 Y18.0205
G01 X10.4707 Y18.0590
G01 X10.5740 Y18.1079
G01 X10.6721 Y18.1666
G01 X10.7639 Y18.2347
G01 X10.8485 Y18.3115
G01 X10.9253 Y18.3962
G01 X10.9934 Y18.4880
G01 X11.0521 Y18.5860
G01 X11.1010 Y18.6893
G01 X11.1395 Y18.7969
G01 X11.1673 Y18.9078
G01 X11.1840 Y19.0209
G01 X11.1897 Y19.1350
G01 X11.1840 Y19.2492
G01 X11.1673 Y19.3622
G01 X11.1395 Y19.4731
G01 X11.1010 Y19.5807
G01 X11.0521 Y19.6840
G01 X10.9934 Y19.7821
G01 X10.9253 Y19.8739
G01 X10.8485 Y19.9585
G01 X10.7639 Y20.0353
G01 X10.6721 Y20.1034
G01 X10.5740 Y20.1621
G01 X10.4707 Y20.2110
G01 X10.3631 Y20.2495
G01 X10.2522 Y20.2773
G01 X10.1392 Y20.2940
G01 X10.0250 Y20.2997
G01 X9.9109 Y20.2940
G01 X9.7978 Y20.2773
G01 X9.6869 Y20.2495
G01 X9.5793 Y20.2110
G01 X9.4760 Y20.1621
G01 X9.3780 Y20.1034
G01 X9.2862 Y20.0353
G01 X9.2015 Y19.9585
G01 X9.1247 Y19.8739
G01 X9.0566 Y19.7821
G01 X8.9979 Y19.6840
G01 X8.9490 Y19.5807
G01 X8.9105 Y19.4731
G01 X8.8828 Y19.3622
G01 X8.8660 Y19.2492
G01 X8.8606 Y19.1431
G01 X8.8606 Y19.1269
G00 Z2.0000
G00 X8.9663 Y19.1321
G01 F240.00
G01 Z-0.0499
G01 F360.00
G01 X8.9713 Y19.0312
G01 X8.9866 Y18.9285
G01 X9.0118 Y18.8277
G01 X9.0468 Y18.7298
G01 X9.0912 Y18.6359
G01 X9.1447 Y18.5468
G01 X9.2065 Y18.4633
G01 X9.2763 Y18.3863
G01 X9.3533 Y18.3165
G01 X9.4368 Y18.2547
G01 X9.5259 Y18.2012
G01 X9.6198 Y18.1568
G01 X9.7177 Y18.1218
G01 X9.8185 Y18.0966
G01 X9.9212 Y18.0813
G01 X10.0250 Y18.0762
G01 X10.1288 Y18.0813
G01 X10.2316 Y18.0966
G01 X10.3324 Y18.1218
G01 X10.4302 Y18.1568
G01 X10.5241 Y18.2012
G01 X10.6133 Y18.2547
G01 X10.6967 Y18.3165
G01 X10.7737 Y18.3863
G01 X10.8435 Y18.4633
G01 X10.9054 Y18.5468
G01 X10.9588 Y18.6359
G01 X11.0032 Y18.7298
G01 X11.0382 Y18.8277
G01 X11.0635 Y18.9285
G01 X11.0787 Y19.0312
G01 X11.0838 Y19.1350
G01 X11.0787 Y19.2388
G01 X11.0635 Y19.3416
G01 X11.0382 Y19.4424
G01 X11.0032 Y19.5402
G01 X10.9588 Y19.6341
G01 X10.9054 Y19.7233
G01 X10.8435 Y19.8067
G01 X10.7737 Y19.8837
G01 X10.6967 Y19.9535
G01 X10.6133 Y20.0154
G01 X10.5241 Y20.0688
G01 X10.4302 Y20.1132
G01 X10.3324 Y20.1482
G01 X10.2316 Y20.1735
G01 X10.1288 Y20.1887
G01 X10.0250 Y20.1938
G01 X9.9212 Y20.1887
G01 X9.8185 Y20.1735
G01 X9.7177 Y20.1482
G01 X9.6198 Y20.1132
G01 X9.5259 Y20.0688
G01 X9.4368 Y20.0154
G01 X9.3533 Y19.9535
G01 X9.2763 Y19.8837
G01 X9.2065 Y19.8067
G01 X9.1447 Y19.7233
G01 X9.0912 Y19.6341
G01 X9.0468 Y19.5402
G01 X9.0118 Y19.4424
G01 X8.9866 Y19.3416
G01 X8.9713 Y19.2388
G01 X8.9663 Y19.1379
G01 X8.9663 Y19.1321
G00 Z2.0000
G00 X8.8606 Y21.6669
G01 F240.00
G01 Z-0.0499
G01 F360.00
G01 X8.8660 Y21.5609
G01 X8.8828 Y21.4478
G01 X8.9105 Y21.3369
G01 X8.9490 Y21.2293
G01 X8.9979 Y21.1260
G01 X9.0566 Y21.0280
G01 X9.1247 Y20.9362
G01 X9.2015 Y20.8515
G01 X9.2862 Y20.7747
G01 X9.3780 Y20.7066
G01 X9.4760 Y20.6479
G01 X9.5793 Y20.5990
G01 X9.6869 Y20.5605
G01 X9.7978 Y20.5328
G01 X9.9109 Y20.5160
G01 X10.0250 Y20.5104
G01 X10.1392 Y20.5160
G01 X10.2522 Y20.5328
G01 X10.3631 Y20.5605
G01 X10.4707 Y20.5990
G01 X10.5740 Y20.6479
G01 X10.6721 Y20.7066
G01 X10.7639 Y20.7747
G01 X10.8485 Y20.8515
G01 X10.9253 Y20.9362
G01 X10.9934 Y21.0280
G01 X11.0521 Y21.1260
G01 X11.1010 Y21.2293
G01 X11.1395 Y21.3369
G01 X11.1673 Y21.4478
G01 X11.1840 Y21.5609
G01 X11.1897 Y21.6750
G01 X11.1840 Y21.7892
G01 X11.1673 Y21.9022
G01 X11.1395 Y22.0131
G01 X11.1010 Y22.1207
G01 X11.0521 Y22.2240
G01 X10.9934 Y22.3221
G01 X10.9253 Y22.4139
G01 X10.8485 Y22.4985
G01 X10.7639 Y22.5753
G01 X10.6721 Y22.6434
G01 X10.5740 Y22.7021
G01 X10.4707 Y22.7510
G01 X10.3631 Y22.7895
G01 X10.2522 Y22.8173
G01 X10.1392 Y22.8340
G01 X10.0250 Y22.8397
G01 X9.9109 Y22.8340
G01 X9.7978 Y22.8173
G01 X9.6869 Y22.7895
G01 X9.5793 Y22.7510
G01 X9.4760 Y22.7021
G01 X9.3780 Y22.6434
G01 X9.2862 Y22.5753
G01 X9.2015 Y22.4985
G01 X9.1247 Y22.4139
G01 X9.0566 Y22.3221
G01 X8.9979 Y22.2240
G01 X8.9490 Y22.1207
G01 X8.9105 Y22.0131
G01 X8.8828 Y21.9022
G01 X8.8660 Y21.7892
G01 X8.8606 Y21.6831
G01 X8.8606 Y21.6669
G00 Z2.0000
G00 X8.9663 Y21.6721
G01 F240.00
G01 Z-0.0499
G01 F360.00
G01 X8.9713 Y21.5712
G01 X8.9866 Y21.4685
G01 X9.0118 Y21.3677
G01 X9.0468 Y21.2698
G01 X9.0912 Y21.1759
G01 X9.1447 Y21.0868
G01 X9.2065 Y21.0033
G01 X9.2763 Y20.9263
G01 X9.3533 Y20.8565
G01 X9.4368 Y20.7947
G01 X9.5259 Y20.7412
G01 X9.6198 Y20.6968
G01 X9.7177 Y20.6618
G01 X9.8185 Y20.6366
G01 X9.9212 Y20.6213
G01 X10.0250 Y20.6162
G01 X10.1288 Y20.6213
G01 X10.2316 Y20.6366
G01 X10.3324 Y20.6618
G01 X10.4302 Y20.6968
G01 X10.5241 Y20.7412
G01 X10.6133 Y20.7947
G01 X10.6967 Y20.8565
G01 X10.7737 Y20.9263
G01 X10.8435 Y21.0033
G01 X10.9054 Y21.0868
G01 X10.9588 Y21.1759
G01 X11.0032 Y21.2698
G01 X11.0382 Y21.3677
G01 X11.0635 Y21.4685
G01 X11.0787 Y21.5712
G01 X11.0838 Y21.6750
G01 X11.0787 Y21.7788
G01 X11.0635 Y21.8816
G01 X11.0382 Y21.9824
G01 X11.0032 Y22.0802
G01 X10.9588 Y22.1741
G01 X10.9054 Y22.2633
G01 X10.8435 Y22.3467
G01 X10.7737 Y22.4237
G01 X10.6967 Y22.4935
G01 X10.6133 Y22.5554
G01 X10.5241 Y22.6088
G01 X10.4302 Y22.6532
G01 X10.3324 Y22.6882
G01 X10.2316 Y22.7135
G01 X10.1288 Y22.7287
G01 X10.0250 Y22.7338
G01 X9.9212 Y22.7287
G01 X9.8185 Y22.7135
G01 X9.7177 Y22.6882
G01 X9.6198 Y22.6532
G01 X9.5259 Y22.6088
G01 X9.4368 Y22.5554
G01 X9.3533 Y22.4935
G01 X9.2763 Y22.4237
G01 X9.2065 Y22.3467
G01 X9.1447 Y22.2633
G01 X9.0912 Y22.1741
G01 X9.0468 Y22.0802
G01 X9.0118 Y21.9824
G01 X8.9866 Y21.8816
G01 X8.9713 Y21.7788
G01 X8.9663 Y21.6779
G01 X8.9663 Y21.6721
G00 Z2.0000
G00 X8.8606 Y24.2069
G01 F240.00
G01 Z-0.0499
G01 F360.00
G01 X8.8660 Y24.1009
G01 X8.8828 Y23.9878
G01 X8.9105 Y23.8769
G01 X8.9490 Y23.7693
G01 X8.9979 Y23.6660
G01 X9.0566 Y23.5680
G01 X9.1247 Y23.4762
G01 X9.2015 Y23.3915
G01 X9.2862 Y23.3147
G01 X9.3780 Y23.2466
G01 X9.4760 Y23.1879
G01 X9.5793 Y23.1390
G01 X9.6869 Y23.1005
G01 X9.7978 Y23.0728
G01 X9.9109 Y23.0560
G01 X10.0250 Y23.0504
G01 X10.1392 Y23.0560
G01 X10.2522 Y23.0728
G01 X10.3631 Y23.1005
G01 X10.4707 Y23.1390
G01 X10.5740 Y23.1879
G01 X10.6721 Y23.2466
G01 X10.7639 Y23.3147
G01 X10.8485 Y23.3915
G01 X10.9253 Y23.4762
G01 X10.9934 Y23.5680
G01 X11.0521 Y23.6660
G01 X11.1010 Y23.7693
G01 X11.1395 Y23.8769
G01 X11.1673 Y23.9878
G01 X11.1840 Y24.1009
G01 X11.1897 Y24.2150
G01 X11.1840 Y24.3292
G01 X11.1673 Y24.4422
G01 X11.1395 Y24.5531
G01 X11.1010 Y24.6607
G01 X11.0521 Y24.7640
G01 X10.9934 Y24.8621
G01 X10.9253 Y24.9539
G01 X10.8485 Y25.0385
G01 X10.7639 Y25.1153
G01 X10.6721 Y25.1834
G01 X10.5740 Y25.2421
G01 X10.4707 Y25.2910
G01 X10.3631 Y25.3295
G01 X10.2522 Y25.3573
G01 X10.1392 Y25.3740
G01 X10.0250 Y25.3797
G01 X9.9109 Y25.3740
G01 X9.7978 Y25.3573
G01 X9.6869 Y25.3295
G01 X9.5793 Y25.2910
G01 X9.4760 Y25.2421
G01 X9.3780 Y25.1834
G01 X9.2862 Y25.1153
G01 X9.2015 Y25.0385
G01 X9.1247 Y24.9539
G01 X9.0566 Y24.8621
G01 X8.9979 Y24.7640
G01 X8.9490 Y24.6607
G01 X8.9105 Y24.5531
G01 X8.8828 Y24.4422
G01 X8.8660 Y24.3292
G01 X8.8606 Y24.2231
G01 X8.8606 Y24.2069
G00 Z2.0000
G00 X8.9663 Y24.2121
G01 F240.00
G01 Z-0.0499
G01 F360.00
G01 X8.9713 Y24.1112
G01 X8.9866 Y24.0085
G01 X9.0118 Y23.9077
G01 X9.0468 Y23.8098
G01 X9.0912 Y23.7159
G01 X9.1447 Y23.6268
G01 X9.2065 Y23.5433
G01 X9.2763 Y23.4663
G01 X9.3533 Y23.3965
G01 X9.4368 Y23.3347
G01 X9.5259 Y23.2812
G01 X9.6198 Y23.2368
G01 X9.7177 Y23.2018
G01 X9.8185 Y23.1766
G01 X9.9212 Y23.1613
G01 X10.0250 Y23.1562
G01 X10.1288 Y23.1613
G01 X10.2316 Y23.1766
G01 X10.3324 Y23.2018
G01 X10.4302 Y23.2368
G01 X10.5241 Y23.2812
G01 X10.6133 Y23.3347
G01 X10.6967 Y23.3965
G01 X10.7737 Y23.4663
G01 X10.8435 Y23.5433
G01 X10.9054 Y23.6268
G01 X10.9588 Y23.7159
G01 X11.0032 Y23.8098
G01 X11.0382 Y23.9077
G01 X11.0635 Y24.0085
G01 X11.0787 Y24.1112
G01 X11.0838 Y24.2150
G01 X11.0787 Y24.3188
G01 X11.0635 Y24.4216
G01 X11.0382 Y24.5224
G01 X11.0032 Y24.6202
G01 X10.9588 Y24.7141
G01 X10.9054 Y24.8033
G01 X10.8435 Y24.8867
G01 X10.7737 Y24.9637
G01 X10.6967 Y25.0335
G01 X10.6133 Y25.0954
G01 X10.5241 Y25.1488
G01 X10.4302 Y25.1932
G01 X10.3324 Y25.2282
G01 X10.2316 Y25.2535
G01 X10.1288 Y25.2687
G01 X10.0250 Y25.2738
G01 X9.9212 Y25.2687
G01 X9.8185 Y25.2535
G01 X9.7177 Y25.2282
G01 X9.6198 Y25.1932
G01 X9.5259 Y25.1488
G01 X9.4368 Y25.0954
G01 X9.3533 Y25.0335
G01 X9.2763 Y24.9637
G01 X9.2065 Y24.8867
G01 X9.1447 Y24.8033
G01 X9.0912 Y24.7141
G01 X9.0468 Y24.6202
G01 X9.0118 Y24.5224
G01 X8.9866 Y24.4216
G01 X8.9713 Y24.3188
G01 X8.9663 Y24.2179
G01 X8.9663 Y24.2121
G00 Z2.0000
G00 X8.8604 Y26.7510
G01 F240.00
G01 Z-0.0499
G01 F360.00
G01 X8.8660 Y26.6409
G01 X8.8828 Y26.5278
G01 X8.9105 Y26.4169
G01 X8.9490 Y26.3093
G01 X8.9979 Y26.2060
G01 X9.0566 Y26.1080
G01 X9.1247 Y26.0162
G01 X9.2015 Y25.9315
G01 X9.2862 Y25.8547
G01 X9.3780 Y25.7866
G01 X9.4760 Y25.7279
G01 X9.5793 Y25.6790
G01 X9.6869 Y25.6405
G01 X9.7978 Y25.6128
G01 X9.9109 Y25.5960
G01 X10.0250 Y25.5904
G01 X10.1392 Y25.5960
G01 X10.2522 Y25.6128
G01 X10.3631 Y25.6405
G01 X10.4707 Y25.6790
G01 X10.5740 Y25.7279
G01 X10.6721 Y25.7866
G01 X10.7639 Y25.8547
G01 X10.8485 Y25.9315
G01 X10.9253 Y26.0162
G01 X10.9934 Y26.1080
G01 X11.0521 Y26.2060
G01 X11.1010 Y26.3093
G01 X11.1395 Y26.4169
G01 X11.1673 Y26.5278
G01 X11.1840 Y26.6409
G01 X11.1897 Y26.7550
G01 X11.1840 Y26.8692
G01 X11.1673 Y26.9822
G01 X11.1395 Y27.0931
G01 X11.1010 Y27.2007
G01 X11.0521 Y27.3040
G01 X10.9934 Y27.4021
G01 X10.9253 Y27.4939
G01 X10.8485 Y27.5785
G01 X10.7639 Y27.6553
G01 X10.6721 Y27.7234
G01 X10.5740 Y27.7821
G01 X10.4707 Y27.8310
G01 X10.3631 Y27.8695
G01 X10.2522 Y27.8973
G01 X10.1392 Y27.9140
G01 X10.0250 Y27.9197
G01 X9.9109 Y27.9140
G01 X9.7978 Y27.8973
G01 X9.6869 Y27.8695
G01 X9.5793 Y27.8310
G01 X9.4760 Y27.7821
G01 X9.3780 Y27.7234
G01 X9.2862 Y27.6553
G01 X9.2015 Y27.5785
G01 X9.1247 Y27.4939
G01 X9.0566 Y27.4021
G01 X8.9979 Y27.3040
G01 X8.9490 Y27.2007
G01 X8.9105 Y27.0931
G01 X8.8828 Y26.9822
G01 X8.8660 Y26.8692
G01 X8.8606 Y26.7631
G01 X8.8604 Y26.7510
G00 Z2.0000
G00 X8.9662 Y26.7536
G01 F240.00
G01 Z-0.0499
G01 F360.00
G01 X8.9713 Y26.6512
G01 X8.9866 Y26.5485
G01 X9.0118 Y26.4477
G01 X9.0468 Y26.3498
G01 X9.0912 Y26.2559
G01 X9.1447 Y26.1668
G01 X9.2065 Y26.0833
G01 X9.2763 Y26.0063
G01 X9.3533 Y25.9365
G01 X9.4368 Y25.8747
G01 X9.5259 Y25.8212
G01 X9.6198 Y25.7768
G01 X9.7177 Y25.7418
G01 X9.8185 Y25.7166
G01 X9.9212 Y25.7013
G01 X10.0250 Y25.6962
G01 X10.1288 Y25.7013
G01 X10.2316 Y25.7166
G01 X10.3324 Y25.7418
G01 X10.4302 Y25.7768
G01 X10.5241 Y25.8212
G01 X10.6133 Y25.8747
G01 X10.6967 Y25.9365
G01 X10.7737 Y26.0063
G01 X10.8435 Y26.0833
G01 X10.9054 Y26.1668
G01 X10.9588 Y26.2559
G01 X11.0032 Y26.3498
G01 X11.0382 Y26.4477
G01 X11.0635 Y26.5485
G01 X11.0787 Y26.6512
G01 X11.0838 Y26.7550
G01 X11.0787 Y26.8588
G01 X11.0635 Y26.9616
G01 X11.0382 Y27.0624
G01 X11.0032 Y27.1602
G01 X10.9588 Y27.2541
G01 X10.9054 Y27.3433
G01 X10.8435 Y27.4267
G01 X10.7737 Y27.5037
G01 X10.6967 Y27.5735
G01 X10.6133 Y27.6354
G01 X10.5241 Y27.6888
G01 X10.4302 Y27.7332
G01 X10.3324 Y27.7682
G01 X10.2316 Y27.7935
G01 X10.1288 Y27.8087
G01 X10.0250 Y27.8138
G01 X9.9212 Y27.8087
G01 X9.8185 Y27.7935
G01 X9.7177 Y27.7682
G01 X9.6198 Y27.7332
G01 X9.5259 Y27.6888
G01 X9.4368 Y27.6354
G01 X9.3533 Y27.5735
G01 X9.2763 Y27.5037
G01 X9.2065 Y27.4267
G01 X9.1447 Y27.3433
G01 X9.0912 Y27.2541
G01 X9.0468 Y27.1602
G01 X9.0118 Y27.0624
G01 X8.9866 Y26.9616
G01 X8.9713 Y26.8588
G01 X8.9662 Y26.7536
G00 Z2.0000
G00 X8.8604 Y29.2910
G01 F240.00
G01 Z-0.0499
G01 F360.00
G01 X8.8660 Y29.1809
G01 X8.8828 Y29.0678
G01 X8.9105 Y28.9569
G01 X8.9490 Y28.8493
G01 X8.9979 Y28.7460
G01 X9.0566 Y28.6480
G01 X9.1247 Y28.5562
G01 X9.2015 Y28.4715
G01 X9.2862 Y28.3947
G01 X9.3780 Y28.3266
G01 X9.4760 Y28.2679
G01 X9.5793 Y28.2190
G01 X9.6869 Y28.1805
G01 X9.7978 Y28.1528
G01 X9.9109 Y28.1360
G01 X10.0250 Y28.1304
G01 X10.1392 Y28.1360
G01 X10.2522 Y28.1528
G01 X10.3631 Y28.1805
G01 X10.4707 Y28.2190
G01 X10.5740 Y28.2679
G01 X10.6721 Y28.3266
G01 X10.7639 Y28.3947
G01 X10.8485 Y28.4715
G01 X10.9253 Y28.5562
G01 X10.9934 Y28.6480
G01 X11.0521 Y28.7460
G01 X11.1010 Y28.8493
G01 X11.1395 Y28.9569
G01 X11.1673 Y29.0678
G01 X11.1840 Y29.1809
G01 X11.1897 Y29.2950
G01 X11.1840 Y29.4092
G01 X11.1673 Y29.5222
G01 X11.1395 Y29.6331
G01 X11.1010 Y29.7407
G01 X11.0521 Y29.8440
G01 X10.9934 Y29.9421
G01 X10.9253 Y30.0339
G01 X10.8485 Y30.1185
G01 X10.7639 Y30.1953
G01 X10.6721 Y30.2634
G01 X10.5740 Y30.3221
G01 X10.4707 Y30.3710
G01 X10.3631 Y30.4095
G01 X10.2522 Y30.4373
G01 X10.1392 Y30.4540
G01 X10.0250 Y30.4597
G01 X9.9109 Y30.4540
G01 X9.7978 Y30.4373
G01 X9.6869 Y30.4095
G01 X9.5793 Y30.3710
G01 X9.4760 Y30.3221
G01 X9.3780 Y30.2634
G01 X9.2862 Y30.1953
G01 X9.2015 Y30.1185
G01 X9.1247 Y30.0339
G01 X9.0566 Y29.9421
G01 X8.9979 Y29.8440
G01 X8.9490 Y29.7407
G01 X8.9105 Y29.6331
G01 X8.8828 Y29.5222
G01 X8.8660 Y29.4092
G01 X8.8606 Y29.3031
G01 X8.8604 Y29.2910
G00 Z2.0000
G00 X8.9662 Y29.2936
G01 F240.00
G01 Z-0.0499
G01 F360.00
G01 X8.9713 Y29.1912
G01 X8.9866 Y29.0885
G01 X9.0118 Y28.9877
G01 X9.0468 Y28.8898
G01 X9.0912 Y28.7959
G01 X9.1447 Y28.7068
G01 X9.2065 Y28.6233
G01 X9.2763 Y28.5463
G01 X9.3533 Y28.4765
G01 X9.4368 Y28.4147
G01 X9.5259 Y28.3612
G01 X9.6198 Y28.3168
G01 X9.7177 Y28.2818
G01 X9.8185 Y28.2566
G01 X9.9212 Y28.2413
G01 X10.0250 Y28.2362
G01 X10.1288 Y28.2413
G01 X10.2316 Y28.2566
G01 X10.3324 Y28.2818
G01 X10.4302 Y28.3168
G01 X10.5241 Y28.3612
G01 X10.6133 Y28.4147
G01 X10.6967 Y28.4765
G01 X10.7737 Y28.5463
G01 X10.8435 Y28.6233
G01 X10.9054 Y28.7068
G01 X10.9588 Y28.7959
G01 X11.0032 Y28.8898
G01 X11.0382 Y28.9877
G01 X11.0635 Y29.0885
G01 X11.0787 Y29.1912
G01 X11.0838 Y29.2950
G01 X11.0787 Y29.3988
G01 X11.0635 Y29.5016
G01 X11.0382 Y29.6024
G01 X11.0032 Y29.7002
G01 X10.9588 Y29.7941
G01 X10.9054 Y29.8833
G01 X10.8435 Y29.9667
G01 X10.7737 Y30.0437
G01 X10.6967 Y30.1135
G01 X10.6133 Y30.1754
G01 X10.5241 Y30.2288
G01 X10.4302 Y30.2732
G01 X10.3324 Y30.3082
G01 X10.2316 Y30.3335
G01 X10.1288 Y30.3487
G01 X10.0250 Y30.3538
G01 X9.9212 Y30.3487
G01 X9.8185 Y30.3335
G01 X9.7177 Y30.3082
G01 X9.6198 Y30.2732
G01 X9.5259 Y30.2288
G01 X9.4368 Y30.1754
G01 X9.3533 Y30.1135
G01 X9.2763 Y30.0437
G01 X9.2065 Y29.9667
G01 X9.1447 Y29.8833
G01 X9.0912 Y29.7941
G01 X9.0468 Y29.7002
G01 X9.0118 Y29.6024
G01 X8.9866 Y29.5016
G01 X8.9713 Y29.3988
G01 X8.9662 Y29.2936
G00 Z2.0000
G00 X8.8606 Y31.8269
G01 F240.00
G01 Z-0.0499
G01 F360.00
G01 X8.8660 Y31.7209
G01 X8.8828 Y31.6078
G01 X8.9105 Y31.4969
G01 X8.9490 Y31.3893
G01 X8.9979 Y31.2860
G01 X9.0566 Y31.1880
G01 X9.1247 Y31.0962
G01 X9.2015 Y31.0115
G01 X9.2862 Y30.9347
G01 X9.3780 Y30.8666
G01 X9.4760 Y30.8079
G01 X9.5793 Y30.7590
G01 X9.6869 Y30.7205
G01 X9.7978 Y30.6928
G01 X9.9109 Y30.6760
G01 X10.0250 Y30.6704
G01 X10.1392 Y30.6760
G01 X10.2522 Y30.6928
G01 X10.3631 Y30.7205
G01 X10.4707 Y30.7590
G01 X10.5740 Y30.8079
G01 X10.6721 Y30.8666
G01 X10.7639 Y30.9347
G01 X10.8485 Y31.0115
G01 X10.9253 Y31.0962
G01 X10.9934 Y31.1880
G01 X11.0521 Y31.2860
G01 X11.1010 Y31.3893
G01 X11.1395 Y31.4969
G01 X11.1673 Y31.6078
G01 X11.1840 Y31.7209
G01 X11.1897 Y31.8350
G01 X11.1840 Y31.9492
G01 X11.1673 Y32.0622
G01 X11.1395 Y32.1731
G01 X11.1010 Y32.2807
G01 X11.0521 Y32.3840
G01 X10.9934 Y32.4821
G01 X10.9253 Y32.5739
G01 X10.8485 Y32.6585
G01 X10.7639 Y32.7353
G01 X10.6721 Y32.8034
G01 X10.5740 Y32.8621
G01 X10.4707 Y32.9110
G01 X10.3631 Y32.9495
G01 X10.2522 Y32.9773
G01 X10.1392 Y32.9940
G01 X10.0250 Y32.9997
G01 X9.9109 Y32.9940
G01 X9.7978 Y32.9773
G01 X9.6869 Y32.9495
G01 X9.5793 Y32.9110
G01 X9.4760 Y32.8621
G01 X9.3780 Y32.8034
G01 X9.2862 Y32.7353
G01 X9.2015 Y32.6585
G01 X9.1247 Y32.5739
G01 X9.0566 Y32.4821
G01 X8.9979 Y32.3840
G01 X8.9490 Y32.2807
G01 X8.9105 Y32.1731
G01 X8.8828 Y32.0622
G01 X8.8660 Y31.9492
G01 X8.8606 Y31.8431
G01 X8.8606 Y31.8269
G00 Z2.0000
G00 X8.9663 Y31.8321
G01 F240.00
G01 Z-0.0499
G01 F360.00
G01 X8.9713 Y31.7312
G01 X8.9866 Y31.6285
G01 X9.0118 Y31.5277
G01 X9.0468 Y31.4298
G01 X9.0912 Y31.3359
G01 X9.1447 Y31.2468
G01 X9.2065 Y31.1633
G01 X9.2763 Y31.0863
G01 X9.3533 Y31.0165
G01 X9.4368 Y30.9547
G01 X9.5259 Y30.9012
G01 X9.6198 Y30.8568
G01 X9.7177 Y30.8218
G01 X9.8185 Y30.7966
G01 X9.9212 Y30.7813
G01 X10.0250 Y30.7762
G01 X10.1288 Y30.7813
G01 X10.2316 Y30.7966
G01 X10.3324 Y30.8218
G01 X10.4302 Y30.8568
G01 X10.5241 Y30.9012
G01 X10.6133 Y30.9547
G01 X10.6967 Y31.0165
G01 X10.7737 Y31.0863
G01 X10.8435 Y31.1633
G01 X10.9054 Y31.2468
G01 X10.9588 Y31.3359
G01 X11.0032 Y31.4298
G01 X11.0382 Y31.5277
G01 X11.0635 Y31.6285
G01 X11.0787 Y31.7312
G01 X11.0838 Y31.8350
G01 X11.0787 Y31.9388
G01 X11.0635 Y32.0416
G01 X11.0382 Y32.1424
G01 X11.0032 Y32.2402
G01 X10.9588 Y32.3341
G01 X10.9054 Y32.4233
G01 X10.8435 Y32.5067
G01 X10.7737 Y32.5837
G01 X10.6967 Y32.6535
G01 X10.6133 Y32.7154
G01 X10.5241 Y32.7688
G01 X10.4302 Y32.8132
G01 X10.3324 Y32.8482
G01 X10.2316 Y32.8735
G01 X10.1288 Y32.8887
G01 X10.0250 Y32.8938
G01 X9.9212 Y32.8887
G01 X9.8185 Y32.8735
G01 X9.7177 Y32.8482
G01 X9.6198 Y32.8132
G01 X9.5259 Y32.7688
G01 X9.4368 Y32.7154
G01 X9.3533 Y32.6535
G01 X9.2763 Y32.5837
G01 X9.2065 Y32.5067
G01 X9.1447 Y32.4233
G01 X9.0912 Y32.3341
G01 X9.0468 Y32.2402
G01 X9.0118 Y32.1424
G01 X8.9866 Y32.0416
G01 X8.9713 Y31.9388
G01 X8.9663 Y31.8379
G01 X8.9663 Y31.8321
G00 Z2.0000
G00 X8.8606 Y34.3669
G01 F240.00
G01 Z-0.0499
G01 F360.00
G01 X8.8660 Y34.2609
G01 X8.8828 Y34.1478
G01 X8.9105 Y34.0369
G01 X8.9490 Y33.9293
G01 X8.9979 Y33.8260
G01 X9.0566 Y33.7280
G01 X9.1247 Y33.6362
G01 X9.2015 Y33.5515
G01 X9.2862 Y33.4747
G01 X9.3780 Y33.4066
G01 X9.4760 Y33.3479
G01 X9.5793 Y33.2990
G01 X9.6869 Y33.2605
G01 X9.7978 Y33.2328
G01 X9.9109 Y33.2160
G01 X10.0250 Y33.2104
G01 X10.1392 Y33.2160
G01 X10.2522 Y33.2328
G01 X10.3631 Y33.2605
G01 X10.4707 Y33.2990
G01 X10.5740 Y33.3479
G01 X10.6721 Y33.4066
G01 X10.7639 Y33.4747
G01 X10.8485 Y33.5515
G01 X10.9253 Y33.6362
G01 X10.9934 Y33.7280
G01 X11.0521 Y33.8260
G01 X11.1010 Y33.9293
G01 X11.1395 Y34.0369
G01 X11.1673 Y34.1478
G01 X11.1840 Y34.2609
G01 X11.1897 Y34.3750
G01 X11.1840 Y34.4892
G01 X11.1673 Y34.6022
G01 X11.1395 Y34.7131
G01 X11.1010 Y34.8207
G01 X11.0521 Y34.9240
G01 X10.9934 Y35.0221
G01 X10.9253 Y35.1139
G01 X10.8485 Y35.1985
G01 X10.7639 Y35.2753
G01 X10.6721 Y35.3434
G01 X10.5740 Y35.4021
G01 X10.4707 Y35.4510
G01 X10.3631 Y35.4895
G01 X10.2522 Y35.5173
G01 X10.1392 Y35.5340
G01 X10.0250 Y35.5397
G01 X9.9109 Y35.5340
G01 X9.7978 Y35.5173
G01 X9.6869 Y35.4895
G01 X9.5793 Y35.4510
G01 X9.4760 Y35.4021
G01 X9.3780 Y35.3434
G01 X9.2862 Y35.2753
G01 X9.2015 Y35.1985
G01 X9.1247 Y35.1139
G01 X9.0566 Y35.0221
G01 X8.9979 Y34.9240
G01 X8.9490 Y34.8207
G01 X8.9105 Y34.7131
G01 X8.8828 Y34.6022
G01 X8.8660 Y34.4892
G01 X8.8606 Y34.3831
G01 X8.8606 Y34.3669
G00 Z2.0000
G00 X8.9663 Y34.3721
G01 F240.00
G01 Z-0.0499
G01 F360.00
G01 X8.9713 Y34.2712
G01 X8.9866 Y34.1685
G01 X9.0118 Y34.0677
G01 X9.0468 Y33.9698
G01 X9.0912 Y33.8759
G01 X9.1447 Y33.7868
G01 X9.2065 Y33.7033
G01 X9.2763 Y33.6263
G01 X9.3533 Y33.5565
G01 X9.4368 Y33.4947
G01 X9.5259 Y33.4412
G01 X9.6198 Y33.3968
G01 X9.7177 Y33.3618
G01 X9.8185 Y33.3366
G01 X9.9212 Y33.3213
G01 X10.0250 Y33.3162
G01 X10.1288 Y33.3213
G01 X10.2316 Y33.3366
G01 X10.3324 Y33.3618
G01 X10.4302 Y33.3968
G01 X10.5241 Y33.4412
G01 X10.6133 Y33.4947
G01 X10.6967 Y33.5565
G01 X10.7737 Y33.6263
G01 X10.8435 Y33.7033
G01 X10.9054 Y33.7868
G01 X10.9588 Y33.8759
G01 X11.0032 Y33.9698
G01 X11.0382 Y34.0677
G01 X11.0635 Y34.1685
G01 X11.0787 Y34.2712
G01 X11.0838 Y34.3750
G01 X11.0787 Y34.4788
G01 X11.0635 Y34.5816
G01 X11.0382 Y34.6824
G01 X11.0032 Y34.7802
G01 X10.9588 Y34.8741
G01 X10.9054 Y34.9633
G01 X10.8435 Y35.0467
G01 X10.7737 Y35.1237
G01 X10.6967 Y35.1935
G01 X10.6133 Y35.2554
G01 X10.5241 Y35.3088
G01 X10.4302 Y35.3532
G01 X10.3324 Y35.3882
G01 X10.2316 Y35.4135
G01 X10.1288 Y35.4287
G01 X10.0250 Y35.4338
G01 X9.9212 Y35.4287
G01 X9.8185 Y35.4135
G01 X9.7177 Y35.3882
G01 X9.6198 Y35.3532
G01 X9.5259 Y35.3088
G01 X9.4368 Y35.2554
G01 X9.3533 Y35.1935
G01 X9.2763 Y35.1237
G01 X9.2065 Y35.0467
G01 X9.1447 Y34.9633
G01 X9.0912 Y34.8741
G01 X9.0468 Y34.7802
G01 X9.0118 Y34.6824
G01 X8.9866 Y34.5816
G01 X8.9713 Y34.4788
G01 X8.9663 Y34.3779
G01 X8.9663 Y34.3721
G00 Z2.0000
G00 X8.8606 Y36.9069
G01 F240.00
G01 Z-0.0499
G01 F360.00
G01 X8.8660 Y36.8009
G01 X8.8828 Y36.6878
G01 X8.9105 Y36.5769
G01 X8.9490 Y36.4693
G01 X8.9979 Y36.3660
G01 X9.0566 Y36.2680
G01 X9.1247 Y36.1762
G01 X9.2015 Y36.0915
G01 X9.2862 Y36.0147
G01 X9.3780 Y35.9466
G01 X9.4760 Y35.8879
G01 X9.5793 Y35.8390
G01 X9.6869 Y35.8005
G01 X9.7978 Y35.7728
G01 X9.9109 Y35.7560
G01 X10.0250 Y35.7504
G01 X10.1392 Y35.7560
G01 X10.2522 Y35.7728
G01 X10.3631 Y35.8005
G01 X10.4707 Y35.8390
G01 X10.5740 Y35.8879
G01 X10.6721 Y35.9466
G01 X10.7639 Y36.0147
G01 X10.8485 Y36.0915
G01 X10.9253 Y36.1762
G01 X10.9934 Y36.2680
G01 X11.0521 Y36.3660
G01 X11.1010 Y36.4693
G01 X11.1395 Y36.5769
G01 X11.1673 Y36.6878
G01 X11.1840 Y36.8009
G01 X11.1897 Y36.9150
G01 X11.1840 Y37.0292
G01 X11.1673 Y37.1422
G01 X11.1395 Y37.2531
G01 X11.1010 Y37.3607
G01 X11.0521 Y37.4640
G01 X10.9934 Y37.5621
G01 X10.9253 Y37.6539
G01 X10.8485 Y37.7385
G01 X10.7639 Y37.8153
G01 X10.6721 Y37.8834
G01 X10.5740 Y37.9421
G01 X10.4707 Y37.9910
G01 X10.3631 Y38.0295
G01 X10.2522 Y38.0573
G01 X10.1392 Y38.0740
G01 X10.0250 Y38.0797
G01 X9.9109 Y38.0740
G01 X9.7978 Y38.0573
G01 X9.6869 Y38.0295
G01 X9.5793 Y37.9910
G01 X9.4760 Y37.9421
G01 X9.3780 Y37.8834
G01 X9.2862 Y37.8153
G01 X9.2015 Y37.7385
G01 X9.1247 Y37.6539
G01 X9.0566 Y37.5621
G01 X8.9979 Y37.4640
G01 X8.9490 Y37.3607
G01 X8.9105 Y37.2531
G01 X8.8828 Y37.1422
G01 X8.8660 Y37.0292
G01 X8.8606 Y36.9231
G01 X8.8606 Y36.9069
G00 Z2.0000
G00 X8.9663 Y36.9121
G01 F240.00
G01 Z-0.0499
G01 F360.00
G01 X8.9713 Y36.8112
G01 X8.9866 Y36.7085
G01 X9.0118 Y36.6077
G01 X9.0468 Y36.5098
G01 X9.0912 Y36.4159
G01 X9.1447 Y36.3268
G01 X9.2065 Y36.2433
G01 X9.2763 Y36.1663
G01 X9.3533 Y36.0965
G01 X9.4368 Y36.0347
G01 X9.5259 Y35.9812
G01 X9.6198 Y35.9368
G01 X9.7177 Y35.9018
G01 X9.8185 Y35.8766
G01 X9.9212 Y35.8613
G01 X10.0250 Y35.8562
G01 X10.1288 Y35.8613
G01 X10.2316 Y35.8766
G01 X10.3324 Y35.9018
G01 X10.4302 Y35.9368
G01 X10.5241 Y35.9812
G01 X10.6133 Y36.0347
G01 X10.6967 Y36.0965
G01 X10.7737 Y36.1663
G01 X10.8435 Y36.2433
G01 X10.9054 Y36.3268
G01 X10.9588 Y36.4159
G01 X11.0032 Y36.5098
G01 X11.0382 Y36.6077
G01 X11.0635 Y36.7085
G01 X11.0787 Y36.8112
G01 X11.0838 Y36.9150
G01 X11.0787 Y37.0188
G01 X11.0635 Y37.1216
G01 X11.0382 Y37.2224
G01 X11.0032 Y37.3202
G01 X10.9588 Y37.4141
G01 X10.9054 Y37.5033
G01 X10.8435 Y37.5867
G01 X10.7737 Y37.6637
G01 X10.6967 Y37.7335
G01 X10.6133 Y37.7954
G01 X10.5241 Y37.8488
G01 X10.4302 Y37.8932
G01 X10.3324 Y37.9282
G01 X10.2316 Y37.9535
G01 X10.1288 Y37.9687
G01 X10.0250 Y37.9738
G01 X9.9212 Y37.9687
G01 X9.8185 Y37.9535
G01 X9.7177 Y37.9282
G01 X9.6198 Y37.8932
G01 X9.5259 Y37.8488
G01 X9.4368 Y37.7954
G01 X9.3533 Y37.7335
G01 X9.2763 Y37.6637
G01 X9.2065 Y37.5867
G01 X9.1447 Y37.5033
G01 X9.0912 Y37.4141
G01 X9.0468 Y37.3202
G01 X9.0118 Y37.2224
G01 X8.9866 Y37.1216
G01 X8.9713 Y37.0188
G01 X8.9663 Y36.9179
G01 X8.9663 Y36.9121
G00 Z2.0000
G00 X8.8604 Y39.4510
G01 F240.00
G01 Z-0.0499
G01 F360.00
G01 X8.8660 Y39.3409
G01 X8.8828 Y39.2278
G01 X8.9105 Y39.1169
G01 X8.9490 Y39.0093
G01 X8.9979 Y38.9060
G01 X9.0566 Y38.8080
G01 X9.1247 Y38.7162
G01 X9.2015 Y38.6315
G01 X9.2862 Y38.5547
G01 X9.3780 Y38.4866
G01 X9.4760 Y38.4279
G01 X9.5793 Y38.3790
G01 X9.6869 Y38.3405
G01 X9.7978 Y38.3128
G01 X9.9109 Y38.2960
G01 X10.0250 Y38.2904
G01 X10.1392 Y38.2960
G01 X10.2522 Y38.3128
G01 X10.3631 Y38.3405
G01 X10.4707 Y38.3790
G01 X10.5740 Y38.4279
G01 X10.6721 Y38.4866
G01 X10.7639 Y38.5547
G01 X10.8485 Y38.6315
G01 X10.9253 Y38.7162
G01 X10.9934 Y38.8080
G01 X11.0521 Y38.9060
G01 X11.1010 Y39.0093
G01 X11.1395 Y39.1169
G01 X11.1673 Y39.2278
G01 X11.1840 Y39.3409
G01 X11.1897 Y39.4550
G01 X11.1840 Y39.5692
G01 X11.1673 Y39.6822
G01 X11.1395 Y39.7931
G01 X11.1010 Y39.9007
G01 X11.0521 Y40.0040
G01 X10.9934 Y40.1021
G01 X10.9253 Y40.1939
G01 X10.8485 Y40.2785
G01 X10.7639 Y40.3553
G01 X10.6721 Y40.4234
G01 X10.5740 Y40.4821
G01 X10.4707 Y40.5310
G01 X10.3631 Y40.5695
G01 X10.2522 Y40.5973
G01 X10.1392 Y40.6140
G01 X10.0250 Y40.6197
G01 X9.9109 Y40.6140
G01 X9.7978 Y40.5973
G01 X9.6869 Y40.5695
G01 X9.5793 Y40.5310
G01 X9.4760 Y40.4821
G01 X9.3780 Y40.4234
G01 X9.2862 Y40.3553
G01 X9.2015 Y40.2785
G01 X9.1247 Y40.1939
G01 X9.0566 Y40.1021
G01 X8.9979 Y40.0040
G01 X8.9490 Y39.9007
G01 X8.9105 Y39.7931
G01 X8.8828 Y39.6822
G01 X8.8660 Y39.5692
G01 X8.8606 Y39.4631
G01 X8.8604 Y39.4510
G00 Z2.0000
G00 X8.9662 Y39.4536
G01 F240.00
G01 Z-0.0499
G01 F360.00
G01 X8.9713 Y39.3512
G01 X8.9866 Y39.2485
G01 X9.0118 Y39.1477
G01 X9.0468 Y39.0498
G01 X9.0912 Y38.9559
G01 X9.1447 Y38.8668
G01 X9.2065 Y38.7833
G01 X9.2763 Y38.7063
G01 X9.3533 Y38.6365
G01 X9.4368 Y38.5747
G01 X9.5259 Y38.5212
G01 X9.6198 Y38.4768
G01 X9.7177 Y38.4418
G01 X9.8185 Y38.4166
G01 X9.9212 Y38.4013
G01 X10.0250 Y38.3962
G01 X10.1288 Y38.4013
G01 X10.2316 Y38.4166
G01 X10.3324 Y38.4418
G01 X10.4302 Y38.4768
G01 X10.5241 Y38.5212
G01 X10.6133 Y38.5747
G01 X10.6967 Y38.6365
G01 X10.7737 Y38.7063
G01 X10.8435 Y38.7833
G01 X10.9054 Y38.8668
G01 X10.9588 Y38.9559
G01 X11.0032 Y39.0498
G01 X11.0382 Y39.1477
G01 X11.0635 Y39.2485
G01 X11.0787 Y39.3512
G01 X11.0838 Y39.4550
G01 X11.0787 Y39.5588
G01 X11.0635 Y39.6616
G01 X11.0382 Y39.7624
G01 X11.0032 Y39.8602
G01 X10.9588 Y39.9541
G01 X10.9054 Y40.0433
G01 X10.8435 Y40.1267
G01 X10.7737 Y40.2037
G01 X10.6967 Y40.2735
G01 X10.6133 Y40.3354
G01 X10.5241 Y40.3888
G01 X10.4302 Y40.4332
G01 X10.3324 Y40.4682
G01 X10.2316 Y40.4935
G01 X10.1288 Y40.5087
G01 X10.0250 Y40.5138
G01 X9.9212 Y40.5087
G01 X9.8185 Y40.4935
G01 X9.7177 Y40.4682
G01 X9.6198 Y40.4332
G01 X9.5259 Y40.3888
G01 X9.4368 Y40.3354
G01 X9.3533 Y40.2735
G01 X9.2763 Y40.2037
G01 X9.2065 Y40.1267
G01 X9.1447 Y40.0433
G01 X9.0912 Y39.9541
G01 X9.0468 Y39.8602
G01 X9.0118 Y39.7624
G01 X8.9866 Y39.6616
G01 X8.9713 Y39.5588
G01 X8.9662 Y39.4536
G00 Z2.0000
G00 X8.8604 Y41.9910
G01 F240.00
G01 Z-0.0499
G01 F360.00
G01 X8.8660 Y41.8809
G01 X8.8828 Y41.7678
G01 X8.9105 Y41.6569
G01 X8.9490 Y41.5493
G01 X8.9979 Y41.4460
G01 X9.0566 Y41.3480
G01 X9.1247 Y41.2562
G01 X9.2015 Y41.1715
G01 X9.2862 Y41.0947
G01 X9.3780 Y41.0266
G01 X9.4760 Y40.9679
G01 X9.5793 Y40.9190
G01 X9.6869 Y40.8805
G01 X9.7978 Y40.8528
G01 X9.9109 Y40.8360
G01 X10.0250 Y40.8304
G01 X10.1392 Y40.8360
G01 X10.2522 Y40.8528
G01 X10.3631 Y40.8805
G01 X10.4707 Y40.9190
G01 X10.5740 Y40.9679
G01 X10.6721 Y41.0266
G01 X10.7639 Y41.0947
G01 X10.8485 Y41.1715
G01 X10.9253 Y41.2562
G01 X10.9934 Y41.3480
G01 X11.0521 Y41.4460
G01 X11.1010 Y41.5493
G01 X11.1395 Y41.6569
G01 X11.1673 Y41.7678
G01 X11.1840 Y41.8809
G01 X11.1897 Y41.9950
G01 X11.1840 Y42.1092
G01 X11.1673 Y42.2222
G01 X11.1395 Y42.3331
G01 X11.1010 Y42.4407
G01 X11.0521 Y42.5440
G01 X10.9934 Y42.6421
G01 X10.9253 Y42.7339
G01 X10.8485 Y42.8185
G01 X10.7639 Y42.8953
G01 X10.6721 Y42.9634
G01 X10.5740 Y43.0221
G01 X10.4707 Y43.0710
G01 X10.3631 Y43.1095
G01 X10.2522 Y43.1373
G01 X10.1392 Y43.1540
G01 X10.0250 Y43.1597
G01 X9.9109 Y43.1540
G01 X9.7978 Y43.1373
G01 X9.6869 Y43.1095
G01 X9.5793 Y43.0710
G01 X9.4760 Y43.0221
G01 X9.3780 Y42.9634
G01 X9.2862 Y42.8953
G01 X9.2015 Y42.8185
G01 X9.1247 Y42.7339
G01 X9.0566 Y42.6421
G01 X8.9979 Y42.5440
G01 X8.9490 Y42.4407
G01 X8.9105 Y42.3331
G01 X8.8828 Y42.2222
G01 X8.8660 Y42.1092
G01 X8.8606 Y42.0031
G01 X8.8604 Y41.9910
G00 Z2.0000
G00 X8.9662 Y41.9936
G01 F240.00
G01 Z-0.0499
G01 F360.00
G01 X8.9713 Y41.8912
G01 X8.9866 Y41.7885
G01 X9.0118 Y41.6877
G01 X9.0468 Y41.5898
G01 X9.0912 Y41.4959
G01 X9.1447 Y41.4068
G01 X9.2065 Y41.3233
G01 X9.2763 Y41.2463
G01 X9.3533 Y41.1765
G01 X9.4368 Y41.1147
G01 X9.5259 Y41.0612
G01 X9.6198 Y41.0168
G01 X9.7177 Y40.9818
G01 X9.8185 Y40.9566
G01 X9.9212 Y40.9413
G01 X10.0250 Y40.9362
G01 X10.1288 Y40.9413
G01 X10.2316 Y40.9566
G01 X10.3324 Y40.9818
G01 X10.4302 Y41.0168
G01 X10.5241 Y41.0612
G01 X10.6133 Y41.1147
G01 X10.6967 Y41.1765
G01 X10.7737 Y41.2463
G01 X10.8435 Y41.3233
G01 X10.9054 Y41.4068
G01 X10.9588 Y41.4959
G01 X11.0032 Y41.5898
G01 X11.0382 Y41.6877
G01 X11.0635 Y41.7885
G01 X11.0787 Y41.8912
G01 X11.0838 Y41.9950
G01 X11.0787 Y42.0988
G01 X11.0635 Y42.2016
G01 X11.0382 Y42.3024
G01 X11.0032 Y42.4002
G01 X10.9588 Y42.4941
G01 X10.9054 Y42.5833
G01 X10.8435 Y42.6667
G01 X10.7737 Y42.7437
G01 X10.6967 Y42.8135
G01 X10.6133 Y42.8754
G01 X10.5241 Y42.9288
G01 X10.4302 Y42.9732
G01 X10.3324 Y43.0082
G01 X10.2316 Y43.0335
G01 X10.1288 Y43.0487
G01 X10.0250 Y43.0538
G01 X9.9212 Y43.0487
G01 X9.8185 Y43.0335
G01 X9.7177 Y43.0082
G01 X9.6198 Y42.9732
G01 X9.5259 Y42.9288
G01 X9.4368 Y42.8754
G01 X9.3533 Y42.8135
G01 X9.2763 Y42.7437
G01 X9.2065 Y42.6667
G01 X9.1447 Y42.5833
G01 X9.0912 Y42.4941
G01 X9.0468 Y42.4002
G01 X9.0118 Y42.3024
G01 X8.9866 Y42.2016
G01 X8.9713 Y42.0988
G01 X8.9662 Y41.9936
G00 Z2.0000
G00 X8.8606 Y44.5269
G01 F240.00
G01 Z-0.0499
G01 F360.00
G01 X8.8660 Y44.4209
G01 X8.8828 Y44.3078
G01 X8.9105 Y44.1969
G01 X8.9490 Y44.0893
G01 X8.9979 Y43.9860
G01 X9.0566 Y43.8880
G01 X9.1247 Y43.7962
G01 X9.2015 Y43.7115
G01 X9.2862 Y43.6347
G01 X9.3780 Y43.5666
G01 X9.4760 Y43.5079
G01 X9.5793 Y43.4590
G01 X9.6869 Y43.4205
G01 X9.7978 Y43.3928
G01 X9.9109 Y43.3760
G01 X10.0250 Y43.3704
G01 X10.1392 Y43.3760
G01 X10.2522 Y43.3928
G01 X10.3631 Y43.4205
G01 X10.4707 Y43.4590
G01 X10.5740 Y43.5079
G01 X10.6721 Y43.5666
G01 X10.7639 Y43.6347
G01 X10.8485 Y43.7115
G01 X10.9253 Y43.7962
G01 X10.9934 Y43.8880
G01 X11.0521 Y43.9860
G01 X11.1010 Y44.0893
G01 X11.1395 Y44.1969
G01 X11.1673 Y44.3078
G01 X11.1840 Y44.4209
G01 X11.1897 Y44.5350
G01 X11.1840 Y44.6492
G01 X11.1673 Y44.7622
G01 X11.1395 Y44.8731
G01 X11.1010 Y44.9807
G01 X11.0521 Y45.0840
G01 X10.9934 Y45.1821
G01 X10.9253 Y45.2739
G01 X10.8485 Y45.3585
G01 X10.7639 Y45.4353
G01 X10.6721 Y45.5034
G01 X10.5740 Y45.5621
G01 X10.4707 Y45.6110
G01 X10.3631 Y45.6495
G01 X10.2522 Y45.6773
G01 X10.1392 Y45.6940
G01 X10.0250 Y45.6997
G01 X9.9109 Y45.6940
G01 X9.7978 Y45.6773
G01 X9.6869 Y45.6495
G01 X9.5793 Y45.6110
G01 X9.4760 Y45.5621
G01 X9.3780 Y45.5034
G01 X9.2862 Y45.4353
G01 X9.2015 Y45.3585
G01 X9.1247 Y45.2739
G01 X9.0566 Y45.1821
G01 X8.9979 Y45.0840
G01 X8.9490 Y44.9807
G01 X8.9105 Y44.8731
G01 X8.8828 Y44.7622
G01 X8.8660 Y44.6492
G01 X8.8606 Y44.5431
G01 X8.8606 Y44.5269
G00 Z2.0000
G00 X8.9663 Y44.5321
G01 F240.00
G01 Z-0.0499
G01 F360.00
G01 X8.9713 Y44.4312
G01 X8.9866 Y44.3285
G01 X9.0118 Y44.2277
G01 X9.0468 Y44.1298
G01 X9.0912 Y44.0359
G01 X9.1447 Y43.9468
G01 X9.2065 Y43.8633
G01 X9.2763 Y43.7863
G01 X9.3533 Y43.7165
G01 X9.4368 Y43.6547
G01 X9.5259 Y43.6012
G01 X9.6198 Y43.5568
G01 X9.7177 Y43.5218
G01 X9.8185 Y43.4966
G01 X9.9212 Y43.4813
G01 X10.0250 Y43.4762
G01 X10.1288 Y43.4813
G01 X10.2316 Y43.4966
G01 X10.3324 Y43.5218
G01 X10.4302 Y43.5568
G01 X10.5241 Y43.6012
G01 X10.6133 Y43.6547
G01 X10.6967 Y43.7165
G01 X10.7737 Y43.7863
G01 X10.8435 Y43.8633
G01 X10.9054 Y43.9468
G01 X10.9588 Y44.0359
G01 X11.0032 Y44.1298
G01 X11.0382 Y44.2277
G01 X11.0635 Y44.3285
G01 X11.0787 Y44.4312
G01 X11.0838 Y44.5350
G01 X11.0787 Y44.6388
G01 X11.0635 Y44.7416
G01 X11.0382 Y44.8424
G01 X11.0032 Y44.9402
G01 X10.9588 Y45.0341
G01 X10.9054 Y45.1233
G01 X10.8435 Y45.2067
G01 X10.7737 Y45.2837
G01 X10.6967 Y45.3535
G01 X10.6133 Y45.4154
G01 X10.5241 Y45.4688
G01 X10.4302 Y45.5132
G01 X10.3324 Y45.5482
G01 X10.2316 Y45.5735
G01 X10.1288 Y45.5887
G01 X10.0250 Y45.5938
G01 X9.9212 Y45.5887
G01 X9.8185 Y45.5735
G01 X9.7177 Y45.5482
G01 X9.6198 Y45.5132
G01 X9.5259 Y45.4688
G01 X9.4368 Y45.4154
G01 X9.3533 Y45.3535
G01 X9.2763 Y45.2837
G01 X9.2065 Y45.2067
G01 X9.1447 Y45.1233
G01 X9.0912 Y45.0341
G01 X9.0468 Y44.9402
G01 X9.0118 Y44.8424
G01 X8.9866 Y44.7416
G01 X8.9713 Y44.6388
G01 X8.9663 Y44.5379
G01 X8.9663 Y44.5321
G00 Z2.0000
G00 X8.8606 Y47.0669
G01 F240.00
G01 Z-0.0499
G01 F360.00
G01 X8.8660 Y46.9609
G01 X8.8828 Y46.8478
G01 X8.9105 Y46.7369
G01 X8.9490 Y46.6293
G01 X8.9979 Y46.5260
G01 X9.0566 Y46.4280
G01 X9.1247 Y46.3362
G01 X9.2015 Y46.2515
G01 X9.2862 Y46.1747
G01 X9.3780 Y46.1066
G01 X9.4760 Y46.0479
G01 X9.5793 Y45.9990
G01 X9.6869 Y45.9605
G01 X9.7978 Y45.9328
G01 X9.9109 Y45.9160
G01 X10.0250 Y45.9104
G01 X10.1392 Y45.9160
G01 X10.2522 Y45.9328
G01 X10.3631 Y45.9605
G01 X10.4707 Y45.9990
G01 X10.5740 Y46.0479
G01 X10.6721 Y46.1066
G01 X10.7639 Y46.1747
G01 X10.8485 Y46.2515
G01 X10.9253 Y46.3362
G01 X10.9934 Y46.4280
G01 X11.0521 Y46.5260
G01 X11.1010 Y46.6293
G01 X11.1395 Y46.7369
G01 X11.1673 Y46.8478
G01 X11.1840 Y46.9609
G01 X11.1897 Y47.0750
G01 X11.1840 Y47.1892
G01 X11.1673 Y47.3022
G01 X11.1395 Y47.4131
G01 X11.1010 Y47.5207
G01 X11.0521 Y47.6240
G01 X10.9934 Y47.7221
G01 X10.9253 Y47.8139
G01 X10.8485 Y47.8985
G01 X10.7639 Y47.9753
G01 X10.6721 Y48.0434
G01 X10.5740 Y48.1021
G01 X10.4707 Y48.1510
G01 X10.3631 Y48.1895
G01 X10.2522 Y48.2173
G01 X10.1392 Y48.2340
G01 X10.0250 Y48.2397
G01 X9.9109 Y48.2340
G01 X9.7978 Y48.2173
G01 X9.6869 Y48.1895
G01 X9.5793 Y48.1510
G01 X9.4760 Y48.1021
G01 X9.3780 Y48.0434
G01 X9.2862 Y47.9753
G01 X9.2015 Y47.8985
G01 X9.1247 Y47.8139
G01 X9.0566 Y47.7221
G01 X8.9979 Y47.6240
G01 X8.9490 Y47.5207
G01 X8.9105 Y47.4131
G01 X8.8828 Y47.3022
G01 X8.8660 Y47.1892
G01 X8.8606 Y47.0831
G01 X8.8606 Y47.0669
G00 Z2.0000
G00 X8.9663 Y47.0721
G01 F240.00
G01 Z-0.0499
G01 F360.00
G01 X8.9713 Y46.9712
G01 X8.9866 Y46.8685
G01 X9.0118 Y46.7677
G01 X9.0468 Y46.6698
G01 X9.0912 Y46.5759
G01 X9.1447 Y46.4868
G01 X9.2065 Y46.4033
G01 X9.2763 Y46.3263
G01 X9.3533 Y46.2565
G01 X9.4368 Y46.1947
G01 X9.5259 Y46.1412
G01 X9.6198 Y46.0968
G01 X9.7177 Y46.0618
G01 X9.8185 Y46.0366
G01 X9.9212 Y46.0213
G01 X10.0250 Y46.0162
G01 X10.1288 Y46.0213
G01 X10.2316 Y46.0366
G01 X10.3324 Y46.0618
G01 X10.4302 Y46.0968
G01 X10.5241 Y46.1412
G01 X10.6133 Y46.1947
G01 X10.6967 Y46.2565
G01 X10.7737 Y46.3263
G01 X10.8435 Y46.4033
G01 X10.9054 Y46.4868
G01 X10.9588 Y46.5759
G01 X11.0032 Y46.6698
G01 X11.0382 Y46.7677
G01 X11.0635 Y46.8685
G01 X11.0787 Y46.9712
G01 X11.0838 Y47.0750
G01 X11.0787 Y47.1788
G01 X11.0635 Y47.2816
G01 X11.0382 Y47.3824
G01 X11.0032 Y47.4802
G01 X10.9588 Y47.5741
G01 X10.9054 Y47.6633
G01 X10.8435 Y47.7467
G01 X10.7737 Y47.8237
G01 X10.6967 Y47.8935
G01 X10.6133 Y47.9554
G01 X10.5241 Y48.0088
G01 X10.4302 Y48.0532
G01 X10.3324 Y48.0882
G01 X10.2316 Y48.1135
G01 X10.1288 Y48.1287
G01 X10.0250 Y48.1338
G01 X9.9212 Y48.1287
G01 X9.8185 Y48.1135
G01 X9.7177 Y48.0882
G01 X9.6198 Y48.0532
G01 X9.5259 Y48.0088
G01 X9.4368 Y47.9554
G01 X9.3533 Y47.8935
G01 X9.2763 Y47.8237
G01 X9.2065 Y47.7467
G01 X9.1447 Y47.6633
G01 X9.0912 Y47.5741
G01 X9.0468 Y47.4802
G01 X9.0118 Y47.3824
G01 X8.9866 Y47.2816
G01 X8.9713 Y47.1788
G01 X8.9663 Y47.0779
G01 X8.9663 Y47.0721
G00 Z2.0000
G00 X8.8606 Y49.6069
G01 F240.00
G01 Z-0.0499
G01 F360.00
G01 X8.8660 Y49.5009
G01 X8.8828 Y49.3878
G01 X8.9105 Y49.2769
G01 X8.9490 Y49.1693
G01 X8.9979 Y49.0660
G01 X9.0566 Y48.9680
G01 X9.1247 Y48.8762
G01 X9.2015 Y48.7915
G01 X9.2862 Y48.7147
G01 X9.3780 Y48.6466
G01 X9.4760 Y48.5879
G01 X9.5793 Y48.5390
G01 X9.6869 Y48.5005
G01 X9.7978 Y48.4728
G01 X9.9109 Y48.4560
G01 X10.0250 Y48.4504
G01 X10.1392 Y48.4560
G01 X10.2522 Y48.4728
G01 X10.3631 Y48.5005
G01 X10.4707 Y48.5390
G01 X10.5740 Y48.5879
G01 X10.6721 Y48.6466
G01 X10.7639 Y48.7147
G01 X10.8485 Y48.7915
G01 X10.9253 Y48.8762
G01 X10.9934 Y48.9680
G01 X11.0521 Y49.0660
G01 X11.1010 Y49.1693
G01 X11.1395 Y49.2769
G01 X11.1673 Y49.3878
G01 X11.1840 Y49.5009
G01 X11.1897 Y49.6150
G01 X11.1840 Y49.7292
G01 X11.1673 Y49.8422
G01 X11.1395 Y49.9531
G01 X11.1010 Y50.0607
G01 X11.0521 Y50.1640
G01 X10.9934 Y50.2621
G01 X10.9253 Y50.3539
G01 X10.8485 Y50.4385
G01 X10.7639 Y50.5153
G01 X10.6721 Y50.5834
G01 X10.5740 Y50.6421
G01 X10.4707 Y50.6910
G01 X10.3631 Y50.7295
G01 X10.2522 Y50.7573
G01 X10.1392 Y50.7740
G01 X10.0250 Y50.7797
G01 X9.9109 Y50.7740
G01 X9.7978 Y50.7573
G01 X9.6869 Y50.7295
G01 X9.5793 Y50.6910
G01 X9.4760 Y50.6421
G01 X9.3780 Y50.5834
G01 X9.2862 Y50.5153
G01 X9.2015 Y50.4385
G01 X9.1247 Y50.3539
G01 X9.0566 Y50.2621
G01 X8.9979 Y50.1640
G01 X8.9490 Y50.0607
G01 X8.9105 Y49.9531
G01 X8.8828 Y49.8422
G01 X8.8660 Y49.7292
G01 X8.8606 Y49.6231
G01 X8.8606 Y49.6069
G00 Z2.0000
G00 X8.9663 Y49.6121
G01 F240.00
G01 Z-0.0499
G01 F360.00
G01 X8.9713 Y49.5112
G01 X8.9866 Y49.4085
G01 X9.0118 Y49.3077
G01 X9.0468 Y49.2098
G01 X9.0912 Y49.1159
G01 X9.1447 Y49.0268
G01 X9.2065 Y48.9433
G01 X9.2763 Y48.8663
G01 X9.3533 Y48.7965
G01 X9.4368 Y48.7347
G01 X9.5259 Y48.6812
G01 X9.6198 Y48.6368
G01 X9.7177 Y48.6018
G01 X9.8185 Y48.5766
G01 X9.9212 Y48.5613
G01 X10.0250 Y48.5562
G01 X10.1288 Y48.5613
G01 X10.2316 Y48.5766
G01 X10.3324 Y48.6018
G01 X10.4302 Y48.6368
G01 X10.5241 Y48.6812
G01 X10.6133 Y48.7347
G01 X10.6967 Y48.7965
G01 X10.7737 Y48.8663
G01 X10.8435 Y48.9433
G01 X10.9054 Y49.0268
G01 X10.9588 Y49.1159
G01 X11.0032 Y49.2098
G01 X11.0382 Y49.3077
G01 X11.0635 Y49.4085
G01 X11.0787 Y49.5112
G01 X11.0838 Y49.6150
G01 X11.0787 Y49.7188
G01 X11.0635 Y49.8216
G01 X11.0382 Y49.9224
G01 X11.0032 Y50.0202
G01 X10.9588 Y50.1141
G01 X10.9054 Y50.2033
G01 X10.8435 Y50.2867
G01 X10.7737 Y50.3637
G01 X10.6967 Y50.4335
G01 X10.6133 Y50.4954
G01 X10.5241 Y50.5488
G01 X10.4302 Y50.5932
G01 X10.3324 Y50.6282
G01 X10.2316 Y50.6535
G01 X10.1288 Y50.6687
G01 X10.0250 Y50.6738
G01 X9.9212 Y50.6687
G01 X9.8185 Y50.6535
G01 X9.7177 Y50.6282
G01 X9.6198 Y50.5932
G01 X9.5259 Y50.5488
G01 X9.4368 Y50.4954
G01 X9.3533 Y50.4335
G01 X9.2763 Y50.3637
G01 X9.2065 Y50.2867
G01 X9.1447 Y50.2033
G01 X9.0912 Y50.1141
G01 X9.0468 Y50.0202
G01 X9.0118 Y49.9224
G01 X8.9866 Y49.8216
G01 X8.9713 Y49.7188
G01 X8.9663 Y49.6179
G01 X8.9663 Y49.6121
G00 Z2.0000
G00 X8.8604 Y52.1510
G01 F240.00
G01 Z-0.0499
G01 F360.00
G01 X8.8660 Y52.0409
G01 X8.8828 Y51.9278
G01 X8.9105 Y51.8169
G01 X8.9490 Y51.7093
G01 X8.9979 Y51.6060
G01 X9.0566 Y51.5080
G01 X9.1247 Y51.4162
G01 X9.2015 Y51.3315
G01 X9.2862 Y51.2547
G01 X9.3780 Y51.1866
G01 X9.4760 Y51.1279
G01 X9.5793 Y51.0790
G01 X9.6869 Y51.0405
G01 X9.7978 Y51.0128
G01 X9.9109 Y50.9960
G01 X10.0250 Y50.9904
G01 X10.1392 Y50.9960
G01 X10.2522 Y51.0128
G01 X10.3631 Y51.0405
G01 X10.4707 Y51.0790
G01 X10.5740 Y51.1279
G01 X10.6721 Y51.1866
G01 X10.7639 Y51.2547
G01 X10.8485 Y51.3315
G01 X10.9253 Y51.4162
G01 X10.9934 Y51.5080
G01 X11.0521 Y51.6060
G01 X11.1010 Y51.7093
G01 X11.1395 Y51.8169
G01 X11.1673 Y51.9278
G01 X11.1840 Y52.0409
G01 X11.1897 Y52.1550
G01 X11.1840 Y52.2692
G01 X11.1673 Y52.3822
G01 X11.1395 Y52.4931
G01 X11.1010 Y52.6007
G01 X11.0521 Y52.7040
G01 X10.9934 Y52.8021
G01 X10.9253 Y52.8939
G01 X10.8485 Y52.9785
G01 X10.7639 Y53.0553
G01 X10.6721 Y53.1234
G01 X10.5740 Y53.1821
G01 X10.4707 Y53.2310
G01 X10.3631 Y53.2695
G01 X10.2522 Y53.2973
G01 X10.1392 Y53.3140
G01 X10.0250 Y53.3197
G01 X9.9109 Y53.3140
G01 X9.7978 Y53.2973
G01 X9.6869 Y53.2695
G01 X9.5793 Y53.2310
G01 X9.4760 Y53.1821
G01 X9.3780 Y53.1234
G01 X9.2862 Y53.0553
G01 X9.2015 Y52.9785
G01 X9.1247 Y52.8939
G01 X9.0566 Y52.8021
G01 X8.9979 Y52.7040
G01 X8.9490 Y52.6007
G01 X8.9105 Y52.4931
G01 X8.8828 Y52.3822
G01 X8.8660 Y52.2692
G01 X8.8606 Y52.1631
G01 X8.8604 Y52.1510
G00 Z2.0000
G00 X8.9662 Y52.1536
G01 F240.00
G01 Z-0.0499
G01 F360.00
G01 X8.9713 Y52.0512
G01 X8.9866 Y51.9485
G01 X9.0118 Y51.8477
G01 X9.0468 Y51.7498
G01 X9.0912 Y51.6559
G01 X9.1447 Y51.5668
G01 X9.2065 Y51.4833
G01 X9.2763 Y51.4063
G01 X9.3533 Y51.3365
G01 X9.4368 Y51.2747
G01 X9.5259 Y51.2212
G01 X9.6198 Y51.1768
G01 X9.7177 Y51.1418
G01 X9.8185 Y51.1166
G01 X9.9212 Y51.1013
G01 X10.0250 Y51.0962
G01 X10.1288 Y51.1013
G01 X10.2316 Y51.1166
G01 X10.3324 Y51.1418
G01 X10.4302 Y51.1768
G01 X10.5241 Y51.2212
G01 X10.6133 Y51.2747
G01 X10.6967 Y51.3365
G01 X10.7737 Y51.4063
G01 X10.8435 Y51.4833
G01 X10.9054 Y51.5668
G01 X10.9588 Y51.6559
G01 X11.0032 Y51.7498
G01 X11.0382 Y51.8477
G01 X11.0635 Y51.9485
G01 X11.0787 Y52.0512
G01 X11.0838 Y52.1550
G01 X11.0787 Y52.2588
G01 X11.0635 Y52.3616
G01 X11.0382 Y52.4624
G01 X11.0032 Y52.5602
G01 X10.9588 Y52.6541
G01 X10.9054 Y52.7433
G01 X10.8435 Y52.8267
G01 X10.7737 Y52.9037
G01 X10.6967 Y52.9735
G01 X10.6133 Y53.0354
G01 X10.5241 Y53.0888
G01 X10.4302 Y53.1332
G01 X10.3324 Y53.1682
G01 X10.2316 Y53.1935
G01 X10.1288 Y53.2087
G01 X10.0250 Y53.2138
G01 X9.9212 Y53.2087
G01 X9.8185 Y53.1935
G01 X9.7177 Y53.1682
G01 X9.6198 Y53.1332
G01 X9.5259 Y53.0888
G01 X9.4368 Y53.0354
G01 X9.3533 Y52.9735
G01 X9.2763 Y52.9037
G01 X9.2065 Y52.8267
G01 X9.1447 Y52.7433
G01 X9.0912 Y52.6541
G01 X9.0468 Y52.5602
G01 X9.0118 Y52.4624
G01 X8.9866 Y52.3616
G01 X8.9713 Y52.2588
G01 X8.9662 Y52.1536
G00 Z2.0000
G00 X8.8604 Y54.6910
G01 F240.00
G01 Z-0.0499
G01 F360.00
G01 X8.8660 Y54.5809
G01 X8.8828 Y54.4678
G01 X8.9105 Y54.3569
G01 X8.9490 Y54.2493
G01 X8.9979 Y54.1460
G01 X9.0566 Y54.0480
G01 X9.1247 Y53.9562
G01 X9.2015 Y53.8715
G01 X9.2862 Y53.7947
G01 X9.3780 Y53.7266
G01 X9.4760 Y53.6679
G01 X9.5793 Y53.6190
G01 X9.6869 Y53.5805
G01 X9.7978 Y53.5528
G01 X9.9109 Y53.5360
G01 X10.0250 Y53.5304
G01 X10.1392 Y53.5360
G01 X10.2522 Y53.5528
G01 X10.3631 Y53.5805
G01 X10.4707 Y53.6190
G01 X10.5740 Y53.6679
G01 X10.6721 Y53.7266
G01 X10.7639 Y53.7947
G01 X10.8485 Y53.8715
G01 X10.9253 Y53.9562
G01 X10.9934 Y54.0480
G01 X11.0521 Y54.1460
G01 X11.1010 Y54.2493
G01 X11.1395 Y54.3569
G01 X11.1673 Y54.4678
G01 X11.1840 Y54.5809
G01 X11.1897 Y54.6950
G01 X11.1840 Y54.8092
G01 X11.1673 Y54.9222
G01 X11.1395 Y55.0331
G01 X11.1010 Y55.1407
G01 X11.0521 Y55.2440
G01 X10.9934 Y55.3421
G01 X10.9253 Y55.4339
G01 X10.8485 Y55.5185
G01 X10.7639 Y55.5953
G01 X10.6721 Y55.6634
G01 X10.5740 Y55.7221
G01 X10.4707 Y55.7710
G01 X10.3631 Y55.8095
G01 X10.2522 Y55.8373
G01 X10.1392 Y55.8540
G01 X10.0250 Y55.8597
G01 X9.9109 Y55.8540
G01 X9.7978 Y55.8373
G01 X9.6869 Y55.8095
G01 X9.5793 Y55.7710
G01 X9.4760 Y55.7221
G01 X9.3780 Y55.6634
G01 X9.2862 Y55.5953
G01 X9.2015 Y55.5185
G01 X9.1247 Y55.4339
G01 X9.0566 Y55.3421
G01 X8.9979 Y55.2440
G01 X8.9490 Y55.1407
G01 X8.9105 Y55.0331
G01 X8.8828 Y54.9222
G01 X8.8660 Y54.8092
G01 X8.8606 Y54.7031
G01 X8.8604 Y54.6910
G00 Z2.0000
G00 X8.9662 Y54.6936
G01 F240.00
G01 Z-0.0499
G01 F360.00
G01 X8.9713 Y54.5912
G01 X8.9866 Y54.4885
G01 X9.0118 Y54.3877
G01 X9.0468 Y54.2898
G01 X9.0912 Y54.1959
G01 X9.1447 Y54.1068
G01 X9.2065 Y54.0233
G01 X9.2763 Y53.9463
G01 X9.3533 Y53.8765
G01 X9.4368 Y53.8147
G01 X9.5259 Y53.7612
G01 X9.6198 Y53.7168
G01 X9.7177 Y53.6818
G01 X9.8185 Y53.6566
G01 X9.9212 Y53.6413
G01 X10.0250 Y53.6362
G01 X10.1288 Y53.6413
G01 X10.2316 Y53.6566
G01 X10.3324 Y53.6818
G01 X10.4302 Y53.7168
G01 X10.5241 Y53.7612
G01 X10.6133 Y53.8147
G01 X10.6967 Y53.8765
G01 X10.7737 Y53.9463
G01 X10.8435 Y54.0233
G01 X10.9054 Y54.1068
G01 X10.9588 Y54.1959
G01 X11.0032 Y54.2898
G01 X11.0382 Y54.3877
G01 X11.0635 Y54.4885
G01 X11.0787 Y54.5912
G01 X11.0838 Y54.6950
G01 X11.0787 Y54.7988
G01 X11.0635 Y54.9016
G01 X11.0382 Y55.0024
G01 X11.0032 Y55.1002
G01 X10.9588 Y55.1941
G01 X10.9054 Y55.2833
G01 X10.8435 Y55.3667
G01 X10.7737 Y55.4437
G01 X10.6967 Y55.5135
G01 X10.6133 Y55.5754
G01 X10.5241 Y55.6288
G01 X10.4302 Y55.6732
G01 X10.3324 Y55.7082
G01 X10.2316 Y55.7335
G01 X10.1288 Y55.7487
G01 X10.0250 Y55.7538
G01 X9.9212 Y55.7487
G01 X9.8185 Y55.7335
G01 X9.7177 Y55.7082
G01 X9.6198 Y55.6732
G01 X9.5259 Y55.6288
G01 X9.4368 Y55.5754
G01 X9.3533 Y55.5135
G01 X9.2763 Y55.4437
G01 X9.2065 Y55.3667
G01 X9.1447 Y55.2833
G01 X9.0912 Y55.1941
G01 X9.0468 Y55.1002
G01 X9.0118 Y55.0024
G01 X8.9866 Y54.9016
G01 X8.9713 Y54.7988
G01 X8.9662 Y54.6936
G00 Z2.0000
G00 X31.8604 Y54.6910
G01 F240.00
G01 Z-0.0499
G01 F360.00
G01 X31.8660 Y54.5809
G01 X31.8828 Y54.4678
G01 X31.9105 Y54.3569
G01 X31.9490 Y54.2493
G01 X31.9979 Y54.1460
G01 X32.0566 Y54.0480
G01 X32.1247 Y53.9562
G01 X32.2015 Y53.8715
G01 X32.2862 Y53.7947
G01 X32.3780 Y53.7266
G01 X32.4760 Y53.6679
G01 X32.5793 Y53.6190
G01 X32.6869 Y53.5805
G01 X32.7978 Y53.5528
G01 X32.9109 Y53.5360
G01 X33.0250 Y53.5304
G01 X33.1392 Y53.5360
G01 X33.2522 Y53.5528
G01 X33.3631 Y53.5805
G01 X33.4707 Y53.6190
G01 X33.5740 Y53.6679
G01 X33.6721 Y53.7266
G01 X33.7639 Y53.7947
G01 X33.8485 Y53.8715
G01 X33.9253 Y53.9562
G01 X33.9934 Y54.0480
G01 X34.0521 Y54.1460
G01 X34.1010 Y54.2493
G01 X34.1395 Y54.3569
G01 X34.1673 Y54.4678
G01 X34.1840 Y54.5809
G01 X34.1897 Y54.6950
G01 X34.1840 Y54.8092
G01 X34.1673 Y54.9222
G01 X34.1395 Y55.0331
G01 X34.1010 Y55.1407
G01 X34.0521 Y55.2440
G01 X33.9934 Y55.3421
G01 X33.9253 Y55.4339
G01 X33.8485 Y55.5185
G01 X33.7639 Y55.5953
G01 X33.6721 Y55.6634
G01 X33.5740 Y55.7221
G01 X33.4707 Y55.7710
G01 X33.3631 Y55.8095
G01 X33.2522 Y55.8373
G01 X33.1392 Y55.8540
G01 X33.0250 Y55.8597
G01 X32.9109 Y55.8540
G01 X32.7978 Y55.8373
G01 X32.6869 Y55.8095
G01 X32.5793 Y55.7710
G01 X32.4760 Y55.7221
G01 X32.3780 Y55.6634
G01 X32.2862 Y55.5953
G01 X32.2015 Y55.5185
G01 X32.1247 Y55.4339
G01 X32.0566 Y55.3421
G01 X31.9979 Y55.2440
G01 X31.9490 Y55.1407
G01 X31.9105 Y55.0331
G01 X31.8828 Y54.9222
G01 X31.8660 Y54.8092
G01 X31.8606 Y54.7031
G01 X31.8604 Y54.6910
G00 Z2.0000
G00 X31.9662 Y54.6936
G01 F240.00
G01 Z-0.0499
G01 F360.00
G01 X31.9713 Y54.5912
G01 X31.9866 Y54.4885
G01 X32.0118 Y54.3877
G01 X32.0468 Y54.2898
G01 X32.0912 Y54.1959
G01 X32.1447 Y54.1068
G01 X32.2065 Y54.0233
G01 X32.2763 Y53.9463
G01 X32.3533 Y53.8765
G01 X32.4368 Y53.8147
G01 X32.5259 Y53.7612
G01 X32.6198 Y53.7168
G01 X32.7177 Y53.6818
G01 X32.8185 Y53.6566
G01 X32.9212 Y53.6413
G01 X33.0250 Y53.6362
G01 X33.1288 Y53.6413
G01 X33.2316 Y53.6566
G01 X33.3324 Y53.6818
G01 X33.4302 Y53.7168
G01 X33.5241 Y53.7612
G01 X33.6133 Y53.8147
G01 X33.6967 Y53.8765
G01 X33.7737 Y53.9463
G01 X33.8435 Y54.0233
G01 X33.9054 Y54.1068
G01 X33.9588 Y54.1959
G01 X34.0032 Y54.2898
G01 X34.0382 Y54.3877
G01 X34.0635 Y54.4885
G01 X34.0787 Y54.5912
G01 X34.0838 Y54.6950
G01 X34.0787 Y54.7988
G01 X34.0635 Y54.9016
G01 X34.0382 Y55.0024
G01 X34.0032 Y55.1002
G01 X33.9588 Y55.1941
G01 X33.9054 Y55.2833
G01 X33.8435 Y55.3667
G01 X33.7737 Y55.4437
G01 X33.6967 Y55.5135
G01 X33.6133 Y55.5754
G01 X33.5241 Y55.6288
G01 X33.4302 Y55.6732
G01 X33.3324 Y55.7082
G01 X33.2316 Y55.7335
G01 X33.1288 Y55.7487
G01 X33.0250 Y55.7538
G01 X32.9212 Y55.7487
G01 X32.8185 Y55.7335
G01 X32.7177 Y55.7082
G01 X32.6198 Y55.6732
G01 X32.5259 Y55.6288
G01 X32.4368 Y55.5754
G01 X32.3533 Y55.5135
G01 X32.2763 Y55.4437
G01 X32.2065 Y55.3667
G01 X32.1447 Y55.2833
G01 X32.0912 Y55.1941
G01 X32.0468 Y55.1002
G01 X32.0118 Y55.0024
G01 X31.9866 Y54.9016
G01 X31.9713 Y54.7988
G01 X31.9662 Y54.6936
G00 Z2.0000
G00 X31.9662 Y52.1536
G01 F240.00
G01 Z-0.0499
G01 F360.00
G01 X31.9713 Y52.0512
G01 X31.9866 Y51.9485
G01 X32.0118 Y51.8477
G01 X32.0468 Y51.7498
G01 X32.0912 Y51.6559
G01 X32.1447 Y51.5668
G01 X32.2065 Y51.4833
G01 X32.2763 Y51.4063
G01 X32.3533 Y51.3365
G01 X32.4368 Y51.2747
G01 X32.5259 Y51.2212
G01 X32.6198 Y51.1768
G01 X32.7177 Y51.1418
G01 X32.8185 Y51.1166
G01 X32.9212 Y51.1013
G01 X33.0250 Y51.0962
G01 X33.1288 Y51.1013
G01 X33.2316 Y51.1166
G01 X33.3324 Y51.1418
G01 X33.4302 Y51.1768
G01 X33.5241 Y51.2212
G01 X33.6133 Y51.2747
G01 X33.6967 Y51.3365
G01 X33.7737 Y51.4063
G01 X33.8435 Y51.4833
G01 X33.9054 Y51.5668
G01 X33.9588 Y51.6559
G01 X34.0032 Y51.7498
G01 X34.0382 Y51.8477
G01 X34.0635 Y51.9485
G01 X34.0787 Y52.0512
G01 X34.0838 Y52.1550
G01 X34.0787 Y52.2588
G01 X34.0635 Y52.3616
G01 X34.0382 Y52.4624
G01 X34.0032 Y52.5602
G01 X33.9588 Y52.6541
G01 X33.9054 Y52.7433
G01 X33.8435 Y52.8267
G01 X33.7737 Y52.9037
G01 X33.6967 Y52.9735
G01 X33.6133 Y53.0354
G01 X33.5241 Y53.0888
G01 X33.4302 Y53.1332
G01 X33.3324 Y53.1682
G01 X33.2316 Y53.1935
G01 X33.1288 Y53.2087
G01 X33.0250 Y53.2138
G01 X32.9212 Y53.2087
G01 X32.8185 Y53.1935
G01 X32.7177 Y53.1682
G01 X32.6198 Y53.1332
G01 X32.5259 Y53.0888
G01 X32.4368 Y53.0354
G01 X32.3533 Y52.9735
G01 X32.2763 Y52.9037
G01 X32.2065 Y52.8267
G01 X32.1447 Y52.7433
G01 X32.0912 Y52.6541
G01 X32.0468 Y52.5602
G01 X32.0118 Y52.4624
G01 X31.9866 Y52.3616
G01 X31.9713 Y52.2588
G01 X31.9662 Y52.1536
G00 Z2.0000
G00 X31.8604 Y52.1510
G01 F240.00
G01 Z-0.0499
G01 F360.00
G01 X31.8660 Y52.0409
G01 X31.8828 Y51.9278
G01 X31.9105 Y51.8169
G01 X31.9490 Y51.7093
G01 X31.9979 Y51.6060
G01 X32.0566 Y51.5080
G01 X32.1247 Y51.4162
G01 X32.2015 Y51.3315
G01 X32.2862 Y51.2547
G01 X32.3780 Y51.1866
G01 X32.4760 Y51.1279
G01 X32.5793 Y51.0790
G01 X32.6869 Y51.0405
G01 X32.7978 Y51.0128
G01 X32.9109 Y50.9960
G01 X33.0250 Y50.9904
G01 X33.1392 Y50.9960
G01 X33.2522 Y51.0128
G01 X33.3631 Y51.0405
G01 X33.4707 Y51.0790
G01 X33.5740 Y51.1279
G01 X33.6721 Y51.1866
G01 X33.7639 Y51.2547
G01 X33.8485 Y51.3315
G01 X33.9253 Y51.4162
G01 X33.9934 Y51.5080
G01 X34.0521 Y51.6060
G01 X34.1010 Y51.7093
G01 X34.1395 Y51.8169
G01 X34.1673 Y51.9278
G01 X34.1840 Y52.0409
G01 X34.1897 Y52.1550
G01 X34.1840 Y52.2692
G01 X34.1673 Y52.3822
G01 X34.1395 Y52.4931
G01 X34.1010 Y52.6007
G01 X34.0521 Y52.7040
G01 X33.9934 Y52.8021
G01 X33.9253 Y52.8939
G01 X33.8485 Y52.9785
G01 X33.7639 Y53.0553
G01 X33.6721 Y53.1234
G01 X33.5740 Y53.1821
G01 X33.4707 Y53.2310
G01 X33.3631 Y53.2695
G01 X33.2522 Y53.2973
G01 X33.1392 Y53.3140
G01 X33.0250 Y53.3197
G01 X32.9109 Y53.3140
G01 X32.7978 Y53.2973
G01 X32.6869 Y53.2695
G01 X32.5793 Y53.2310
G01 X32.4760 Y53.1821
G01 X32.3780 Y53.1234
G01 X32.2862 Y53.0553
G01 X32.2015 Y52.9785
G01 X32.1247 Y52.8939
G01 X32.0566 Y52.8021
G01 X31.9979 Y52.7040
G01 X31.9490 Y52.6007
G01 X31.9105 Y52.4931
G01 X31.8828 Y52.3822
G01 X31.8660 Y52.2692
G01 X31.8606 Y52.1631
G01 X31.8604 Y52.1510
G00 Z2.0000
G00 X31.9663 Y49.6121
G01 F240.00
G01 Z-0.0499
G01 F360.00
G01 X31.9713 Y49.5112
G01 X31.9866 Y49.4085
G01 X32.0118 Y49.3077
G01 X32.0468 Y49.2098
G01 X32.0912 Y49.1159
G01 X32.1447 Y49.0268
G01 X32.2065 Y48.9433
G01 X32.2763 Y48.8663
G01 X32.3533 Y48.7965
G01 X32.4368 Y48.7347
G01 X32.5259 Y48.6812
G01 X32.6198 Y48.6368
G01 X32.7177 Y48.6018
G01 X32.8185 Y48.5766
G01 X32.9212 Y48.5613
G01 X33.0250 Y48.5562
G01 X33.1288 Y48.5613
G01 X33.2316 Y48.5766
G01 X33.3324 Y48.6018
G01 X33.4302 Y48.6368
G01 X33.5241 Y48.6812
G01 X33.6133 Y48.7347
G01 X33.6967 Y48.7965
G01 X33.7737 Y48.8663
G01 X33.8435 Y48.9433
G01 X33.9054 Y49.0268
G01 X33.9588 Y49.1159
G01 X34.0032 Y49.2098
G01 X34.0382 Y49.3077
G01 X34.0635 Y49.4085
G01 X34.0787 Y49.5112
G01 X34.0838 Y49.6150
G01 X34.0787 Y49.7188
G01 X34.0635 Y49.8216
G01 X34.0382 Y49.9224
G01 X34.0032 Y50.0202
G01 X33.9588 Y50.1141
G01 X33.9054 Y50.2033
G01 X33.8435 Y50.2867
G01 X33.7737 Y50.3637
G01 X33.6967 Y50.4335
G01 X33.6133 Y50.4954
G01 X33.5241 Y50.5488
G01 X33.4302 Y50.5932
G01 X33.3324 Y50.6282
G01 X33.2316 Y50.6535
G01 X33.1288 Y50.6687
G01 X33.0250 Y50.6738
G01 X32.9212 Y50.6687
G01 X32.8185 Y50.6535
G01 X32.7177 Y50.6282
G01 X32.6198 Y50.5932
G01 X32.5259 Y50.5488
G01 X32.4368 Y50.4954
G01 X32.3533 Y50.4335
G01 X32.2763 Y50.3637
G01 X32.2065 Y50.2867
G01 X32.1447 Y50.2033
G01 X32.0912 Y50.1141
G01 X32.0468 Y50.0202
G01 X32.0118 Y49.9224
G01 X31.9866 Y49.8216
G01 X31.9713 Y49.7188
G01 X31.9663 Y49.6179
G01 X31.9663 Y49.6121
G00 Z2.0000
G00 X31.8606 Y49.6069
G01 F240.00
G01 Z-0.0499
G01 F360.00
G01 X31.8660 Y49.5009
G01 X31.8828 Y49.3878
G01 X31.9105 Y49.2769
G01 X31.9490 Y49.1693
G01 X31.9979 Y49.0660
G01 X32.0566 Y48.9680
G01 X32.1247 Y48.8762
G01 X32.2015 Y48.7915
G01 X32.2862 Y48.7147
G01 X32.3780 Y48.6466
G01 X32.4760 Y48.5879
G01 X32.5793 Y48.5390
G01 X32.6869 Y48.5005
G01 X32.7978 Y48.4728
G01 X32.9109 Y48.4560
G01 X33.0250 Y48.4504
G01 X33.1392 Y48.4560
G01 X33.2522 Y48.4728
G01 X33.3631 Y48.5005
G01 X33.4707 Y48.5390
G01 X33.5740 Y48.5879
G01 X33.6721 Y48.6466
G01 X33.7639 Y48.7147
G01 X33.8485 Y48.7915
G01 X33.9253 Y48.8762
G01 X33.9934 Y48.9680
G01 X34.0521 Y49.0660
G01 X34.1010 Y49.1693
G01 X34.1395 Y49.2769
G01 X34.1673 Y49.3878
G01 X34.1840 Y49.5009
G01 X34.1897 Y49.6150
G01 X34.1840 Y49.7292
G01 X34.1673 Y49.8422
G01 X34.1395 Y49.9531
G01 X34.1010 Y50.0607
G01 X34.0521 Y50.1640
G01 X33.9934 Y50.2621
G01 X33.9253 Y50.3539
G01 X33.8485 Y50.4385
G01 X33.7639 Y50.5153
G01 X33.6721 Y50.5834
G01 X33.5740 Y50.6421
G01 X33.4707 Y50.6910
G01 X33.3631 Y50.7295
G01 X33.2522 Y50.7573
G01 X33.1392 Y50.7740
G01 X33.0250 Y50.7797
G01 X32.9109 Y50.7740
G01 X32.7978 Y50.7573
G01 X32.6869 Y50.7295
G01 X32.5793 Y50.6910
G01 X32.4760 Y50.6421
G01 X32.3780 Y50.5834
G01 X32.2862 Y50.5153
G01 X32.2015 Y50.4385
G01 X32.1247 Y50.3539
G01 X32.0566 Y50.2621
G01 X31.9979 Y50.1640
G01 X31.9490 Y50.0607
G01 X31.9105 Y49.9531
G01 X31.8828 Y49.8422
G01 X31.8660 Y49.7292
G01 X31.8606 Y49.6231
G01 X31.8606 Y49.6069
G00 Z2.0000
G00 X31.9663 Y47.0721
G01 F240.00
G01 Z-0.0499
G01 F360.00
G01 X31.9713 Y46.9712
G01 X31.9866 Y46.8685
G01 X32.0118 Y46.7677
G01 X32.0468 Y46.6698
G01 X32.0912 Y46.5759
G01 X32.1447 Y46.4868
G01 X32.2065 Y46.4033
G01 X32.2763 Y46.3263
G01 X32.3533 Y46.2565
G01 X32.4368 Y46.1947
G01 X32.5259 Y46.1412
G01 X32.6198 Y46.0968
G01 X32.7177 Y46.0618
G01 X32.8185 Y46.0366
G01 X32.9212 Y46.0213
G01 X33.0250 Y46.0162
G01 X33.1288 Y46.0213
G01 X33.2316 Y46.0366
G01 X33.3324 Y46.0618
G01 X33.4302 Y46.0968
G01 X33.5241 Y46.1412
G01 X33.6133 Y46.1947
G01 X33.6967 Y46.2565
G01 X33.7737 Y46.3263
G01 X33.8435 Y46.4033
G01 X33.9054 Y46.4868
G01 X33.9588 Y46.5759
G01 X34.0032 Y46.6698
G01 X34.0382 Y46.7677
G01 X34.0635 Y46.8685
G01 X34.0787 Y46.9712
G01 X34.0838 Y47.0750
G01 X34.0787 Y47.1788
G01 X34.0635 Y47.2816
G01 X34.0382 Y47.3824
G01 X34.0032 Y47.4802
G01 X33.9588 Y47.5741
G01 X33.9054 Y47.6633
G01 X33.8435 Y47.7467
G01 X33.7737 Y47.8237
G01 X33.6967 Y47.8935
G01 X33.6133 Y47.9554
G01 X33.5241 Y48.0088
G01 X33.4302 Y48.0532
G01 X33.3324 Y48.0882
G01 X33.2316 Y48.1135
G01 X33.1288 Y48.1287
G01 X33.0250 Y48.1338
G01 X32.9212 Y48.1287
G01 X32.8185 Y48.1135
G01 X32.7177 Y48.0882
G01 X32.6198 Y48.0532
G01 X32.5259 Y48.0088
G01 X32.4368 Y47.9554
G01 X32.3533 Y47.8935
G01 X32.2763 Y47.8237
G01 X32.2065 Y47.7467
G01 X32.1447 Y47.6633
G01 X32.0912 Y47.5741
G01 X32.0468 Y47.4802
G01 X32.0118 Y47.3824
G01 X31.9866 Y47.2816
G01 X31.9713 Y47.1788
G01 X31.9663 Y47.0779
G01 X31.9663 Y47.0721
G00 Z2.0000
G00 X31.8606 Y47.0669
G01 F240.00
G01 Z-0.0499
G01 F360.00
G01 X31.8660 Y46.9609
G01 X31.8828 Y46.8478
G01 X31.9105 Y46.7369
G01 X31.9490 Y46.6293
G01 X31.9979 Y46.5260
G01 X32.0566 Y46.4280
G01 X32.1247 Y46.3362
G01 X32.2015 Y46.2515
G01 X32.2862 Y46.1747
G01 X32.3780 Y46.1066
G01 X32.4760 Y46.0479
G01 X32.5793 Y45.9990
G01 X32.6869 Y45.9605
G01 X32.7978 Y45.9328
G01 X32.9109 Y45.9160
G01 X33.0250 Y45.9104
G01 X33.1392 Y45.9160
G01 X33.2522 Y45.9328
G01 X33.3631 Y45.9605
G01 X33.4707 Y45.9990
G01 X33.5740 Y46.0479
G01 X33.6721 Y46.1066
G01 X33.7639 Y46.1747
G01 X33.8485 Y46.2515
G01 X33.9253 Y46.3362
G01 X33.9934 Y46.4280
G01 X34.0521 Y46.5260
G01 X34.1010 Y46.6293
G01 X34.1395 Y46.7369
G01 X34.1673 Y46.8478
G01 X34.1840 Y46.9609
G01 X34.1897 Y47.0750
G01 X34.1840 Y47.1892
G01 X34.1673 Y47.3022
G01 X34.1395 Y47.4131
G01 X34.1010 Y47.5207
G01 X34.0521 Y47.6240
G01 X33.9934 Y47.7221
G01 X33.9253 Y47.8139
G01 X33.8485 Y47.8985
G01 X33.7639 Y47.9753
G01 X33.6721 Y48.0434
G01 X33.5740 Y48.1021
G01 X33.4707 Y48.1510
G01 X33.3631 Y48.1895
G01 X33.2522 Y48.2173
G01 X33.1392 Y48.2340
G01 X33.0250 Y48.2397
G01 X32.9109 Y48.2340
G01 X32.7978 Y48.2173
G01 X32.6869 Y48.1895
G01 X32.5793 Y48.1510
G01 X32.4760 Y48.1021
G01 X32.3780 Y48.0434
G01 X32.2862 Y47.9753
G01 X32.2015 Y47.8985
G01 X32.1247 Y47.8139
G01 X32.0566 Y47.7221
G01 X31.9979 Y47.6240
G01 X31.9490 Y47.5207
G01 X31.9105 Y47.4131
G01 X31.8828 Y47.3022
G01 X31.8660 Y47.1892
G01 X31.8606 Y47.0831
G01 X31.8606 Y47.0669
G00 Z2.0000
G00 X31.9663 Y44.5321
G01 F240.00
G01 Z-0.0499
G01 F360.00
G01 X31.9713 Y44.4312
G01 X31.9866 Y44.3285
G01 X32.0118 Y44.2277
G01 X32.0468 Y44.1298
G01 X32.0912 Y44.0359
G01 X32.1447 Y43.9468
G01 X32.2065 Y43.8633
G01 X32.2763 Y43.7863
G01 X32.3533 Y43.7165
G01 X32.4368 Y43.6547
G01 X32.5259 Y43.6012
G01 X32.6198 Y43.5568
G01 X32.7177 Y43.5218
G01 X32.8185 Y43.4966
G01 X32.9212 Y43.4813
G01 X33.0250 Y43.4762
G01 X33.1288 Y43.4813
G01 X33.2316 Y43.4966
G01 X33.3324 Y43.5218
G01 X33.4302 Y43.5568
G01 X33.5241 Y43.6012
G01 X33.6133 Y43.6547
G01 X33.6967 Y43.7165
G01 X33.7737 Y43.7863
G01 X33.8435 Y43.8633
G01 X33.9054 Y43.9468
G01 X33.9588 Y44.0359
G01 X34.0032 Y44.1298
G01 X34.0382 Y44.2277
G01 X34.0635 Y44.3285
G01 X34.0787 Y44.4312
G01 X34.0838 Y44.5350
G01 X34.0787 Y44.6388
G01 X34.0635 Y44.7416
G01 X34.0382 Y44.8424
G01 X34.0032 Y44.9402
G01 X33.9588 Y45.0341
G01 X33.9054 Y45.1233
G01 X33.8435 Y45.2067
G01 X33.7737 Y45.2837
G01 X33.6967 Y45.3535
G01 X33.6133 Y45.4154
G01 X33.5241 Y45.4688
G01 X33.4302 Y45.5132
G01 X33.3324 Y45.5482
G01 X33.2316 Y45.5735
G01 X33.1288 Y45.5887
G01 X33.0250 Y45.5938
G01 X32.9212 Y45.5887
G01 X32.8185 Y45.5735
G01 X32.7177 Y45.5482
G01 X32.6198 Y45.5132
G01 X32.5259 Y45.4688
G01 X32.4368 Y45.4154
G01 X32.3533 Y45.3535
G01 X32.2763 Y45.2837
G01 X32.2065 Y45.2067
G01 X32.1447 Y45.1233
G01 X32.0912 Y45.0341
G01 X32.0468 Y44.9402
G01 X32.0118 Y44.8424
G01 X31.9866 Y44.7416
G01 X31.9713 Y44.6388
G01 X31.9663 Y44.5379
G01 X31.9663 Y44.5321
G00 Z2.0000
G00 X31.8606 Y44.5269
G01 F240.00
G01 Z-0.0499
G01 F360.00
G01 X31.8660 Y44.4209
G01 X31.8828 Y44.3078
G01 X31.9105 Y44.1969
G01 X31.9490 Y44.0893
G01 X31.9979 Y43.9860
G01 X32.0566 Y43.8880
G01 X32.1247 Y43.7962
G01 X32.2015 Y43.7115
G01 X32.2862 Y43.6347
G01 X32.3780 Y43.5666
G01 X32.4760 Y43.5079
G01 X32.5793 Y43.4590
G01 X32.6869 Y43.4205
G01 X32.7978 Y43.3928
G01 X32.9109 Y43.3760
G01 X33.0250 Y43.3704
G01 X33.1392 Y43.3760
G01 X33.2522 Y43.3928
G01 X33.3631 Y43.4205
G01 X33.4707 Y43.4590
G01 X33.5740 Y43.5079
G01 X33.6721 Y43.5666
G01 X33.7639 Y43.6347
G01 X33.8485 Y43.7115
G01 X33.9253 Y43.7962
G01 X33.9934 Y43.8880
G01 X34.0521 Y43.9860
G01 X34.1010 Y44.0893
G01 X34.1395 Y44.1969
G01 X34.1673 Y44.3078
G01 X34.1840 Y44.4209
G01 X34.1897 Y44.5350
G01 X34.1840 Y44.6492
G01 X34.1673 Y44.7622
G01 X34.1395 Y44.8731
G01 X34.1010 Y44.9807
G01 X34.0521 Y45.0840
G01 X33.9934 Y45.1821
G01 X33.9253 Y45.2739
G01 X33.8485 Y45.3585
G01 X33.7639 Y45.4353
G01 X33.6721 Y45.5034
G01 X33.5740 Y45.5621
G01 X33.4707 Y45.6110
G01 X33.3631 Y45.6495
G01 X33.2522 Y45.6773
G01 X33.1392 Y45.6940
G01 X33.0250 Y45.6997
G01 X32.9109 Y45.6940
G01 X32.7978 Y45.6773
G01 X32.6869 Y45.6495
G01 X32.5793 Y45.6110
G01 X32.4760 Y45.5621
G01 X32.3780 Y45.5034
G01 X32.2862 Y45.4353
G01 X32.2015 Y45.3585
G01 X32.1247 Y45.2739
G01 X32.0566 Y45.1821
G01 X31.9979 Y45.0840
G01 X31.9490 Y44.9807
G01 X31.9105 Y44.8731
G01 X31.8828 Y44.7622
G01 X31.8660 Y44.6492
G01 X31.8606 Y44.5431
G01 X31.8606 Y44.5269
G00 Z2.0000
G00 X31.9662 Y41.9936
G01 F240.00
G01 Z-0.0499
G01 F360.00
G01 X31.9713 Y41.8912
G01 X31.9866 Y41.7885
G01 X32.0118 Y41.6877
G01 X32.0468 Y41.5898
G01 X32.0912 Y41.4959
G01 X32.1447 Y41.4068
G01 X32.2065 Y41.3233
G01 X32.2763 Y41.2463
G01 X32.3533 Y41.1765
G01 X32.4368 Y41.1147
G01 X32.5259 Y41.0612
G01 X32.6198 Y41.0168
G01 X32.7177 Y40.9818
G01 X32.8185 Y40.9566
G01 X32.9212 Y40.9413
G01 X33.0250 Y40.9362
G01 X33.1288 Y40.9413
G01 X33.2316 Y40.9566
G01 X33.3324 Y40.9818
G01 X33.4302 Y41.0168
G01 X33.5241 Y41.0612
G01 X33.6133 Y41.1147
G01 X33.6967 Y41.1765
G01 X33.7737 Y41.2463
G01 X33.8435 Y41.3233
G01 X33.9054 Y41.4068
G01 X33.9588 Y41.4959
G01 X34.0032 Y41.5898
G01 X34.0382 Y41.6877
G01 X34.0635 Y41.7885
G01 X34.0787 Y41.8912
G01 X34.0838 Y41.9950
G01 X34.0787 Y42.0988
G01 X34.0635 Y42.2016
G01 X34.0382 Y42.3024
G01 X34.0032 Y42.4002
G01 X33.9588 Y42.4941
G01 X33.9054 Y42.5833
G01 X33.8435 Y42.6667
G01 X33.7737 Y42.7437
G01 X33.6967 Y42.8135
G01 X33.6133 Y42.8754
G01 X33.5241 Y42.9288
G01 X33.4302 Y42.9732
G01 X33.3324 Y43.0082
G01 X33.2316 Y43.0335
G01 X33.1288 Y43.0487
G01 X33.0250 Y43.0538
G01 X32.9212 Y43.0487
G01 X32.8185 Y43.0335
G01 X32.7177 Y43.0082
G01 X32.6198 Y42.9732
G01 X32.5259 Y42.9288
G01 X32.4368 Y42.8754
G01 X32.3533 Y42.8135
G01 X32.2763 Y42.7437
G01 X32.2065 Y42.6667
G01 X32.1447 Y42.5833
G01 X32.0912 Y42.4941
G01 X32.0468 Y42.4002
G01 X32.0118 Y42.3024
G01 X31.9866 Y42.2016
G01 X31.9713 Y42.0988
G01 X31.9662 Y41.9936
G00 Z2.0000
G00 X31.8604 Y41.9910
G01 F240.00
G01 Z-0.0499
G01 F360.00
G01 X31.8660 Y41.8809
G01 X31.8828 Y41.7678
G01 X31.9105 Y41.6569
G01 X31.9490 Y41.5493
G01 X31.9979 Y41.4460
G01 X32.0566 Y41.3480
G01 X32.1247 Y41.2562
G01 X32.2015 Y41.1715
G01 X32.2862 Y41.0947
G01 X32.3780 Y41.0266
G01 X32.4760 Y40.9679
G01 X32.5793 Y40.9190
G01 X32.6869 Y40.8805
G01 X32.7978 Y40.8528
G01 X32.9109 Y40.8360
G01 X33.0250 Y40.8304
G01 X33.1392 Y40.8360
G01 X33.2522 Y40.8528
G01 X33.3631 Y40.8805
G01 X33.4707 Y40.9190
G01 X33.5740 Y40.9679
G01 X33.6721 Y41.0266
G01 X33.7639 Y41.0947
G01 X33.8485 Y41.1715
G01 X33.9253 Y41.2562
G01 X33.9934 Y41.3480
G01 X34.0521 Y41.4460
G01 X34.1010 Y41.5493
G01 X34.1395 Y41.6569
G01 X34.1673 Y41.7678
G01 X34.1840 Y41.8809
G01 X34.1897 Y41.9950
G01 X34.1840 Y42.1092
G01 X34.1673 Y42.2222
G01 X34.1395 Y42.3331
G01 X34.1010 Y42.4407
G01 X34.0521 Y42.5440
G01 X33.9934 Y42.6421
G01 X33.9253 Y42.7339
G01 X33.8485 Y42.8185
G01 X33.7639 Y42.8953
G01 X33.6721 Y42.9634
G01 X33.5740 Y43.0221
G01 X33.4707 Y43.0710
G01 X33.3631 Y43.1095
G01 X33.2522 Y43.1373
G01 X33.1392 Y43.1540
G01 X33.0250 Y43.1597
G01 X32.9109 Y43.1540
G01 X32.7978 Y43.1373
G01 X32.6869 Y43.1095
G01 X32.5793 Y43.0710
G01 X32.4760 Y43.0221
G01 X32.3780 Y42.9634
G01 X32.2862 Y42.8953
G01 X32.2015 Y42.8185
G01 X32.1247 Y42.7339
G01 X32.0566 Y42.6421
G01 X31.9979 Y42.5440
G01 X31.9490 Y42.4407
G01 X31.9105 Y42.3331
G01 X31.8828 Y42.2222
G01 X31.8660 Y42.1092
G01 X31.8606 Y42.0031
G01 X31.8604 Y41.9910
G00 Z2.0000
G00 X31.9663 Y39.4521
G01 F240.00
G01 Z-0.0499
G01 F360.00
G01 X31.9713 Y39.3512
G01 X31.9866 Y39.2485
G01 X32.0118 Y39.1477
G01 X32.0468 Y39.0498
G01 X32.0912 Y38.9559
G01 X32.1447 Y38.8668
G01 X32.2065 Y38.7833
G01 X32.2763 Y38.7063
G01 X32.3533 Y38.6365
G01 X32.4368 Y38.5747
G01 X32.5259 Y38.5212
G01 X32.6198 Y38.4768
G01 X32.7177 Y38.4418
G01 X32.8185 Y38.4166
G01 X32.9212 Y38.4013
G01 X33.0250 Y38.3962
G01 X33.1288 Y38.4013
G01 X33.2316 Y38.4166
G01 X33.3324 Y38.4418
G01 X33.4302 Y38.4768
G01 X33.5241 Y38.5212
G01 X33.6133 Y38.5747
G01 X33.6967 Y38.6365
G01 X33.7737 Y38.7063
G01 X33.8435 Y38.7833
G01 X33.9054 Y38.8668
G01 X33.9588 Y38.9559
G01 X34.0032 Y39.0498
G01 X34.0382 Y39.1477
G01 X34.0635 Y39.2485
G01 X34.0787 Y39.3512
G01 X34.0838 Y39.4550
G01 X34.0787 Y39.5588
G01 X34.0635 Y39.6616
G01 X34.0382 Y39.7624
G01 X34.0032 Y39.8602
G01 X33.9588 Y39.9541
G01 X33.9054 Y40.0433
G01 X33.8435 Y40.1267
G01 X33.7737 Y40.2037
G01 X33.6967 Y40.2735
G01 X33.6133 Y40.3354
G01 X33.5241 Y40.3888
G01 X33.4302 Y40.4332
G01 X33.3324 Y40.4682
G01 X33.2316 Y40.4935
G01 X33.1288 Y40.5087
G01 X33.0250 Y40.5138
G01 X32.9212 Y40.5087
G01 X32.8185 Y40.4935
G01 X32.7177 Y40.4682
G01 X32.6198 Y40.4332
G01 X32.5259 Y40.3888
G01 X32.4368 Y40.3354
G01 X32.3533 Y40.2735
G01 X32.2763 Y40.2037
G01 X32.2065 Y40.1267
G01 X32.1447 Y40.0433
G01 X32.0912 Y39.9541
G01 X32.0468 Y39.8602
G01 X32.0118 Y39.7624
G01 X31.9866 Y39.6616
G01 X31.9713 Y39.5588
G01 X31.9663 Y39.4579
G01 X31.9663 Y39.4521
G00 Z2.0000
G00 X31.8606 Y39.4469
G01 F240.00
G01 Z-0.0499
G01 F360.00
G01 X31.8660 Y39.3409
G01 X31.8828 Y39.2278
G01 X31.9105 Y39.1169
G01 X31.9490 Y39.0093
G01 X31.9979 Y38.9060
G01 X32.0566 Y38.8080
G01 X32.1247 Y38.7162
G01 X32.2015 Y38.6315
G01 X32.2862 Y38.5547
G01 X32.3780 Y38.4866
G01 X32.4760 Y38.4279
G01 X32.5793 Y38.3790
G01 X32.6869 Y38.3405
G01 X32.7978 Y38.3128
G01 X32.9109 Y38.2960
G01 X33.0250 Y38.2904
G01 X33.1392 Y38.2960
G01 X33.2522 Y38.3128
G01 X33.3631 Y38.3405
G01 X33.4707 Y38.3790
G01 X33.5740 Y38.4279
G01 X33.6721 Y38.4866
G01 X33.7639 Y38.5547
G01 X33.8485 Y38.6315
G01 X33.9253 Y38.7162
G01 X33.9934 Y38.8080
G01 X34.0521 Y38.9060
G01 X34.1010 Y39.0093
G01 X34.1395 Y39.1169
G01 X34.1673 Y39.2278
G01 X34.1840 Y39.3409
G01 X34.1897 Y39.4550
G01 X34.1840 Y39.5692
G01 X34.1673 Y39.6822
G01 X34.1395 Y39.7931
G01 X34.1010 Y39.9007
G01 X34.0521 Y40.0040
G01 X33.9934 Y40.1021
G01 X33.9253 Y40.1939
G01 X33.8485 Y40.2785
G01 X33.7639 Y40.3553
G01 X33.6721 Y40.4234
G01 X33.5740 Y40.4821
G01 X33.4707 Y40.5310
G01 X33.3631 Y40.5695
G01 X33.2522 Y40.5973
G01 X33.1392 Y40.6140
G01 X33.0250 Y40.6197
G01 X32.9109 Y40.6140
G01 X32.7978 Y40.5973
G01 X32.6869 Y40.5695
G01 X32.5793 Y40.5310
G01 X32.4760 Y40.4821
G01 X32.3780 Y40.4234
G01 X32.2862 Y40.3553
G01 X32.2015 Y40.2785
G01 X32.1247 Y40.1939
G01 X32.0566 Y40.1021
G01 X31.9979 Y40.0040
G01 X31.9490 Y39.9007
G01 X31.9105 Y39.7931
G01 X31.8828 Y39.6822
G01 X31.8660 Y39.5692
G01 X31.8606 Y39.4631
G01 X31.8606 Y39.4469
G00 Z2.0000
G00 X31.9662 Y36.9136
G01 F240.00
G01 Z-0.0499
G01 F360.00
G01 X31.9711 Y36.8141
G01 X31.9717 Y36.8084
G01 X31.9866 Y36.7085
G01 X32.0110 Y36.6104
G01 X32.0127 Y36.6049
G01 X32.0468 Y36.5098
G01 X32.0912 Y36.4159
G01 X32.1431 Y36.3292
G01 X32.1463 Y36.3244
G01 X32.2065 Y36.2433
G01 X32.2743 Y36.1684
G01 X32.2784 Y36.1643
G01 X32.3533 Y36.0965
G01 X32.4368 Y36.0347
G01 X32.5259 Y35.9812
G01 X32.6172 Y35.9380
G01 X32.6225 Y35.9358
G01 X32.7177 Y35.9018
G01 X32.8156 Y35.8772
G01 X32.8213 Y35.8761
G01 X32.9212 Y35.8613
G01 X33.0250 Y35.8562
G01 X33.1259 Y35.8611
G01 X33.1317 Y35.8617
G01 X33.2316 Y35.8766
G01 X33.3296 Y35.9010
G01 X33.3351 Y35.9027
G01 X33.4275 Y35.9358
G01 X33.4328 Y35.9380
G01 X33.5241 Y35.9812
G01 X33.6133 Y36.0347
G01 X33.6967 Y36.0965
G01 X33.7747 Y36.1674
G01 X33.8435 Y36.2433
G01 X33.9062 Y36.3280
G01 X33.9595 Y36.4172
G01 X34.0026 Y36.5085
G01 X34.0198 Y36.5561
G01 X34.5250 Y36.5561
G01 X34.5616 Y36.5579
G01 X34.5950 Y36.5630
G01 X34.6264 Y36.5707
G01 X34.6320 Y36.5724
G01 X34.6624 Y36.5834
G01 X34.6942 Y36.5984
G01 X34.7220 Y36.6150
G01 X34.7268 Y36.6182
G01 X34.7527 Y36.6375
G01 X34.7788 Y36.6612
G01 X36.7788 Y38.6612
G01 X36.8016 Y38.6862
G01 X36.8235 Y38.7156
G01 X36.8402 Y38.7433
G01 X36.8429 Y38.7484
G01 X36.8577 Y38.7803
G01 X36.8685 Y38.8108
G01 X36.8771 Y38.8450
G01 X36.8822 Y38.8798
G01 X36.8839 Y38.9136
G01 X36.8840 Y44.2963
G01 X37.9237 Y45.3361
G01 X38.5302 Y45.3361
G01 X38.5474 Y45.2885
G01 X38.5906 Y45.1972
G01 X38.6455 Y45.1056
G01 X38.7048 Y45.0256
G01 X38.7084 Y45.0211
G01 X38.7763 Y44.9463
G01 X38.8522 Y44.8775
G01 X38.9368 Y44.8147
G01 X39.0234 Y44.7627
G01 X39.0285 Y44.7599
G01 X39.1172 Y44.7180
G01 X39.1225 Y44.7158
G01 X39.2177 Y44.6818
G01 X39.3156 Y44.6572
G01 X39.3213 Y44.6561
G01 X39.4212 Y44.6413
G01 X39.5250 Y44.6362
G01 X39.6288 Y44.6413
G01 X39.7316 Y44.6566
G01 X39.8324 Y44.6818
G01 X39.9302 Y44.7168
G01 X40.0241 Y44.7612
G01 X40.1133 Y44.8147
G01 X40.1967 Y44.8765
G01 X40.2716 Y44.9443
G01 X40.2757 Y44.9484
G01 X40.3435 Y45.0233
G01 X40.4037 Y45.1044
G01 X40.4069 Y45.1092
G01 X40.4574 Y45.1934
G01 X40.4601 Y45.1985
G01 X40.5032 Y45.2898
G01 X40.5382 Y45.3877
G01 X40.5635 Y45.4885
G01 X40.5784 Y45.5884
G01 X40.5789 Y45.5941
G01 X40.5838 Y45.6950
G01 X40.5789 Y45.7959
G01 X40.5784 Y45.8017
G01 X40.5640 Y45.8987
G01 X40.5628 Y45.9044
G01 X40.5382 Y46.0024
G01 X40.5032 Y46.1002
G01 X40.4588 Y46.1941
G01 X40.4069 Y46.2808
G01 X40.4037 Y46.2856
G01 X40.3435 Y46.3667
G01 X40.2757 Y46.4416
G01 X40.2716 Y46.4457
G01 X40.1978 Y46.5125
G01 X40.1133 Y46.5754
G01 X40.0241 Y46.6288
G01 X39.9302 Y46.6732
G01 X39.8351 Y46.7073
G01 X39.8296 Y46.7090
G01 X39.7316 Y46.7335
G01 X39.6317 Y46.7484
G01 X39.6259 Y46.7489
G01 X39.5279 Y46.7537
G01 X39.5221 Y46.7537
G01 X39.4212 Y46.7487
G01 X39.3185 Y46.7335
G01 X39.2204 Y46.7090
G01 X39.2149 Y46.7073
G01 X39.1198 Y46.6732
G01 X39.0285 Y46.6301
G01 X39.0234 Y46.6274
G01 X38.9368 Y46.5754
G01 X38.8522 Y46.5125
G01 X38.7763 Y46.4437
G01 X38.7084 Y46.3689
G01 X38.7048 Y46.3644
G01 X38.6455 Y46.2844
G01 X38.5906 Y46.1928
G01 X38.5474 Y46.1015
G01 X38.5302 Y46.0540
G01 X37.7736 Y46.0539
G01 X37.7398 Y46.0522
G01 X37.7050 Y46.0471
G01 X37.6708 Y46.0385
G01 X37.6403 Y46.0277
G01 X37.6350 Y46.0255
G01 X37.6058 Y46.0116
G01 X37.5756 Y45.9935
G01 X37.5473 Y45.9725
G01 X37.5222 Y45.9498
G01 X36.2712 Y44.6988
G01 X36.2485 Y44.6738
G01 X36.2266 Y44.6444
G01 X36.2099 Y44.6167
G01 X36.2071 Y44.6116
G01 X36.1923 Y44.5797
G01 X36.1815 Y44.5492
G01 X36.1730 Y44.5150
G01 X36.1678 Y44.4802
G01 X36.1661 Y44.4465
G01 X36.1661 Y39.0637
G01 X34.3763 Y37.2740
G01 X34.0198 Y37.2740
G01 X34.0026 Y37.3215
G01 X33.9595 Y37.4128
G01 X33.9062 Y37.5020
G01 X33.8435 Y37.5867
G01 X33.7747 Y37.6627
G01 X33.6967 Y37.7335
G01 X33.6133 Y37.7954
G01 X33.5241 Y37.8488
G01 X33.4315 Y37.8926
G01 X33.3351 Y37.9273
G01 X33.3296 Y37.9290
G01 X33.2316 Y37.9535
G01 X33.1288 Y37.9687
G01 X33.0279 Y37.9737
G01 X33.0221 Y37.9737
G01 X32.9212 Y37.9687
G01 X32.8213 Y37.9540
G01 X32.8156 Y37.9528
G01 X32.7177 Y37.9282
G01 X32.6225 Y37.8943
G01 X32.6172 Y37.8920
G01 X32.5285 Y37.8501
G01 X32.5234 Y37.8474
G01 X32.4368 Y37.7954
G01 X32.3533 Y37.7335
G01 X32.2763 Y37.6637
G01 X32.2065 Y37.5867
G01 X32.1447 Y37.5033
G01 X32.0912 Y37.4141
G01 X32.0468 Y37.3202
G01 X32.0127 Y37.2251
G01 X32.0110 Y37.2196
G01 X31.9872 Y37.1244
G01 X31.9861 Y37.1187
G01 X31.9713 Y37.0188
G01 X31.9662 Y36.9136
G00 Z2.0000
G00 X31.8604 Y36.9110
G01 F240.00
G01 Z-0.0499
G01 F360.00
G01 X31.8654 Y36.8089
G01 X31.8670 Y36.7928
G01 X31.8828 Y36.6878
G01 X31.9084 Y36.5847
G01 X31.9131 Y36.5693
G01 X31.9490 Y36.4693
G01 X31.9979 Y36.3660
G01 X32.0566 Y36.2680
G01 X32.1198 Y36.1825
G01 X32.1300 Y36.1701
G01 X32.2015 Y36.0915
G01 X32.2801 Y36.0200
G01 X32.2925 Y36.0098
G01 X32.3714 Y35.9513
G01 X32.3848 Y35.9423
G01 X32.4760 Y35.8879
G01 X32.5793 Y35.8390
G01 X32.6869 Y35.8005
G01 X32.7899 Y35.7745
G01 X32.8058 Y35.7714
G01 X32.9028 Y35.7570
G01 X32.9189 Y35.7554
G01 X33.0250 Y35.7504
G01 X33.1311 Y35.7554
G01 X33.1472 Y35.7570
G01 X33.2522 Y35.7728
G01 X33.3553 Y35.7984
G01 X33.3669 Y35.8017
G01 X33.4707 Y35.8390
G01 X33.5740 Y35.8879
G01 X33.6721 Y35.9466
G01 X33.7575 Y36.0098
G01 X33.7700 Y36.0200
G01 X33.8485 Y36.0915
G01 X33.9200 Y36.1701
G01 X33.9303 Y36.1825
G01 X33.9887 Y36.2614
G01 X33.9977 Y36.2748
G01 X34.0521 Y36.3660
G01 X34.0922 Y36.4502
G01 X34.5250 Y36.4502
G01 X34.5625 Y36.4519
G01 X34.5786 Y36.4534
G01 X34.6157 Y36.4592
G01 X34.6521 Y36.4681
G01 X34.6676 Y36.4728
G01 X34.7029 Y36.4856
G01 X34.7441 Y36.5051
G01 X34.7764 Y36.5242
G01 X34.7898 Y36.5332
G01 X34.8199 Y36.5557
G01 X34.8537 Y36.5864
G01 X36.8537 Y38.5864
G01 X36.8817 Y38.6171
G01 X36.8893 Y38.6265
G01 X36.9115 Y38.6568
G01 X36.9309 Y38.6889
G01 X36.9386 Y38.7031
G01 X36.9528 Y38.7334
G01 X36.9573 Y38.7447
G01 X36.9698 Y38.7801
G01 X36.9809 Y38.8243
G01 X36.9876 Y38.8695
G01 X36.9898 Y38.9110
G01 X36.9898 Y44.2525
G01 X37.9675 Y45.2302
G01 X38.4578 Y45.2302
G01 X38.4979 Y45.1460
G01 X38.5523 Y45.0548
G01 X38.5613 Y45.0414
G01 X38.6198 Y44.9625
G01 X38.6300 Y44.9501
G01 X38.7015 Y44.8715
G01 X38.7862 Y44.7947
G01 X38.8780 Y44.7266
G01 X38.9690 Y44.6719
G01 X38.9832 Y44.6643
G01 X39.0793 Y44.6190
G01 X39.1793 Y44.5831
G01 X39.1947 Y44.5784
G01 X39.2938 Y44.5536
G01 X39.3058 Y44.5514
G01 X39.4109 Y44.5360
G01 X39.5250 Y44.5304
G01 X39.6392 Y44.5360
G01 X39.7522 Y44.5528
G01 X39.8631 Y44.5805
G01 X39.9707 Y44.6190
G01 X40.0740 Y44.6679
G01 X40.1652 Y44.7223
G01 X40.1754 Y44.7289
G01 X40.2639 Y44.7947
G01 X40.3427 Y44.8659
G01 X40.3541 Y44.8773
G01 X40.4253 Y44.9562
G01 X40.4887 Y45.0414
G01 X40.4977 Y45.0548
G01 X40.5482 Y45.1390
G01 X40.5558 Y45.1532
G01 X40.6010 Y45.2493
G01 X40.6395 Y45.3569
G01 X40.6673 Y45.4678
G01 X40.6831 Y45.5728
G01 X40.6846 Y45.5889
G01 X40.6897 Y45.6950
G01 X40.6846 Y45.8011
G01 X40.6831 Y45.8172
G01 X40.6687 Y45.9143
G01 X40.6655 Y45.9301
G01 X40.6395 Y46.0331
G01 X40.6010 Y46.1407
G01 X40.5521 Y46.2440
G01 X40.4977 Y46.3352
G01 X40.4887 Y46.3487
G01 X40.4253 Y46.4339
G01 X40.3541 Y46.5127
G01 X40.3427 Y46.5241
G01 X40.2669 Y46.5927
G01 X40.2575 Y46.6003
G01 X40.1721 Y46.6634
G01 X40.0740 Y46.7221
G01 X39.9707 Y46.7710
G01 X39.8708 Y46.8070
G01 X39.8553 Y46.8117
G01 X39.7522 Y46.8373
G01 X39.6472 Y46.8531
G01 X39.6311 Y46.8546
G01 X39.5331 Y46.8595
G01 X39.5169 Y46.8595
G01 X39.4109 Y46.8540
G01 X39.3018 Y46.8380
G01 X39.2899 Y46.8355
G01 X39.1869 Y46.8095
G01 X39.0869 Y46.7739
G01 X39.0719 Y46.7677
G01 X38.9760 Y46.7221
G01 X38.8848 Y46.6677
G01 X38.8714 Y46.6587
G01 X38.7862 Y46.5953
G01 X38.7015 Y46.5185
G01 X38.6300 Y46.4400
G01 X38.6198 Y46.4275
G01 X38.5613 Y46.3487
G01 X38.5523 Y46.3352
G01 X38.4979 Y46.2440
G01 X38.4578 Y46.1598
G01 X37.7669 Y46.1596
G01 X37.7295 Y46.1576
G01 X37.6923 Y46.1523
G01 X37.6804 Y46.1500
G01 X37.6401 Y46.1398
G01 X37.6047 Y46.1273
G01 X37.5934 Y46.1228
G01 X37.5559 Y46.1049
G01 X37.5168 Y46.0815
G01 X37.4802 Y46.0543
G01 X37.4492 Y46.0265
G01 X36.1964 Y44.7737
G01 X36.1683 Y44.7430
G01 X36.1608 Y44.7335
G01 X36.1386 Y44.7032
G01 X36.1191 Y44.6711
G01 X36.1115 Y44.6569
G01 X36.0972 Y44.6266
G01 X36.0927 Y44.6153
G01 X36.0802 Y44.5799
G01 X36.0692 Y44.5357
G01 X36.0625 Y44.4906
G01 X36.0603 Y44.4491
G01 X36.0602 Y39.1075
G01 X34.3325 Y37.3798
G01 X34.0922 Y37.3798
G01 X34.0521 Y37.4640
G01 X33.9934 Y37.5621
G01 X33.9253 Y37.6539
G01 X33.8485 Y37.7385
G01 X33.7639 Y37.8153
G01 X33.6721 Y37.8834
G01 X33.5740 Y37.9421
G01 X33.4744 Y37.9894
G01 X33.4632 Y37.9939
G01 X33.3708 Y38.0270
G01 X33.3553 Y38.0317
G01 X33.2522 Y38.0573
G01 X33.1392 Y38.0740
G01 X33.0250 Y38.0797
G01 X32.9189 Y38.0746
G01 X32.9028 Y38.0731
G01 X32.7978 Y38.0573
G01 X32.6869 Y38.0295
G01 X32.5869 Y37.9939
G01 X32.5719 Y37.9877
G01 X32.4832 Y37.9458
G01 X32.4690 Y37.9382
G01 X32.3780 Y37.8834
G01 X32.2862 Y37.8153
G01 X32.2015 Y37.7385
G01 X32.1247 Y37.6539
G01 X32.0566 Y37.5621
G01 X31.9979 Y37.4640
G01 X31.9490 Y37.3607
G01 X31.9131 Y37.2608
G01 X31.9084 Y37.2453
G01 X31.8845 Y37.1501
G01 X31.8814 Y37.1343
G01 X31.8660 Y37.0292
G01 X31.8606 Y36.9231
G01 X31.8604 Y36.9110
G00 Z2.0000
G00 X31.9663 Y34.3721
G01 F240.00
G01 Z-0.0499
G01 F360.00
G01 X31.9711 Y34.2741
G01 X31.9717 Y34.2684
G01 X31.9866 Y34.1685
G01 X32.0110 Y34.0704
G01 X32.0127 Y34.0649
G01 X32.0468 Y33.9698
G01 X32.0912 Y33.8759
G01 X32.1431 Y33.7892
G01 X32.1463 Y33.7844
G01 X32.2065 Y33.7033
G01 X32.2743 Y33.6284
G01 X32.2784 Y33.6243
G01 X32.3533 Y33.5565
G01 X32.4368 Y33.4947
G01 X32.5259 Y33.4412
G01 X32.6172 Y33.3980
G01 X32.6225 Y33.3958
G01 X32.7177 Y33.3618
G01 X32.8156 Y33.3372
G01 X32.8213 Y33.3361
G01 X32.9212 Y33.3213
G01 X33.0250 Y33.3162
G01 X33.1259 Y33.3211
G01 X33.1317 Y33.3217
G01 X33.2316 Y33.3366
G01 X33.3296 Y33.3610
G01 X33.3351 Y33.3627
G01 X33.4289 Y33.3963
G01 X33.5241 Y33.4412
G01 X33.6133 Y33.4947
G01 X33.6967 Y33.5565
G01 X33.7747 Y33.6274
G01 X33.8435 Y33.7033
G01 X33.9062 Y33.7880
G01 X33.9595 Y33.8772
G01 X34.0026 Y33.9685
G01 X34.0198 Y34.0161
G01 X34.5250 Y34.0161
G01 X34.5616 Y34.0179
G01 X34.5950 Y34.0230
G01 X34.6264 Y34.0307
G01 X34.6320 Y34.0324
G01 X34.6624 Y34.0434
G01 X34.6942 Y34.0584
G01 X34.7220 Y34.0750
G01 X34.7268 Y34.0782
G01 X34.7538 Y34.0985
G01 X34.7788 Y34.1212
G01 X37.4883 Y36.8306
G01 X38.5571 Y36.8306
G01 X38.5724 Y36.7885
G01 X38.6156 Y36.6972
G01 X38.6705 Y36.6056
G01 X38.7298 Y36.5256
G01 X38.7334 Y36.5211
G01 X38.8013 Y36.4463
G01 X38.8772 Y36.3775
G01 X38.9618 Y36.3147
G01 X39.0484 Y36.2627
G01 X39.0535 Y36.2599
G01 X39.1448 Y36.2168
G01 X39.2399 Y36.1827
G01 X39.2454 Y36.1810
G01 X39.3420 Y36.1569
G01 X39.4462 Y36.1413
G01 X39.5500 Y36.1362
G01 X39.6538 Y36.1413
G01 X39.7537 Y36.1561
G01 X39.7594 Y36.1572
G01 X39.8574 Y36.1818
G01 X39.9525 Y36.2158
G01 X39.9578 Y36.2180
G01 X40.0465 Y36.2599
G01 X40.0516 Y36.2627
G01 X40.1383 Y36.3147
G01 X40.2217 Y36.3765
G01 X40.2987 Y36.4463
G01 X40.3685 Y36.5233
G01 X40.4304 Y36.6068
G01 X40.4838 Y36.6959
G01 X40.5282 Y36.7898
G01 X40.5623 Y36.8849
G01 X40.5640 Y36.8904
G01 X40.5885 Y36.9885
G01 X40.6034 Y37.0884
G01 X40.6039 Y37.0941
G01 X40.6087 Y37.1921
G01 X40.6087 Y37.1979
G01 X40.6037 Y37.2988
G01 X40.5885 Y37.4016
G01 X40.5632 Y37.5024
G01 X40.5288 Y37.5989
G01 X40.4851 Y37.6915
G01 X40.4824 Y37.6966
G01 X40.4304 Y37.7833
G01 X40.3685 Y37.8667
G01 X40.2987 Y37.9437
G01 X40.2239 Y38.0116
G01 X40.2194 Y38.0153
G01 X40.1383 Y38.0754
G01 X40.0491 Y38.1288
G01 X39.9578 Y38.1720
G01 X39.9525 Y38.1743
G01 X39.8574 Y38.2082
G01 X39.7566 Y38.2335
G01 X39.6567 Y38.2484
G01 X39.6509 Y38.2489
G01 X39.5486 Y38.2538
G01 X39.4462 Y38.2487
G01 X39.3463 Y38.2340
G01 X39.3406 Y38.2328
G01 X39.2427 Y38.2082
G01 X39.1448 Y38.1732
G01 X39.0535 Y38.1301
G01 X39.0484 Y38.1274
G01 X38.9606 Y38.0746
G01 X38.8783 Y38.0135
G01 X38.8034 Y37.9457
G01 X38.7993 Y37.9416
G01 X38.7306 Y37.8656
G01 X38.6697 Y37.7833
G01 X38.6169 Y37.6954
G01 X38.5724 Y37.6015
G01 X38.5532 Y37.5485
G01 X37.2681 Y37.5485
G01 X37.2344 Y37.5468
G01 X37.1995 Y37.5416
G01 X37.1654 Y37.5331
G01 X37.1335 Y37.5217
G01 X37.1004 Y37.5061
G01 X37.0702 Y37.4880
G01 X37.0419 Y37.4670
G01 X37.0158 Y37.4434
G01 X36.9940 Y37.4195
G01 X36.9903 Y37.4150
G01 X36.9711 Y37.3890
G01 X36.9537 Y37.3600
G01 X36.9374 Y37.3256
G01 X36.9265 Y37.2951
G01 X36.9226 Y37.2803
G01 X34.3763 Y34.7340
G01 X34.0198 Y34.7340
G01 X34.0026 Y34.7815
G01 X33.9595 Y34.8728
G01 X33.9062 Y34.9620
G01 X33.8435 Y35.0467
G01 X33.7747 Y35.1227
G01 X33.6967 Y35.1935
G01 X33.6133 Y35.2554
G01 X33.5241 Y35.3088
G01 X33.4315 Y35.3526
G01 X33.3351 Y35.3873
G01 X33.3296 Y35.3890
G01 X33.2316 Y35.4135
G01 X33.1288 Y35.4287
G01 X33.0279 Y35.4337
G01 X33.0221 Y35.4337
G01 X32.9212 Y35.4287
G01 X32.8213 Y35.4140
G01 X32.8156 Y35.4128
G01 X32.7177 Y35.3882
G01 X32.6225 Y35.3543
G01 X32.6172 Y35.3520
G01 X32.5285 Y35.3101
G01 X32.5234 Y35.3074
G01 X32.4368 Y35.2554
G01 X32.3533 Y35.1935
G01 X32.2763 Y35.1237
G01 X32.2065 Y35.0467
G01 X32.1447 Y34.9633
G01 X32.0912 Y34.8741
G01 X32.0468 Y34.7802
G01 X32.0127 Y34.6851
G01 X32.0110 Y34.6796
G01 X31.9866 Y34.5816
G01 X31.9717 Y34.4817
G01 X31.9711 Y34.4759
G01 X31.9663 Y34.3779
G01 X31.9663 Y34.3721
G00 Z2.0000
G00 X31.8606 Y34.3669
G01 F240.00
G01 Z-0.0499
G01 F360.00
G01 X31.8654 Y34.2689
G01 X31.8670 Y34.2528
G01 X31.8828 Y34.1478
G01 X31.9084 Y34.0447
G01 X31.9131 Y34.0293
G01 X31.9490 Y33.9293
G01 X31.9979 Y33.8260
G01 X32.0523 Y33.7348
G01 X32.0613 Y33.7214
G01 X32.1247 Y33.6362
G01 X32.1959 Y33.5573
G01 X32.2073 Y33.5459
G01 X32.2862 Y33.4747
G01 X32.3780 Y33.4066
G01 X32.4760 Y33.3479
G01 X32.5719 Y33.3023
G01 X32.5869 Y33.2961
G01 X32.6869 Y33.2605
G01 X32.7899 Y33.2345
G01 X32.8058 Y33.2314
G01 X32.9109 Y33.2160
G01 X33.0250 Y33.2104
G01 X33.1311 Y33.2154
G01 X33.1472 Y33.2170
G01 X33.2522 Y33.2328
G01 X33.3553 Y33.2584
G01 X33.3708 Y33.2631
G01 X33.4669 Y33.2975
G01 X33.4781 Y33.3023
G01 X33.5740 Y33.3479
G01 X33.6721 Y33.4066
G01 X33.7639 Y33.4747
G01 X33.8485 Y33.5515
G01 X33.9253 Y33.6362
G01 X33.9934 Y33.7280
G01 X34.0521 Y33.8260
G01 X34.0922 Y33.9102
G01 X34.5250 Y33.9102
G01 X34.5625 Y33.9119
G01 X34.5786 Y33.9134
G01 X34.6157 Y33.9192
G01 X34.6561 Y33.9291
G01 X34.6676 Y33.9328
G01 X34.6953 Y33.9427
G01 X34.7066 Y33.9472
G01 X34.7441 Y33.9651
G01 X34.7764 Y33.9842
G01 X34.7898 Y33.9932
G01 X34.8135 Y34.0108
G01 X34.8230 Y34.0183
G01 X34.8537 Y34.0464
G01 X37.5321 Y36.7248
G01 X38.4854 Y36.7248
G01 X38.5229 Y36.6460
G01 X38.5773 Y36.5548
G01 X38.5863 Y36.5414
G01 X38.6448 Y36.4625
G01 X38.6550 Y36.4501
G01 X38.7265 Y36.3715
G01 X38.8112 Y36.2947
G01 X38.8964 Y36.2313
G01 X38.9098 Y36.2223
G01 X39.0010 Y36.1679
G01 X39.0969 Y36.1223
G01 X39.1119 Y36.1161
G01 X39.2119 Y36.0805
G01 X39.3228 Y36.0528
G01 X39.4359 Y36.0360
G01 X39.5500 Y36.0304
G01 X39.6642 Y36.0360
G01 X39.7772 Y36.0528
G01 X39.8881 Y36.0805
G01 X39.9957 Y36.1190
G01 X40.0990 Y36.1679
G01 X40.1902 Y36.2223
G01 X40.2037 Y36.2313
G01 X40.2825 Y36.2898
G01 X40.2950 Y36.3000
G01 X40.3735 Y36.3715
G01 X40.4450 Y36.4501
G01 X40.4553 Y36.4625
G01 X40.5184 Y36.5480
G01 X40.5771 Y36.6460
G01 X40.6260 Y36.7493
G01 X40.6645 Y36.8569
G01 X40.6923 Y36.9678
G01 X40.7081 Y37.0728
G01 X40.7096 Y37.0889
G01 X40.7145 Y37.1869
G01 X40.7145 Y37.2031
G01 X40.7090 Y37.3092
G01 X40.6923 Y37.4222
G01 X40.6645 Y37.5331
G01 X40.6275 Y37.6369
G01 X40.6227 Y37.6481
G01 X40.5808 Y37.7368
G01 X40.5732 Y37.7511
G01 X40.5184 Y37.8421
G01 X40.4503 Y37.9339
G01 X40.3735 Y38.0185
G01 X40.2950 Y38.0900
G01 X40.2825 Y38.1003
G01 X40.1971 Y38.1634
G01 X40.0990 Y38.2221
G01 X40.0031 Y38.2677
G01 X39.9882 Y38.2739
G01 X39.8881 Y38.3095
G01 X39.7772 Y38.3373
G01 X39.6722 Y38.3531
G01 X39.6561 Y38.3546
G01 X39.5500 Y38.3597
G01 X39.4439 Y38.3546
G01 X39.4278 Y38.3531
G01 X39.3228 Y38.3373
G01 X39.2119 Y38.3095
G01 X39.1119 Y38.2739
G01 X39.0969 Y38.2677
G01 X39.0010 Y38.2221
G01 X38.9030 Y38.1634
G01 X38.8175 Y38.1003
G01 X38.8051 Y38.0900
G01 X38.7265 Y38.0185
G01 X38.6497 Y37.9339
G01 X38.5863 Y37.8487
G01 X38.5773 Y37.8352
G01 X38.5229 Y37.7440
G01 X38.4803 Y37.6544
G01 X37.2655 Y37.6543
G01 X37.2240 Y37.6521
G01 X37.1789 Y37.6454
G01 X37.1347 Y37.6343
G01 X37.0955 Y37.6205
G01 X37.0843 Y37.6157
G01 X37.0505 Y37.5995
G01 X37.0113 Y37.5760
G01 X36.9747 Y37.5489
G01 X36.9409 Y37.5182
G01 X36.9103 Y37.4844
G01 X36.8878 Y37.4544
G01 X36.8788 Y37.4410
G01 X36.8616 Y37.4122
G01 X36.8560 Y37.4015
G01 X36.8402 Y37.3674
G01 X36.8287 Y37.3360
G01 X34.3325 Y34.8398
G01 X34.0922 Y34.8398
G01 X34.0521 Y34.9240
G01 X33.9934 Y35.0221
G01 X33.9253 Y35.1139
G01 X33.8485 Y35.1985
G01 X33.7639 Y35.2753
G01 X33.6721 Y35.3434
G01 X33.5740 Y35.4021
G01 X33.4744 Y35.4494
G01 X33.4632 Y35.4539
G01 X33.3708 Y35.4870
G01 X33.3553 Y35.4917
G01 X33.2522 Y35.5173
G01 X33.1392 Y35.5340
G01 X33.0250 Y35.5397
G01 X32.9189 Y35.5346
G01 X32.9028 Y35.5331
G01 X32.7978 Y35.5173
G01 X32.6869 Y35.4895
G01 X32.5869 Y35.4539
G01 X32.5719 Y35.4477
G01 X32.4832 Y35.4058
G01 X32.4690 Y35.3982
G01 X32.3780 Y35.3434
G01 X32.2862 Y35.2753
G01 X32.2015 Y35.1985
G01 X32.1247 Y35.1139
G01 X32.0566 Y35.0221
G01 X31.9979 Y34.9240
G01 X31.9490 Y34.8207
G01 X31.9131 Y34.7208
G01 X31.9084 Y34.7053
G01 X31.8828 Y34.6022
G01 X31.8670 Y34.4972
G01 X31.8654 Y34.4811
G01 X31.8606 Y34.3831
G01 X31.8606 Y34.3669
G00 Z2.0000
G00 X31.9662 Y31.8336
G01 F240.00
G01 Z-0.0499
G01 F360.00
G01 X31.9713 Y31.7312
G01 X31.9866 Y31.6285
G01 X32.0118 Y31.5277
G01 X32.0468 Y31.4298
G01 X32.0912 Y31.3359
G01 X32.1447 Y31.2468
G01 X32.2065 Y31.1633
G01 X32.2743 Y31.0884
G01 X32.2784 Y31.0843
G01 X32.3533 Y31.0165
G01 X32.4344 Y30.9563
G01 X32.4392 Y30.9531
G01 X32.5234 Y30.9027
G01 X32.5285 Y30.8999
G01 X32.6198 Y30.8568
G01 X32.7177 Y30.8218
G01 X32.8185 Y30.7966
G01 X32.9212 Y30.7813
G01 X33.0250 Y30.7762
G01 X33.1259 Y30.7811
G01 X33.1317 Y30.7817
G01 X33.2287 Y30.7961
G01 X33.2344 Y30.7972
G01 X33.3324 Y30.8218
G01 X33.4302 Y30.8568
G01 X33.5241 Y30.9012
G01 X33.6120 Y30.9539
G01 X33.6944 Y31.0148
G01 X33.6989 Y31.0184
G01 X33.7737 Y31.0863
G01 X33.8444 Y31.1644
G01 X33.9054 Y31.2468
G01 X33.9581 Y31.3346
G01 X34.0026 Y31.4285
G01 X34.0198 Y31.4761
G01 X35.2363 Y31.4761
G01 X36.1661 Y30.5463
G01 X36.1661 Y28.9450
G01 X36.1678 Y28.9098
G01 X36.1733 Y28.8736
G01 X36.1815 Y28.8408
G01 X36.1923 Y28.8103
G01 X36.1946 Y28.8050
G01 X36.2084 Y28.7758
G01 X36.2250 Y28.7480
G01 X36.2282 Y28.7432
G01 X36.2475 Y28.7173
G01 X36.2692 Y28.6933
G01 X36.5212 Y28.4412
G01 X36.5451 Y28.4194
G01 X36.5496 Y28.4158
G01 X36.5780 Y28.3950
G01 X36.6058 Y28.3784
G01 X36.6376 Y28.3634
G01 X36.6708 Y28.3515
G01 X36.7050 Y28.3430
G01 X36.7398 Y28.3378
G01 X36.7736 Y28.3361
G01 X38.5302 Y28.3361
G01 X38.5474 Y28.2885
G01 X38.5919 Y28.1946
G01 X38.6447 Y28.1068
G01 X38.7056 Y28.0244
G01 X38.7743 Y27.9484
G01 X38.7784 Y27.9443
G01 X38.8533 Y27.8765
G01 X38.9356 Y27.8155
G01 X39.0234 Y27.7627
G01 X39.0285 Y27.7599
G01 X39.1198 Y27.7168
G01 X39.2177 Y27.6818
G01 X39.3156 Y27.6572
G01 X39.3213 Y27.6561
G01 X39.4212 Y27.6413
G01 X39.5236 Y27.6362
G01 X39.6259 Y27.6411
G01 X39.6317 Y27.6417
G01 X39.7316 Y27.6566
G01 X39.8324 Y27.6818
G01 X39.9275 Y27.7158
G01 X39.9328 Y27.7180
G01 X40.0241 Y27.7612
G01 X40.1133 Y27.8147
G01 X40.1944 Y27.8748
G01 X40.1989 Y27.8784
G01 X40.2737 Y27.9463
G01 X40.3435 Y28.0233
G01 X40.4037 Y28.1044
G01 X40.4069 Y28.1092
G01 X40.4588 Y28.1959
G01 X40.5032 Y28.2898
G01 X40.5382 Y28.3877
G01 X40.5628 Y28.4856
G01 X40.5640 Y28.4913
G01 X40.5784 Y28.5884
G01 X40.5789 Y28.5941
G01 X40.5838 Y28.6950
G01 X40.5789 Y28.7959
G01 X40.5784 Y28.8017
G01 X40.5635 Y28.9016
G01 X40.5382 Y29.0024
G01 X40.5032 Y29.1002
G01 X40.4588 Y29.1941
G01 X40.4054 Y29.2833
G01 X40.3435 Y29.3667
G01 X40.2737 Y29.4437
G01 X40.1989 Y29.5116
G01 X40.1944 Y29.5153
G01 X40.1156 Y29.5737
G01 X40.1108 Y29.5769
G01 X40.0241 Y29.6288
G01 X39.9328 Y29.6720
G01 X39.9275 Y29.6743
G01 X39.8324 Y29.7082
G01 X39.7330 Y29.7332
G01 X39.6288 Y29.7487
G01 X39.5279 Y29.7537
G01 X39.5221 Y29.7537
G01 X39.4241 Y29.7489
G01 X39.4184 Y29.7484
G01 X39.3185 Y29.7335
G01 X39.2177 Y29.7082
G01 X39.1198 Y29.6732
G01 X39.0246 Y29.6281
G01 X38.9368 Y29.5754
G01 X38.8533 Y29.5135
G01 X38.7763 Y29.4437
G01 X38.7075 Y29.3678
G01 X38.6447 Y29.2833
G01 X38.5919 Y29.1954
G01 X38.5474 Y29.1015
G01 X38.5302 Y29.0540
G01 X36.9237 Y29.0540
G01 X36.8840 Y29.0937
G01 X36.8839 Y30.6965
G01 X36.8822 Y30.7302
G01 X36.8771 Y30.7650
G01 X36.8685 Y30.7992
G01 X36.8561 Y30.8337
G01 X36.8416 Y30.8642
G01 X36.8235 Y30.8944
G01 X36.8025 Y30.9227
G01 X36.7798 Y30.9478
G01 X35.6388 Y32.0888
G01 X35.6127 Y32.1125
G01 X35.5844 Y32.1335
G01 X35.5542 Y32.1516
G01 X35.5224 Y32.1666
G01 X35.4892 Y32.1785
G01 X35.4550 Y32.1871
G01 X35.4202 Y32.1922
G01 X35.3865 Y32.1939
G01 X34.0198 Y32.1940
G01 X34.0026 Y32.2415
G01 X33.9581 Y32.3354
G01 X33.9054 Y32.4233
G01 X33.8444 Y32.5056
G01 X33.7737 Y32.5837
G01 X33.6989 Y32.6516
G01 X33.6944 Y32.6553
G01 X33.6120 Y32.7162
G01 X33.5241 Y32.7688
G01 X33.4302 Y32.8132
G01 X33.3324 Y32.8482
G01 X33.2344 Y32.8728
G01 X33.2287 Y32.8740
G01 X33.1317 Y32.8884
G01 X33.1259 Y32.8889
G01 X33.0250 Y32.8938
G01 X32.9212 Y32.8887
G01 X32.8185 Y32.8735
G01 X32.7177 Y32.8482
G01 X32.6198 Y32.8132
G01 X32.5259 Y32.7688
G01 X32.4368 Y32.7154
G01 X32.3533 Y32.6535
G01 X32.2763 Y32.5837
G01 X32.2084 Y32.5089
G01 X32.2048 Y32.5044
G01 X32.1463 Y32.4256
G01 X32.1431 Y32.4208
G01 X32.0912 Y32.3341
G01 X32.0480 Y32.2428
G01 X32.0458 Y32.2375
G01 X32.0118 Y32.1424
G01 X31.9866 Y32.0416
G01 X31.9713 Y31.9388
G01 X31.9662 Y31.8336
G00 Z2.0000
G00 X31.8604 Y31.8310
G01 F240.00
G01 Z-0.0499
G01 F360.00
G01 X31.8660 Y31.7209
G01 X31.8828 Y31.6078
G01 X31.9105 Y31.4969
G01 X31.9461 Y31.3969
G01 X31.9523 Y31.3819
G01 X31.9979 Y31.2860
G01 X32.0523 Y31.1948
G01 X32.0613 Y31.1814
G01 X32.1198 Y31.1025
G01 X32.1300 Y31.0901
G01 X32.2015 Y31.0115
G01 X32.2862 Y30.9347
G01 X32.3780 Y30.8666
G01 X32.4760 Y30.8079
G01 X32.5793 Y30.7590
G01 X32.6869 Y30.7205
G01 X32.7978 Y30.6928
G01 X32.9028 Y30.6770
G01 X32.9189 Y30.6754
G01 X33.0169 Y30.6706
G01 X33.0331 Y30.6706
G01 X33.1392 Y30.6760
G01 X33.2522 Y30.6928
G01 X33.3631 Y30.7205
G01 X33.4632 Y30.7561
G01 X33.4781 Y30.7623
G01 X33.5668 Y30.8043
G01 X33.5811 Y30.8119
G01 X33.6721 Y30.8666
G01 X33.7575 Y30.9298
G01 X33.7700 Y30.9400
G01 X33.8427 Y31.0059
G01 X33.8541 Y31.0173
G01 X33.9253 Y31.0962
G01 X33.9934 Y31.1880
G01 X34.0521 Y31.2860
G01 X34.0922 Y31.3702
G01 X35.1925 Y31.3702
G01 X36.0602 Y30.5025
G01 X36.0602 Y28.9450
G01 X36.0625 Y28.8995
G01 X36.0678 Y28.8623
G01 X36.0709 Y28.8465
G01 X36.0802 Y28.8101
G01 X36.0927 Y28.7747
G01 X36.0972 Y28.7634
G01 X36.1132 Y28.7295
G01 X36.1191 Y28.7189
G01 X36.1386 Y28.6868
G01 X36.1608 Y28.6565
G01 X36.1710 Y28.6440
G01 X36.1964 Y28.6164
G01 X36.4464 Y28.3664
G01 X36.4740 Y28.3410
G01 X36.4865 Y28.3308
G01 X36.5135 Y28.3108
G01 X36.5236 Y28.3042
G01 X36.5559 Y28.2851
G01 X36.5971 Y28.2656
G01 X36.6401 Y28.2502
G01 X36.6843 Y28.2392
G01 X36.7295 Y28.2325
G01 X36.7710 Y28.2303
G01 X38.4578 Y28.2302
G01 X38.4979 Y28.1460
G01 X38.5523 Y28.0548
G01 X38.5613 Y28.0414
G01 X38.6247 Y27.9562
G01 X38.7015 Y27.8715
G01 X38.7801 Y27.8000
G01 X38.7925 Y27.7898
G01 X38.8780 Y27.7266
G01 X38.9760 Y27.6679
G01 X39.0719 Y27.6223
G01 X39.0869 Y27.6161
G01 X39.1869 Y27.5805
G01 X39.2978 Y27.5528
G01 X39.4028 Y27.5370
G01 X39.4189 Y27.5354
G01 X39.5250 Y27.5304
