(G-CODE GENERATED BY FLATCAM v2024.4 - www.flatcam.org - Version Date: 2024/04/15)

(Name: CUTOUT.gbr_cutout_cnc)
(Type: G-code from Geometry)
(Units: MM)

(Created on Wednesday, 12 November 2025 at 21:19)

(This preprocessor is the default preprocessor used by FlatCAM.)
(It is made to work with MACH3 compatible motion controllers.)

(TOOL DIAMETER: 3.0 mm)
(Feedrate_XY: 60.0 mm/min)
(Feedrate_Z: 60.0 mm/min)
(Feedrate rapids 1500.0 mm/min)

(Z_Cut: -2.0 mm)
(Z_Move: 2.0 mm)
(Z Start: None mm)
(Z End: 55.0 mm)
(X,Y End: None mm)
(Steps per circle: 64)
(Preprocessor Geometry: Default_no_M6)

(X range:   -1.5000 ...   44.5500  mm)
(Y range:   -1.5000 ...   66.5500  mm)

(Spindle Speed: 0.0 RPM)
G21
G90
G94

G01 F60.00

M5
G00 Z15.0000
G00 X0.0000 Y0.0000
T1
(MSG, Change to Tool Dia = 3.0000)
M0
G00 Z15.0000
		
M03
G01 F60.00
G00 X-1.5000 Y65.0250
G01 F60.00
G01 Z-2.0000
G01 F60.00
G01 X-1.4981 Y65.1011
G01 X-1.4836 Y65.2476
G01 X-1.4546 Y65.3944
G01 X-1.4112 Y65.5376
G01 X-1.3541 Y65.6759
G01 X-1.2836 Y65.8080
G01 X-1.2006 Y65.9325
G01 X-1.1057 Y66.0482
G01 X-1.0000 Y66.1541
G01 X-0.8844 Y66.2492
G01 X-0.7600 Y66.3324
G01 X-0.6281 Y66.4031
G01 X-0.4899 Y66.4604
G01 X-0.3467 Y66.5040
G01 X-0.2000 Y66.5333
G01 X-0.0510 Y66.5481
G01 X0.0250 Y66.5500
G01 X43.0250 Y66.5500
G01 X43.1011 Y66.5481
G01 X43.2476 Y66.5337
G01 X43.3944 Y66.5046
G01 X43.5376 Y66.4613
G01 X43.6781 Y66.4031
G01 X43.8101 Y66.3324
G01 X43.9325 Y66.2506
G01 X44.0482 Y66.1558
G01 X44.1541 Y66.0500
G01 X44.2506 Y65.9325
G01 X44.3324 Y65.8101
G01 X44.4031 Y65.6781
G01 X44.4613 Y65.5376
G01 X44.5046 Y65.3944
G01 X44.5333 Y65.2500
G01 X44.5481 Y65.1011
G01 X44.5500 Y65.0250
G01 X44.5500 Y0.0250
G01 X44.5481 Y-0.0510
G01 X44.5337 Y-0.1975
G01 X44.5046 Y-0.3443
G01 X44.4604 Y-0.4899
G01 X44.4031 Y-0.6281
G01 X44.3324 Y-0.7600
G01 X44.2506 Y-0.8824
G01 X44.1558 Y-0.9982
G01 X44.0500 Y-1.1041
G01 X43.9325 Y-1.2006
G01 X43.8101 Y-1.2824
G01 X43.6781 Y-1.3530
G01 X43.5376 Y-1.4112
G01 X43.3944 Y-1.4546
G01 X43.2500 Y-1.4833
G01 X43.1011 Y-1.4981
G01 X43.0250 Y-1.5000
G01 X0.0250 Y-1.5000
G01 X-0.0510 Y-1.4981
G01 X-0.1975 Y-1.4836
G01 X-0.3443 Y-1.4546
G01 X-0.4876 Y-1.4112
G01 X-0.6281 Y-1.3530
G01 X-0.7600 Y-1.2824
G01 X-0.8824 Y-1.2006
G01 X-0.9982 Y-1.1057
G01 X-1.1041 Y-1.0000
G01 X-1.2006 Y-0.8824
G01 X-1.2824 Y-0.7600
G01 X-1.3530 Y-0.6281
G01 X-1.4112 Y-0.4876
G01 X-1.4540 Y-0.3467
G01 X-1.4833 Y-0.2000
G01 X-1.4981 Y-0.0510
G01 X-1.5000 Y0.0250
G01 X-1.5000 Y65.0250
G00 Z2.0000
M05
G00 Z2.0000
G00 Z55.00


